( pcb2gcode 2.0.0 )
( Software-independent Gcode )

G94 ( Millimeters per minute feed rate. )
G21 ( Units == Millimeters. )

G90 ( Absolute coordinates. )
G00 S15000 ( RPM spindle speed. )
G64 P0.01016 ( set maximum deviation from commanded toolpath )
G01 F60.00000 ( Feedrate. )


G00 Z10.00000 (Retract to tool change height)
T0
M5      (Spindle stop.)
G04 P1.00000 (Wait for spindle to stop)
(MSG, Change tool bit to mill diameter 0.50000mm)
M6      (Tool change.)
M0      (Temporary machine stop.)
M3 ( Spindle on clockwise. )
G04 P1.00000 (Wait for spindle to get up to speed)
G04 P0 ( dwell for no time -- G64 should not smooth over this point )
G00 Z2.00000 ( retract )

G00 X1.10800 Y1.48502 ( rapid move to begin. )
G01 F30.00000
G01 Z-0.10000
G04 P0 ( dwell for no time -- G64 should not smooth over this point )
G01 F60.00000
G01 X1.10800 Y1.48502
G01 X1.10800 Y29.16502
G01 X1.11793 Y29.25055
G01 X1.17152 Y29.37447
G01 X1.23766 Y29.44740
G01 X1.31877 Y29.50158
G01 X1.46019 Y29.53957
G01 X55.16499 Y29.54201
G01 X55.26237 Y29.52753
G01 X55.35249 Y29.49022
G01 X55.44805 Y29.41341
G01 X55.50281 Y29.33147
G01 X55.54198 Y29.16502
G01 X55.54198 Y1.48502
G01 X55.52752 Y1.38764
G01 X55.49019 Y1.29752
G01 X55.41338 Y1.20196
G01 X55.33144 Y1.14720
G01 X55.16499 Y1.10801
G01 X1.48498 Y1.10801
G01 X1.33225 Y1.14148
G01 X1.20546 Y1.23358
G01 X1.12641 Y1.36851
G01 X1.10800 Y1.48502
G04 P0 ( dwell for no time -- G64 should not smooth over this point )
G00 Z2.00000 ( retract )

G00 X8.87402 Y6.54244 ( rapid move to begin. )
G01 F30.00000
G01 Z-0.10000
G04 P0 ( dwell for no time -- G64 should not smooth over this point )
G01 F60.00000
G01 X8.87402 Y6.54244
G01 X8.88073 Y6.47442
G01 X8.91944 Y6.38097
G01 X9.03577 Y6.28549
G01 X9.15251 Y6.26403
G01 X9.48098 Y6.26583
G01 X9.08621 Y6.27983
G01 X8.95731 Y6.34988
G01 X8.88980 Y6.47625
G01 X8.88500 Y6.87101
G01 X8.87402 Y6.54244
G04 P0 ( dwell for no time -- G64 should not smooth over this point )
G00 Z2.00000 ( retract )

G00 X10.48898 Y6.26583 ( rapid move to begin. )
G01 F30.00000
G01 Z-0.10000
G04 P0 ( dwell for no time -- G64 should not smooth over this point )
G01 F60.00000
G01 X10.48898 Y6.26583
G01 X10.88377 Y6.27983
G01 X11.01176 Y6.34823
G01 X11.08019 Y6.47625
G01 X11.09416 Y6.87101
G01 X11.08926 Y6.47447
G01 X11.01829 Y6.34168
G01 X10.88558 Y6.27074
G01 X10.48898 Y6.26583
G04 P0 ( dwell for no time -- G64 should not smooth over this point )
G00 Z2.00000 ( retract )

G00 X7.22899 Y8.85041 ( rapid move to begin. )
G01 F30.00000
G01 Z-0.10000
G04 P0 ( dwell for no time -- G64 should not smooth over this point )
G01 F60.00000
G01 X7.22899 Y8.85041
G01 X7.22899 Y8.86413
G01 X7.34324 Y8.88981
G01 X7.47248 Y8.95889
G01 X7.57611 Y9.06253
G01 X7.64073 Y9.18102
G01 X7.68528 Y9.18102
G01 X7.66450 Y9.01081
G01 X7.56900 Y8.89445
G01 X7.47555 Y8.85574
G01 X7.22899 Y8.85041
G04 P0 ( dwell for no time -- G64 should not smooth over this point )
G00 Z2.00000 ( retract )

G00 X5.76412 Y9.12653 ( rapid move to begin. )
G01 F30.00000
G01 Z-0.10000
G04 P0 ( dwell for no time -- G64 should not smooth over this point )
G01 F60.00000
G01 X5.76412 Y9.12653
G01 X5.76468 Y9.18102
G01 X5.80923 Y9.18102
G01 X5.87388 Y9.06253
G01 X5.97751 Y8.95889
G01 X6.10674 Y8.88981
G01 X6.22099 Y8.86413
G01 X6.22099 Y8.85041
G01 X5.97441 Y8.85574
G01 X5.88096 Y8.89445
G01 X5.78548 Y9.01081
G01 X5.76412 Y9.12653
G04 P0 ( dwell for no time -- G64 should not smooth over this point )
G00 Z2.00000 ( retract )

G00 X8.88566 Y14.98225 ( rapid move to begin. )
G01 F30.00000
G01 Z-0.10000
G04 P0 ( dwell for no time -- G64 should not smooth over this point )
G01 F60.00000
G01 X8.88566 Y14.98225
G01 X8.91581 Y15.24900
G01 X8.99195 Y15.46574
G01 X9.11154 Y15.66190
G01 X9.24895 Y15.81247
G01 X9.35998 Y15.89485
G01 X9.36841 Y16.29477
G01 X9.41804 Y16.45845
G01 X9.47994 Y16.56403
G01 X13.29098 Y20.37508
G01 X13.44183 Y20.45570
G01 X13.65791 Y20.49501
G01 X16.18765 Y20.48661
G01 X16.35135 Y20.43695
G01 X16.51376 Y20.32844
G01 X17.18998 Y19.65389
G01 X17.18998 Y20.13014
G01 X16.97368 Y20.28028
G01 X16.81980 Y20.45117
G01 X16.69544 Y20.67477
G01 X16.62966 Y20.89489
G01 X16.60972 Y21.09773
G01 X16.64053 Y21.35173
G01 X16.71670 Y21.56847
G01 X16.81980 Y21.74431
G01 X16.97368 Y21.91520
G01 X17.18305 Y22.06225
G01 X17.36981 Y22.14391
G01 X17.62087 Y22.19308
G01 X17.85056 Y22.18762
G01 X18.02437 Y22.15069
G01 X18.23641 Y22.06225
G01 X18.44576 Y21.91520
G01 X18.59966 Y21.74431
G01 X18.70276 Y21.56847
G01 X18.77890 Y21.35173
G01 X18.80837 Y21.07162
G01 X18.77890 Y20.84376
G01 X18.70276 Y20.62702
G01 X18.59966 Y20.45117
G01 X18.43999 Y20.27561
G01 X18.43999 Y19.04485
G01 X18.55104 Y18.96248
G01 X18.68843 Y18.81191
G01 X18.80801 Y18.61574
G01 X18.88419 Y18.39898
G01 X18.91500 Y18.14501
G01 X18.88419 Y17.89103
G01 X18.80801 Y17.67429
G01 X18.70491 Y17.49845
G01 X18.56953 Y17.34605
G01 X18.38693 Y17.20663
G01 X18.12963 Y17.09207
G01 X17.90382 Y17.04966
G01 X17.72613 Y17.04966
G01 X17.45064 Y17.10823
G01 X17.28831 Y17.18049
G01 X17.09928 Y17.31107
G01 X16.92506 Y17.49845
G01 X16.80070 Y17.72202
G01 X16.73494 Y17.94216
G01 X16.71498 Y18.14501
G01 X16.73431 Y18.34183
G01 X15.83111 Y19.24500
G01 X13.91679 Y19.24500
G01 X10.60999 Y15.93820
G01 X10.60999 Y15.89485
G01 X10.72103 Y15.81247
G01 X10.87491 Y15.64158
G01 X10.97801 Y15.46574
G01 X11.05418 Y15.24900
G01 X11.08362 Y15.02114
G01 X11.06505 Y14.79216
G01 X10.99927 Y14.57204
G01 X10.87491 Y14.34844
G01 X10.72103 Y14.17755
G01 X10.51166 Y14.03051
G01 X10.32490 Y13.94885
G01 X10.12581 Y13.90514
G01 X9.84415 Y13.90514
G01 X9.62063 Y13.95822
G01 X9.45830 Y14.03051
G01 X9.26927 Y14.16109
G01 X9.09508 Y14.34844
G01 X8.97072 Y14.57204
G01 X8.90493 Y14.79216
G01 X8.88566 Y14.98225
G04 P0 ( dwell for no time -- G64 should not smooth over this point )
G00 Z2.00000 ( retract )

G00 X17.37500 Y7.66502 ( rapid move to begin. )
G01 F30.00000
G01 Z-0.10000
G04 P0 ( dwell for no time -- G64 should not smooth over this point )
G01 F60.00000
G01 X17.37500 Y7.66502
G01 X17.40479 Y7.49677
G01 X17.50497 Y7.32964
G01 X17.66146 Y7.21356
G01 X17.80172 Y7.17101
G01 X18.84827 Y7.17101
G01 X19.03174 Y7.23667
G01 X19.17405 Y7.36502
G01 X20.53605 Y7.36502
G01 X20.70395 Y7.17256
G01 X20.91329 Y7.02550
G01 X21.10006 Y6.94386
G01 X21.29917 Y6.90012
G01 X21.52884 Y6.89466
G01 X21.77991 Y6.94386
G01 X21.96668 Y7.02550
G01 X22.17603 Y7.17256
G01 X22.26564 Y7.27002
G01 X24.86000 Y7.27002
G01 X24.86000 Y7.04500
G01 X24.87902 Y6.94935
G01 X24.93320 Y6.86824
G01 X25.01433 Y6.81404
G01 X25.10998 Y6.79502
G01 X25.80876 Y6.79982
G01 X25.93675 Y6.86824
G01 X26.00518 Y6.99624
G01 X26.00998 Y7.65491
G01 X26.05247 Y7.80383
G01 X26.05794 Y7.93421
G01 X26.00998 Y8.13510
G01 X26.00518 Y8.79379
G01 X25.93675 Y8.92178
G01 X25.80876 Y8.99021
G01 X25.10998 Y8.99501
G01 X24.97109 Y8.95287
G01 X24.87902 Y8.84068
G01 X24.86000 Y8.74503
G01 X24.86000 Y8.52001
G01 X22.39879 Y8.52001
G01 X22.32990 Y8.63657
G01 X22.19454 Y8.78897
G01 X22.01194 Y8.92839
G01 X21.77991 Y9.03619
G01 X21.52884 Y9.08536
G01 X21.29917 Y9.07990
G01 X21.10006 Y9.03619
G01 X20.91329 Y8.95452
G01 X20.70395 Y8.80748
G01 X20.53610 Y8.61500
G01 X19.17405 Y8.61500
G01 X19.03174 Y8.74335
G01 X18.84827 Y8.80901
G01 X17.80172 Y8.80901
G01 X17.66146 Y8.76646
G01 X17.57748 Y8.71615
G01 X17.47388 Y8.61251
G01 X17.40479 Y8.48325
G01 X17.37500 Y8.31500
G01 X17.37500 Y7.66502
G04 P0 ( dwell for no time -- G64 should not smooth over this point )
G00 Z2.00000 ( retract )

G00 X18.78002 Y10.52308 ( rapid move to begin. )
G01 F30.00000
G01 Z-0.10000
G04 P0 ( dwell for no time -- G64 should not smooth over this point )
G01 F60.00000
G01 X18.78002 Y10.52308
G01 X18.96062 Y10.39808
G01 X19.07624 Y10.35800
G01 X19.22173 Y10.34004
G01 X21.85391 Y10.34002
G01 X21.99965 Y10.35800
G01 X22.18012 Y10.43275
G01 X22.29587 Y10.52308
G01 X23.72218 Y11.94939
G01 X25.70886 Y11.95061
G01 X25.90046 Y11.98871
G01 X26.05131 Y12.06933
G01 X27.14694 Y13.15307
G01 X27.23726 Y13.26882
G01 X27.29067 Y13.37893
G01 X27.32999 Y13.59500
G01 X27.32999 Y15.19503
G01 X27.31633 Y15.32495
G01 X27.27998 Y15.43678
G01 X27.27998 Y16.04501
G01 X27.23787 Y16.18390
G01 X27.16888 Y16.25288
G01 X27.07876 Y16.29020
G01 X26.33121 Y16.29020
G01 X26.24109 Y16.25288
G01 X26.17211 Y16.18390
G01 X26.13000 Y16.04501
G01 X26.13000 Y15.43678
G01 X26.09365 Y15.32495
G01 X26.07998 Y15.19503
G01 X26.07998 Y13.85391
G01 X25.42548 Y13.19940
G01 X24.08829 Y13.19940
G01 X24.08829 Y16.95519
G01 X25.68115 Y18.54805
G01 X25.77150 Y18.66380
G01 X25.82492 Y18.77394
G01 X25.85580 Y18.89233
G01 X25.86302 Y19.15450
G01 X25.82492 Y19.34607
G01 X25.77150 Y19.45618
G01 X25.69764 Y19.55377
G01 X21.93714 Y23.31596
G01 X21.82139 Y23.40629
G01 X21.71128 Y23.45970
G01 X21.49521 Y23.49902
G01 X14.86962 Y23.49780
G01 X14.74841 Y23.48104
G01 X14.63276 Y23.44096
G01 X14.45219 Y23.31596
G01 X7.75492 Y16.60681
G01 X7.67430 Y16.45596
G01 X7.63618 Y16.26439
G01 X7.63499 Y14.18002
G01 X7.63499 Y16.49876
G01 X14.63525 Y23.49902
G01 X21.75408 Y23.49902
G01 X26.40500 Y18.84810
G01 X26.40500 Y18.64892
G01 X24.99304 Y17.23696
G01 X24.90272 Y17.12121
G01 X24.82797 Y16.94074
G01 X24.80998 Y16.79502
G01 X24.80998 Y15.19503
G01 X24.82365 Y15.06508
G01 X24.86000 Y14.95324
G01 X24.86000 Y14.34501
G01 X24.90211 Y14.20613
G01 X25.01433 Y14.11405
G01 X25.10998 Y14.09500
G01 X25.80876 Y14.09983
G01 X25.89888 Y14.13714
G01 X25.99096 Y14.24933
G01 X26.00998 Y14.34501
G01 X26.00998 Y14.95324
G01 X26.04633 Y15.06508
G01 X26.05999 Y15.19503
G01 X26.05999 Y16.53612
G01 X27.47195 Y17.94808
G01 X27.56228 Y18.06383
G01 X27.63703 Y18.24430
G01 X27.65501 Y18.39001
G01 X27.65501 Y19.10701
G01 X27.61569 Y19.32308
G01 X27.56228 Y19.43319
G01 X27.47195 Y19.54894
G01 X22.45492 Y24.56597
G01 X22.33917 Y24.65630
G01 X22.22906 Y24.70971
G01 X22.01299 Y24.74903
G01 X14.37635 Y24.74903
G01 X14.16027 Y24.70971
G01 X14.05016 Y24.65630
G01 X13.93441 Y24.56597
G01 X6.56803 Y17.19959
G01 X6.47769 Y17.08385
G01 X6.40296 Y16.90338
G01 X6.38498 Y16.75763
G01 X6.38498 Y13.14890
G01 X6.21993 Y12.97197
G01 X6.15805 Y12.86638
G01 X6.10839 Y12.70270
G01 X6.09999 Y12.52742
G01 X5.97751 Y12.46112
G01 X5.90497 Y12.39539
G01 X5.80479 Y12.22825
G01 X5.77499 Y12.06000
G01 X5.77499 Y11.41002
G01 X5.79056 Y11.28866
G01 X5.82353 Y11.19648
G01 X5.93961 Y11.03999
G01 X6.10674 Y10.93981
G01 X6.27499 Y10.91002
G01 X7.17499 Y10.91002
G01 X7.34324 Y10.93981
G01 X7.47248 Y11.00890
G01 X7.57611 Y11.11253
G01 X7.64520 Y11.24177
G01 X7.66991 Y11.34621
G01 X8.90430 Y10.11182
G01 X8.88500 Y9.91500
G01 X8.91581 Y9.66103
G01 X8.99195 Y9.44429
G01 X9.11154 Y9.24812
G01 X9.24895 Y9.09755
G01 X9.45830 Y8.95051
G01 X9.64507 Y8.86885
G01 X9.84415 Y8.82514
G01 X10.07384 Y8.81968
G01 X10.32490 Y8.86885
G01 X10.55693 Y8.97665
G01 X10.73953 Y9.11607
G01 X10.87491 Y9.26844
G01 X10.99927 Y9.49204
G01 X11.06505 Y9.71216
G01 X11.08499 Y9.91500
G01 X11.06569 Y10.11182
G01 X11.70998 Y10.75612
G01 X16.96804 Y5.49807
G01 X17.08381 Y5.40772
G01 X17.26425 Y5.33299
G01 X17.47594 Y5.31501
G01 X17.57748 Y5.21389
G01 X17.75363 Y5.13058
G01 X17.87500 Y5.11501
G01 X18.84827 Y5.12103
G01 X19.03174 Y5.18666
G01 X19.17405 Y5.31501
G01 X20.77314 Y5.31501
G01 X20.83938 Y5.09068
G01 X20.96374 Y4.86708
G01 X21.11761 Y4.69619
G01 X21.28169 Y4.57529
G01 X21.51372 Y4.46749
G01 X21.71281 Y4.42377
G01 X21.94250 Y4.41831
G01 X22.19355 Y4.46749
G01 X22.42558 Y4.57529
G01 X22.58969 Y4.69619
G01 X22.72711 Y4.84676
G01 X22.84666 Y5.04292
G01 X22.93371 Y5.31079
G01 X22.95365 Y5.51366
G01 X22.93371 Y5.71651
G01 X22.86792 Y5.93662
G01 X22.74357 Y6.16022
G01 X22.56935 Y6.34757
G01 X22.42558 Y6.45204
G01 X22.21799 Y6.55044
G01 X21.94250 Y6.60899
G01 X21.71281 Y6.60353
G01 X21.51215 Y6.55786
G01 X19.17405 Y6.56502
G01 X19.07248 Y6.66614
G01 X18.98851 Y6.71645
G01 X18.89633 Y6.74945
G01 X18.77499 Y6.76502
G01 X17.85048 Y6.76380
G01 X17.70675 Y6.73522
G01 X17.57215 Y6.66174
G01 X12.33498 Y11.89889
G01 X12.33500 Y15.52322
G01 X14.33180 Y17.52001
G01 X14.37107 Y17.52001
G01 X14.53893 Y17.32756
G01 X14.70304 Y17.20663
G01 X14.93507 Y17.09886
G01 X15.13416 Y17.05514
G01 X15.36382 Y17.04966
G01 X15.61490 Y17.09886
G01 X15.80167 Y17.18049
G01 X16.01104 Y17.32756
G01 X16.16491 Y17.49845
G01 X16.28927 Y17.72202
G01 X16.35503 Y17.94216
G01 X16.37500 Y18.14501
G01 X16.34419 Y18.39898
G01 X16.26801 Y18.61574
G01 X16.16491 Y18.79159
G01 X16.01104 Y18.96248
G01 X15.80167 Y19.10952
G01 X15.61490 Y19.19118
G01 X15.36382 Y19.24036
G01 X15.13416 Y19.23490
G01 X14.93507 Y19.19118
G01 X14.70304 Y19.08338
G01 X14.53893 Y18.96248
G01 X14.37109 Y18.77002
G01 X13.97523 Y18.76159
G01 X13.85682 Y18.73071
G01 X13.74671 Y18.67729
G01 X13.63096 Y18.58697
G01 X11.20493 Y16.14902
G01 X11.12431 Y15.99817
G01 X11.08499 Y15.78210
G01 X11.08499 Y11.89889
G01 X10.17900 Y10.99290
G01 X10.10155 Y11.00883
G01 X9.89614 Y11.01035
G01 X9.79099 Y10.99290
G01 X7.63499 Y13.14890
G01 X7.63499 Y14.18002
G01 X7.67430 Y13.96394
G01 X7.72770 Y13.85383
G01 X7.80156 Y13.75624
G01 X8.90430 Y12.65182
G01 X8.88500 Y12.45500
G01 X8.90493 Y12.25216
G01 X8.97072 Y12.03204
G01 X9.09508 Y11.80844
G01 X9.24895 Y11.63755
G01 X9.45830 Y11.49051
G01 X9.64507 Y11.40885
G01 X9.84415 Y11.36514
G01 X10.07384 Y11.35968
G01 X10.34933 Y11.41822
G01 X10.55693 Y11.51665
G01 X10.73953 Y11.65607
G01 X10.87491 Y11.80844
G01 X10.97801 Y11.98429
G01 X11.06505 Y12.25216
G01 X11.08428 Y12.46851
G01 X11.06505 Y12.65787
G01 X10.99927 Y12.87799
G01 X10.85845 Y13.12190
G01 X10.72103 Y13.27247
G01 X10.51166 Y13.41951
G01 X10.32490 Y13.50118
G01 X10.12581 Y13.54489
G01 X9.89614 Y13.55035
G01 X9.79099 Y13.53290
G01 X8.88500 Y14.43889
G01 X8.88500 Y15.98098
G01 X15.15300 Y22.24901
G01 X21.23633 Y22.24901
G01 X24.42533 Y19.05999
G01 X23.02134 Y17.65601
G01 X22.93102 Y17.54026
G01 X22.87760 Y17.43015
G01 X22.83828 Y17.21407
G01 X22.83828 Y12.83328
G01 X21.59503 Y11.59003
G01 X19.48086 Y11.59003
G01 X18.43999 Y12.63090
G01 X18.43999 Y14.70519
G01 X18.55104 Y14.78756
G01 X18.70491 Y14.95845
G01 X18.80801 Y15.13429
G01 X18.88419 Y15.35103
G01 X18.91363 Y15.63114
G01 X18.88419 Y15.85898
G01 X18.80801 Y16.07574
G01 X18.70491 Y16.25159
G01 X18.56953 Y16.40396
G01 X18.38693 Y16.54338
G01 X18.15490 Y16.65118
G01 X17.90382 Y16.70036
G01 X17.67416 Y16.69490
G01 X17.47507 Y16.65118
G01 X17.28831 Y16.56952
G01 X17.07893 Y16.42248
G01 X16.91081 Y16.22962
G01 X16.82196 Y16.07574
G01 X16.74579 Y15.85898
G01 X16.71635 Y15.57887
G01 X16.74579 Y15.35103
G01 X16.82196 Y15.13429
G01 X16.94155 Y14.93810
G01 X17.07893 Y14.78756
G01 X17.18998 Y14.70519
G01 X17.18998 Y12.37202
G01 X17.22930 Y12.15594
G01 X17.28272 Y12.04583
G01 X17.37304 Y11.93006
G01 X18.96308 Y10.34002
G01 X24.33388 Y10.34002
G01 X27.34998 Y13.35612
G01 X27.34998 Y15.19503
G01 X27.36365 Y15.32495
G01 X27.40000 Y15.43678
G01 X27.40000 Y16.04501
G01 X27.44211 Y16.18390
G01 X27.55433 Y16.27597
G01 X27.64998 Y16.29502
G01 X28.34876 Y16.29020
G01 X28.43888 Y16.25288
G01 X28.53096 Y16.14069
G01 X28.54998 Y16.04501
G01 X28.54998 Y15.43678
G01 X28.58633 Y15.32495
G01 X28.59999 Y15.19503
G01 X28.59999 Y14.09500
G01 X30.04332 Y14.09500
G01 X32.73527 Y16.78694
G01 X32.85101 Y16.87729
G01 X33.03148 Y16.95204
G01 X33.17720 Y16.97000
G01 X39.49814 Y16.97000
G01 X39.60500 Y16.99502
G01 X42.20499 Y16.99502
G01 X42.30065 Y16.97597
G01 X42.38175 Y16.92179
G01 X42.43596 Y16.84069
G01 X42.45498 Y16.74501
G01 X42.45018 Y15.89624
G01 X42.38175 Y15.76823
G01 X42.25376 Y15.69982
G01 X39.60500 Y15.69502
G01 X39.49814 Y15.72002
G01 X33.43608 Y15.72002
G01 X30.74413 Y13.02807
G01 X30.62839 Y12.93773
G01 X30.44794 Y12.86297
G01 X30.30220 Y12.84502
G01 X28.54571 Y12.84502
G01 X28.41693 Y12.65528
G01 X25.03472 Y9.27307
G01 X24.85413 Y9.14807
G01 X24.73851 Y9.10799
G01 X24.61727 Y9.09123
G01 X18.70420 Y9.09001
G01 X18.55846 Y9.10799
G01 X18.37802 Y9.18274
G01 X18.26227 Y9.27307
G01 X14.76992 Y12.77730
G01 X14.68930 Y12.92815
G01 X14.65120 Y13.11972
G01 X14.64998 Y14.50501
G01 X14.42499 Y14.50501
G01 X14.32931 Y14.52403
G01 X14.21712 Y14.61611
G01 X14.17498 Y14.75502
G01 X14.17498 Y16.45502
G01 X14.19403 Y16.55067
G01 X14.24821 Y16.63180
G01 X14.32931 Y16.68598
G01 X14.42499 Y16.70500
G01 X16.12499 Y16.70500
G01 X16.22067 Y16.68598
G01 X16.33286 Y16.59390
G01 X16.37500 Y16.45502
G01 X16.37500 Y14.75502
G01 X16.33286 Y14.61611
G01 X16.22067 Y14.52403
G01 X16.12499 Y14.50501
G01 X15.89999 Y14.50501
G01 X15.89999 Y13.40311
G01 X17.37304 Y11.93006
G04 P0 ( dwell for no time -- G64 should not smooth over this point )
G00 Z2.00000 ( retract )

G00 X18.95503 Y12.69003 ( rapid move to begin. )
G01 F30.00000
G01 Z-0.10000
G04 P0 ( dwell for no time -- G64 should not smooth over this point )
G01 F60.00000
G01 X18.95503 Y12.69003
G01 X18.97497 Y12.48718
G01 X19.04073 Y12.26707
G01 X19.16511 Y12.04347
G01 X19.31899 Y11.87258
G01 X19.48307 Y11.75165
G01 X19.74037 Y11.63709
G01 X19.91418 Y11.60016
G01 X20.14388 Y11.59470
G01 X20.41936 Y11.65325
G01 X20.62696 Y11.75165
G01 X20.79107 Y11.87258
G01 X20.94494 Y12.04347
G01 X21.04804 Y12.21931
G01 X21.12421 Y12.43605
G01 X21.15502 Y12.69003
G01 X21.12421 Y12.94403
G01 X21.06930 Y13.11301
G01 X20.97999 Y13.27862
G01 X20.97999 Y14.70519
G01 X21.09104 Y14.78756
G01 X21.22843 Y14.93810
G01 X21.34801 Y15.13429
G01 X21.42419 Y15.35103
G01 X21.45500 Y15.60501
G01 X21.42419 Y15.85898
G01 X21.34801 Y16.07574
G01 X21.25916 Y16.22962
G01 X21.09104 Y16.42248
G01 X20.88167 Y16.56952
G01 X20.69490 Y16.65118
G01 X20.44382 Y16.70036
G01 X20.21416 Y16.69490
G01 X20.01507 Y16.65118
G01 X19.82831 Y16.56952
G01 X19.61893 Y16.42248
G01 X19.46506 Y16.25159
G01 X19.36196 Y16.07574
G01 X19.27494 Y15.80788
G01 X19.25498 Y15.60501
G01 X19.27494 Y15.40216
G01 X19.34070 Y15.18202
G01 X19.46506 Y14.95845
G01 X19.61893 Y14.78756
G01 X19.72998 Y14.70519
G01 X19.72998 Y13.74019
G01 X19.48307 Y13.62840
G01 X19.31899 Y13.50750
G01 X19.16511 Y13.33661
G01 X19.04073 Y13.11301
G01 X18.97497 Y12.89290
G01 X18.95503 Y12.69003
G04 P0 ( dwell for no time -- G64 should not smooth over this point )
G00 Z2.00000 ( retract )

G00 X18.44799 Y19.23578 ( rapid move to begin. )
G01 F30.00000
G01 Z-0.10000
G04 P0 ( dwell for no time -- G64 should not smooth over this point )
G01 F60.00000
G01 X18.44799 Y19.23578
G01 X18.45531 Y20.18679
G01 X18.50900 Y20.31851
G01 X18.69163 Y20.57289
G01 X18.77515 Y20.77457
G01 X18.81772 Y20.98864
G01 X18.81772 Y21.20685
G01 X18.77515 Y21.42095
G01 X18.64716 Y21.69778
G01 X18.61035 Y21.81472
G01 X18.60702 Y21.87629
G01 X18.63100 Y21.99684
G01 X18.70133 Y22.11134
G01 X18.81749 Y22.20057
G01 X18.95922 Y22.23982
G01 X21.07684 Y22.24101
G01 X21.19729 Y22.21955
G01 X21.32404 Y22.14652
G01 X24.14745 Y19.32659
G01 X24.20089 Y19.25908
G01 X24.23640 Y19.18044
G01 X24.25542 Y19.08478
G01 X24.25062 Y18.98646
G01 X24.17971 Y18.83086
G01 X23.01451 Y17.66502
G01 X22.93442 Y17.56744
G01 X22.87565 Y17.45748
G01 X22.83945 Y17.33815
G01 X22.82708 Y17.21255
G01 X22.82784 Y12.96783
G01 X22.80986 Y12.87159
G01 X22.71987 Y12.72617
G01 X21.70214 Y11.70844
G01 X21.57984 Y11.62673
G01 X21.45695 Y11.59894
G01 X21.33219 Y11.60054
G01 X21.16417 Y11.65500
G01 X21.08822 Y11.71733
G01 X21.03806 Y11.78754
G01 X20.99107 Y11.92625
G01 X21.00072 Y12.07240
G01 X21.12066 Y12.36798
G01 X21.16303 Y12.58093
G01 X21.16303 Y12.79914
G01 X21.12061 Y13.01233
G01 X21.01738 Y13.25650
G01 X20.98799 Y13.40245
G01 X20.99163 Y14.56419
G01 X21.05073 Y14.72317
G01 X21.21484 Y14.89751
G01 X21.33689 Y15.08019
G01 X21.42040 Y15.28182
G01 X21.46297 Y15.49586
G01 X21.46297 Y15.71415
G01 X21.42040 Y15.92820
G01 X21.33689 Y16.12985
G01 X21.21563 Y16.31130
G01 X21.06036 Y16.46657
G01 X20.89521 Y16.57943
G01 X20.82983 Y16.64481
G01 X20.77956 Y16.72644
G01 X20.74870 Y16.86635
G01 X20.77227 Y17.00767
G01 X20.84621 Y17.12926
G01 X21.09942 Y17.32669
G01 X21.24527 Y17.48849
G01 X21.33613 Y17.64102
G01 X21.24491 Y17.49845
G01 X21.09104 Y17.32756
G01 X20.88167 Y17.18049
G01 X20.69490 Y17.09886
G01 X20.49582 Y17.05514
G01 X20.26613 Y17.04966
G01 X20.01507 Y17.09886
G01 X19.82831 Y17.18049
G01 X19.61893 Y17.32756
G01 X19.45081 Y17.52040
G01 X19.34070 Y17.72202
G01 X19.28579 Y17.89103
G01 X19.25498 Y18.14501
G01 X19.28579 Y18.39898
G01 X19.36196 Y18.61574
G01 X19.45081 Y18.76962
G01 X19.61893 Y18.96248
G01 X19.85099 Y19.12430
G01 X19.78370 Y19.09225
G01 X19.60989 Y18.96261
G01 X19.46323 Y18.79992
G01 X19.33202 Y18.62082
G01 X19.19940 Y18.54910
G01 X19.04929 Y18.53513
G01 X18.92843 Y18.56942
G01 X18.81721 Y18.64958
G01 X18.67570 Y18.85166
G01 X18.51528 Y19.02029
G01 X18.46969 Y19.10924
G01 X18.44799 Y19.23578
G04 P0 ( dwell for no time -- G64 should not smooth over this point )
G00 Z2.00000 ( retract )

G00 X26.98463 Y22.12569 ( rapid move to begin. )
G01 F30.00000
G01 Z-0.10000
G04 P0 ( dwell for no time -- G64 should not smooth over this point )
G01 F60.00000
G01 X26.98463 Y22.12569
G01 X27.01544 Y21.87172
G01 X27.09161 Y21.65496
G01 X27.19471 Y21.47914
G01 X27.34859 Y21.30825
G01 X27.55793 Y21.16118
G01 X27.74470 Y21.07954
G01 X27.99578 Y21.03034
G01 X28.20121 Y21.03189
G01 X28.27863 Y21.04782
G01 X28.61998 Y20.70644
G01 X28.61998 Y15.19503
G01 X28.63365 Y15.06508
G01 X28.67000 Y14.95324
G01 X28.67480 Y14.29625
G01 X28.74322 Y14.16823
G01 X28.86311 Y14.10227
G01 X29.56997 Y14.09503
G01 X29.66679 Y14.11464
G01 X29.77787 Y14.20613
G01 X29.81518 Y14.29625
G01 X29.81998 Y14.95324
G01 X29.85633 Y15.06508
G01 X29.86999 Y15.19503
G01 X29.86999 Y20.96535
G01 X29.83067 Y21.18140
G01 X29.77726 Y21.29153
G01 X29.70339 Y21.38909
G01 X29.16532 Y21.92890
G01 X29.18462 Y22.12569
G01 X29.15381 Y22.37967
G01 X29.07764 Y22.59643
G01 X28.97454 Y22.77225
G01 X28.82067 Y22.94314
G01 X28.65658 Y23.06407
G01 X28.42456 Y23.17184
G01 X28.17348 Y23.22104
G01 X27.94381 Y23.21558
G01 X27.74470 Y23.17184
G01 X27.51267 Y23.06407
G01 X27.33007 Y22.92465
G01 X27.19471 Y22.77225
G01 X27.09161 Y22.59643
G01 X27.01544 Y22.37967
G01 X26.98463 Y22.12569
G04 P0 ( dwell for no time -- G64 should not smooth over this point )
G00 Z2.00000 ( retract )

G00 X29.65933 Y8.97789 ( rapid move to begin. )
G01 F30.00000
G01 Z-0.10000
G04 P0 ( dwell for no time -- G64 should not smooth over this point )
G01 F60.00000
G01 X29.65933 Y8.97789
G01 X29.74675 Y8.92178
G01 X29.81518 Y8.79379
G01 X29.82918 Y8.39903
G01 X29.82425 Y8.79562
G01 X29.75331 Y8.92834
G01 X29.66921 Y8.98452
G01 X29.65933 Y8.97789
G04 P0 ( dwell for no time -- G64 should not smooth over this point )
G00 Z2.00000 ( retract )

G00 X27.34998 Y7.89501 ( rapid move to begin. )
G01 F30.00000
G01 Z-0.10000
G04 P0 ( dwell for no time -- G64 should not smooth over this point )
G01 F60.00000
G01 X27.34998 Y7.89501
G01 X27.35120 Y9.39951
G01 X27.38930 Y9.59110
G01 X27.46992 Y9.74195
G01 X32.00303 Y14.28695
G01 X32.18363 Y14.41194
G01 X32.29925 Y14.45205
G01 X32.44499 Y14.47001
G01 X39.49814 Y14.47001
G01 X39.60500 Y14.49500
G01 X42.20499 Y14.49500
G01 X42.34388 Y14.45289
G01 X42.43596 Y14.34070
G01 X42.45498 Y14.24501
G01 X42.45018 Y13.39625
G01 X42.38175 Y13.26823
G01 X42.25376 Y13.19980
G01 X39.60500 Y13.19500
G01 X39.49814 Y13.22002
G01 X32.70387 Y13.22002
G01 X28.59999 Y9.11614
G01 X28.59862 Y7.86888
G01 X28.58633 Y7.76507
G01 X28.54998 Y7.65323
G01 X28.54518 Y6.99624
G01 X28.47675 Y6.86824
G01 X28.39565 Y6.81404
G01 X28.29999 Y6.79502
G01 X27.64998 Y6.79502
G01 X27.55433 Y6.81404
G01 X27.47322 Y6.86824
G01 X27.40480 Y6.99624
G01 X27.40000 Y7.65323
G01 X27.36365 Y7.76507
G01 X27.34998 Y7.89501
G04 P0 ( dwell for no time -- G64 should not smooth over this point )
G00 Z2.00000 ( retract )

G00 X29.74899 Y6.85816 ( rapid move to begin. )
G01 F30.00000
G01 Z-0.10000
G04 P0 ( dwell for no time -- G64 should not smooth over this point )
G01 F60.00000
G01 X29.74899 Y6.85816
G01 X29.78554 Y6.90096
G01 X29.82425 Y6.99441
G01 X29.82918 Y7.39100
G01 X29.81518 Y6.99624
G01 X29.74899 Y6.85816
G04 P0 ( dwell for no time -- G64 should not smooth over this point )
G00 Z2.00000 ( retract )

G00 X42.75498 Y18.44501 ( rapid move to begin. )
G01 F30.00000
G01 Z-0.10000
G04 P0 ( dwell for no time -- G64 should not smooth over this point )
G01 F60.00000
G01 X42.75498 Y18.44501
G01 X42.75978 Y19.29380
G01 X42.82821 Y19.42179
G01 X42.95623 Y19.49022
G01 X45.60499 Y19.49502
G01 X45.70067 Y19.47599
G01 X45.78177 Y19.42179
G01 X45.85017 Y19.29380
G01 X45.85017 Y18.39624
G01 X45.78177 Y18.26825
G01 X45.65376 Y18.19982
G01 X43.00499 Y18.19502
G01 X42.90931 Y18.21404
G01 X42.82821 Y18.26825
G01 X42.77401 Y18.34935
G01 X42.75498 Y18.44501
G04 P0 ( dwell for no time -- G64 should not smooth over this point )
G00 Z2.00000 ( retract )

G00 X44.80898 Y16.99502 ( rapid move to begin. )
G01 F30.00000
G01 Z-0.10000
G04 P0 ( dwell for no time -- G64 should not smooth over this point )
G01 F60.00000
G01 X44.80898 Y16.99502
G01 X45.65376 Y16.99022
G01 X45.74388 Y16.95288
G01 X45.84194 Y16.84900
G01 X45.74901 Y16.96058
G01 X45.65556 Y16.99929
G01 X44.80898 Y16.99502
G04 P0 ( dwell for no time -- G64 should not smooth over this point )
G00 Z2.00000 ( retract )

G00 X44.80898 Y15.68636 ( rapid move to begin. )
G01 F30.00000
G01 Z-0.10000
G04 P0 ( dwell for no time -- G64 should not smooth over this point )
G01 F60.00000
G01 X44.80898 Y15.68636
G01 X45.65376 Y15.69982
G01 X45.74388 Y15.73714
G01 X45.84194 Y15.84102
G01 X45.74901 Y15.72944
G01 X45.65556 Y15.69073
G01 X44.80898 Y15.68636
G04 P0 ( dwell for no time -- G64 should not smooth over this point )
G00 Z2.00000 ( retract )

G00 X44.80898 Y14.49500 ( rapid move to begin. )
G01 F30.00000
G01 Z-0.10000
G04 P0 ( dwell for no time -- G64 should not smooth over this point )
G01 F60.00000
G01 X44.80898 Y14.49500
G01 X45.65376 Y14.49020
G01 X45.74388 Y14.45289
G01 X45.84194 Y14.34900
G01 X45.74903 Y14.46056
G01 X45.65558 Y14.49927
G01 X44.80898 Y14.49500
G04 P0 ( dwell for no time -- G64 should not smooth over this point )
G00 Z2.00000 ( retract )

G00 X44.80898 Y13.18634 ( rapid move to begin. )
G01 F30.00000
G01 Z-0.10000
G04 P0 ( dwell for no time -- G64 should not smooth over this point )
G01 F60.00000
G01 X44.80898 Y13.18634
G01 X45.65376 Y13.19980
G01 X45.74388 Y13.23714
G01 X45.84194 Y13.34100
G01 X45.74903 Y13.22947
G01 X45.65556 Y13.19074
G01 X44.80898 Y13.18634
G04 P0 ( dwell for no time -- G64 should not smooth over this point )
G00 Z2.00000 ( retract )

G00 X42.90941 Y13.21403 ( rapid move to begin. )
G01 F30.00000
G01 Z-0.10000
G04 P0 ( dwell for no time -- G64 should not smooth over this point )
G01 F60.00000
G01 X42.90941 Y13.21403
G01 X43.00499 Y13.19500
G01 X43.80098 Y13.18634
G01 X42.95442 Y13.19074
G01 X42.82821 Y13.26823
G01 X42.77401 Y13.34933
G01 X42.75498 Y13.44502
G01 X42.75498 Y14.24501
G01 X42.77401 Y14.34070
G01 X42.82821 Y14.42180
G01 X42.95623 Y14.49020
G01 X43.80098 Y14.50366
G01 X42.95440 Y14.49927
G01 X42.85714 Y14.45853
G01 X42.77891 Y14.40374
G01 X42.61744 Y14.36180
G01 X42.47256 Y14.38697
G01 X42.30418 Y14.48454
G01 X42.18648 Y14.50608
G01 X39.62347 Y14.50608
G01 X39.42837 Y14.47801
G01 X33.03003 Y14.48794
G01 X32.90611 Y14.54156
G01 X32.80209 Y14.64557
G01 X32.74581 Y14.78146
G01 X32.74581 Y14.92855
G01 X32.77900 Y15.02124
G01 X32.83318 Y15.10234
G01 X33.37608 Y15.64140
G01 X33.46275 Y15.68773
G01 X33.59556 Y15.71202
G01 X39.42837 Y15.71202
G01 X39.62352 Y15.68395
G01 X42.18645 Y15.68395
G01 X42.30421 Y15.70551
G01 X42.44944 Y15.79480
G01 X42.59293 Y15.82700
G01 X42.73743 Y15.80305
G01 X42.90946 Y15.71400
G01 X43.00499 Y15.69502
G01 X43.80098 Y15.68636
G01 X42.95442 Y15.69076
G01 X42.82821 Y15.76823
G01 X42.77401 Y15.84935
G01 X42.75498 Y15.94501
G01 X42.75498 Y16.74501
G01 X42.77401 Y16.84069
G01 X42.82821 Y16.92179
G01 X42.95623 Y16.99022
G01 X43.80098 Y17.00366
G01 X42.95442 Y16.99929
G01 X42.85714 Y16.95852
G01 X42.77891 Y16.90373
G01 X42.61744 Y16.86182
G01 X42.47256 Y16.88697
G01 X42.30418 Y16.98453
G01 X42.18648 Y17.00610
G01 X39.62347 Y17.00610
G01 X39.42837 Y16.97800
G01 X33.17875 Y16.98123
G01 X33.05310 Y16.96886
G01 X32.93379 Y16.93266
G01 X32.82381 Y16.87386
G01 X32.72625 Y16.79380
G01 X30.47464 Y14.53765
G01 X30.39554 Y14.47902
G01 X30.30540 Y14.44042
G01 X30.18328 Y14.42967
G01 X30.11071 Y14.44042
G01 X29.97937 Y14.50656
G01 X29.91038 Y14.57552
G01 X29.85976 Y14.65995
G01 X29.83108 Y14.80750
G01 X29.83517 Y14.94598
G01 X29.87799 Y15.16396
G01 X29.88119 Y20.96380
G01 X29.86882 Y21.08943
G01 X29.83263 Y21.20875
G01 X29.77385 Y21.31871
G01 X29.69377 Y21.41630
G01 X29.30304 Y21.80248
G01 X29.22133 Y21.92478
G01 X29.19263 Y22.06905
G01 X29.19263 Y22.23479
G01 X29.15006 Y22.44888
G01 X29.06651 Y22.65053
G01 X28.94528 Y22.83199
G01 X28.79092 Y22.98635
G01 X28.60947 Y23.10758
G01 X28.40784 Y23.19110
G01 X28.19372 Y23.23369
G01 X27.97553 Y23.23369
G01 X27.76141 Y23.19110
G01 X27.55981 Y23.10761
G01 X27.37833 Y22.98632
G01 X27.22400 Y22.83202
G01 X27.10274 Y22.65053
G01 X27.01922 Y22.44891
G01 X26.97663 Y22.23481
G01 X26.97663 Y22.01658
G01 X27.01922 Y21.80248
G01 X27.10271 Y21.60088
G01 X27.22400 Y21.41937
G01 X27.37830 Y21.26507
G01 X27.55979 Y21.14381
G01 X27.76141 Y21.06029
G01 X27.97551 Y21.01770
G01 X28.19004 Y21.01290
G01 X28.32969 Y20.96677
G01 X28.54140 Y20.76646
G01 X28.58770 Y20.67980
G01 X28.61198 Y20.54683
G01 X28.60472 Y16.60945
G01 X28.57154 Y16.51687
G01 X28.51805 Y16.43467
G01 X28.43408 Y16.36304
G01 X28.30904 Y16.31344
G01 X27.66903 Y16.30615
G01 X27.54742 Y16.28352
G01 X27.44607 Y16.23757
G01 X27.30304 Y16.22416
G01 X27.08056 Y16.29929
G01 X26.75141 Y16.30610
G01 X26.60713 Y16.33477
G01 X26.49372 Y16.40805
G01 X26.43139 Y16.48400
G01 X26.38166 Y16.60953
G01 X26.37686 Y16.70785
G01 X26.39588 Y16.80353
G01 X26.46835 Y16.93150
G01 X27.47879 Y17.93906
G01 X27.55887 Y18.03665
G01 X27.61765 Y18.14661
G01 X27.65384 Y18.26596
G01 X27.66621 Y18.39156
G01 X27.66621 Y19.10546
G01 X27.65384 Y19.23109
G01 X27.61765 Y19.35041
G01 X27.55887 Y19.46037
G01 X27.47879 Y19.55796
G01 X22.46394 Y24.57278
G01 X22.36635 Y24.65289
G01 X22.25642 Y24.71164
G01 X22.13706 Y24.74786
G01 X22.01141 Y24.76023
G01 X14.37790 Y24.76023
G01 X14.25229 Y24.74786
G01 X14.13294 Y24.71167
G01 X14.02298 Y24.65289
G01 X13.92540 Y24.57281
G01 X6.56120 Y17.20861
G01 X6.48114 Y17.11105
G01 X6.42234 Y17.00107
G01 X6.38612 Y16.88171
G01 X6.37375 Y16.75611
G01 X6.37141 Y13.24916
G01 X6.33308 Y13.13732
G01 X6.19610 Y12.95840
G01 X6.13735 Y12.84845
G01 X6.05096 Y12.56320
G01 X5.85158 Y12.34294
G01 X5.77553 Y12.15937
G01 X5.76392 Y11.42856
G01 X5.77553 Y11.31065
G01 X5.85180 Y11.12663
G01 X5.99656 Y10.93222
G01 X6.01761 Y10.87428
G01 X6.02968 Y10.75196
G01 X6.01050 Y10.65559
G01 X5.97222 Y10.57824
G01 X5.84337 Y10.44540
G01 X5.78548 Y10.35925
G01 X5.76468 Y10.18902
G01 X5.80923 Y10.18902
G01 X5.87388 Y10.30751
G01 X5.97751 Y10.41114
G01 X6.15363 Y10.49445
G01 X6.27499 Y10.51002
G01 X7.17499 Y10.51002
G01 X7.29633 Y10.49445
G01 X7.43173 Y10.43837
G01 X7.54502 Y10.34538
G01 X7.64073 Y10.18902
G01 X7.68528 Y10.18902
G01 X7.65881 Y10.45386
G01 X7.68594 Y10.57802
G01 X7.73689 Y10.66676
G01 X7.85259 Y10.76613
G01 X7.97258 Y10.80804
G01 X8.07484 Y10.81111
G01 X8.19714 Y10.77652
G01 X8.30219 Y10.70263
G01 X8.82607 Y10.16006
G01 X8.87219 Y10.02044
G01 X8.87699 Y9.80588
G01 X8.91956 Y9.59181
G01 X9.00308 Y9.39019
G01 X9.12528 Y9.20731
G01 X9.27252 Y9.05214
G01 X9.32955 Y8.92430
G01 X9.33404 Y8.77020
G01 X9.27638 Y8.62722
G01 X9.16627 Y8.51932
G01 X8.99096 Y8.44058
G01 X8.89549 Y8.32422
G01 X8.87402 Y8.20759
G01 X8.87580 Y7.87901
G01 X8.88980 Y8.27378
G01 X8.96026 Y8.40317
G01 X9.03933 Y8.45597
G01 X9.13498 Y8.47502
G01 X10.83498 Y8.47502
G01 X10.97389 Y8.43288
G01 X11.06597 Y8.32069
G01 X11.08499 Y8.22501
G01 X11.09416 Y7.87901
G01 X11.09596 Y8.20756
G01 X11.07450 Y8.32425
G01 X10.97900 Y8.44058
G01 X10.80371 Y8.51932
G01 X10.69358 Y8.62722
G01 X10.63594 Y8.77020
G01 X10.64044 Y8.92430
G01 X10.69744 Y9.05214
G01 X10.84471 Y9.20731
G01 X10.96688 Y9.39016
G01 X11.05040 Y9.59181
G01 X11.09299 Y9.80588
G01 X11.10292 Y10.05719
G01 X11.15652 Y10.18112
G01 X11.50053 Y10.52513
G01 X11.63645 Y10.58142
G01 X11.73477 Y10.58622
G01 X11.83117 Y10.56824
G01 X11.97656 Y10.47825
G01 X16.95902 Y5.49123
G01 X17.05658 Y5.41117
G01 X17.16661 Y5.35235
G01 X17.48566 Y5.26878
G01 X17.68013 Y5.14452
G01 X17.77563 Y5.11554
G01 X17.89354 Y5.10394
G01 X18.75643 Y5.10394
G01 X18.87436 Y5.11557
G01 X18.96984 Y5.14452
G01 X19.18655 Y5.27688
G01 X19.33397 Y5.30701
G01 X20.56186 Y5.29972
G01 X20.69749 Y5.24348
G01 X20.80031 Y5.14125
G01 X20.87095 Y4.98966
G01 X21.03859 Y4.72956
G01 X21.06668 Y4.63647
G01 X21.05863 Y4.47767
G01 X20.99252 Y4.34633
G01 X20.92353 Y4.27734
G01 X20.83910 Y4.22672
G01 X20.69478 Y4.19802
G01 X9.01052 Y4.20046
G01 X8.87986 Y4.23167
G01 X8.76876 Y4.30843
G01 X4.78841 Y8.28879
G01 X4.70670 Y8.41109
G01 X4.67799 Y8.55536
G01 X4.68279 Y17.67343
G01 X4.70670 Y17.76893
G01 X4.78841 Y17.89124
G01 X12.83276 Y25.93559
G01 X12.91186 Y25.99422
G01 X13.00198 Y26.03155
G01 X13.09936 Y26.04601
G01 X32.71411 Y26.04088
G01 X32.80811 Y26.01235
G01 X32.91921 Y25.93559
G01 X39.24333 Y19.61148
G01 X39.31912 Y19.50274
G01 X39.35242 Y19.37658
G01 X39.35072 Y18.39441
G01 X39.46609 Y18.23716
G01 X39.60500 Y18.19502
G01 X42.20499 Y18.19502
G01 X42.30065 Y18.21404
G01 X42.41284 Y18.30612
G01 X42.45018 Y18.39624
G01 X42.45018 Y19.29380
G01 X42.38175 Y19.42179
G01 X42.25376 Y19.49022
G01 X41.13888 Y19.49502
G01 X33.51294 Y27.12096
G01 X33.39716 Y27.21128
G01 X33.21672 Y27.28603
G01 X33.07098 Y27.30402
G01 X12.68100 Y27.30402
G01 X12.53525 Y27.28603
G01 X12.35479 Y27.21128
G01 X12.23904 Y27.12096
G01 X3.60304 Y18.48496
G01 X3.47805 Y18.30437
G01 X3.43797 Y18.18875
G01 X3.41998 Y18.04300
G01 X3.41998 Y8.13700
G01 X3.43797 Y7.99128
G01 X3.47805 Y7.87566
G01 X3.60304 Y7.69507
G01 X8.17504 Y3.12307
G01 X8.35563 Y2.99807
G01 X8.47125 Y2.95799
G01 X8.59249 Y2.94123
G01 X23.95266 Y2.94842
G01 X24.11633 Y2.99807
G01 X24.29693 Y3.12307
G01 X27.14694 Y5.97307
G01 X27.27193 Y6.15367
G01 X27.31201 Y6.26929
G01 X27.32999 Y6.41501
G01 X27.32999 Y7.89501
G01 X27.31633 Y8.02496
G01 X27.27998 Y8.13680
G01 X27.27998 Y8.74503
G01 X27.26096 Y8.84068
G01 X27.16888 Y8.95287
G01 X27.07876 Y8.99021
G01 X26.33121 Y8.99021
G01 X26.20322 Y8.92178
G01 X26.13480 Y8.79379
G01 X26.13000 Y8.13680
G01 X26.09365 Y8.02496
G01 X26.07998 Y7.89501
G01 X26.07998 Y6.67388
G01 X23.59612 Y4.19002
G01 X8.87588 Y4.19002
G01 X4.66999 Y8.39590
G01 X4.66999 Y17.78412
G01 X12.93988 Y26.05403
G01 X32.81210 Y26.05403
G01 X39.43706 Y19.42905
G01 X39.37401 Y19.34069
G01 X39.35499 Y19.24500
G01 X39.35499 Y18.44501
G01 X39.37401 Y18.34935
G01 X39.42166 Y18.26169
G01 X39.50581 Y18.20548
G01 X39.62344 Y18.18394
G01 X42.18653 Y18.18394
G01 X42.30418 Y18.20548
G01 X42.47256 Y18.30307
G01 X42.61744 Y18.32822
G01 X42.77891 Y18.28631
G01 X42.90581 Y18.20548
G01 X43.02343 Y18.18394
G01 X45.65556 Y18.19075
G01 X45.78830 Y18.26169
G01 X45.85924 Y18.39441
G01 X45.85924 Y19.29560
G01 X45.82053 Y19.38905
G01 X45.74903 Y19.46057
G01 X45.65556 Y19.49928
G01 X43.02354 Y19.50609
G01 X42.90578 Y19.48453
G01 X42.78968 Y19.40960
G01 X42.70261 Y19.37416
G01 X42.56804 Y19.36301
G01 X42.43108 Y19.40373
G01 X42.35282 Y19.45852
G01 X42.25557 Y19.49928
G01 X41.29527 Y19.50609
G01 X41.19788 Y19.52054
G01 X41.10685 Y19.55702
G01 X41.04797 Y19.60068
G01 X33.52195 Y27.12779
G01 X33.42437 Y27.20788
G01 X33.31441 Y27.26665
G01 X33.19506 Y27.30285
G01 X33.06945 Y27.31522
G01 X12.68252 Y27.31522
G01 X12.55692 Y27.30285
G01 X12.43757 Y27.26665
G01 X12.32764 Y27.20788
G01 X12.23002 Y27.12779
G01 X3.59621 Y18.49398
G01 X3.51610 Y18.39636
G01 X3.45735 Y18.28643
G01 X3.42115 Y18.16708
G01 X3.40878 Y18.04148
G01 X3.40878 Y8.13855
G01 X3.42115 Y8.01295
G01 X3.45735 Y7.89359
G01 X3.51612 Y7.78364
G01 X3.59621 Y7.68605
G01 X8.16602 Y3.11623
G01 X8.26361 Y3.03615
G01 X8.37359 Y2.97737
G01 X8.49290 Y2.94118
G01 X8.61852 Y2.92881
G01 X23.85344 Y2.92881
G01 X23.97907 Y2.94118
G01 X24.09840 Y2.97737
G01 X24.20838 Y3.03615
G01 X24.30597 Y3.11626
G01 X25.88328 Y4.69812
G01 X26.00561 Y4.77983
G01 X26.13762 Y4.80823
G01 X26.23541 Y4.79860
G01 X26.35933 Y4.74501
G01 X26.46334 Y4.64099
G01 X26.50541 Y4.55199
G01 X26.52443 Y4.45631
G01 X26.52009 Y4.36040
G01 X26.47005 Y4.22062
G01 X26.42700 Y4.00414
G01 X26.42700 Y3.78588
G01 X26.46957 Y3.57183
G01 X26.55308 Y3.37018
G01 X26.67434 Y3.18870
G01 X26.82867 Y3.03437
G01 X27.01016 Y2.91311
G01 X27.21178 Y2.82959
G01 X27.42585 Y2.78702
G01 X27.64411 Y2.78702
G01 X27.85816 Y2.82959
G01 X28.05981 Y2.91311
G01 X28.24249 Y3.03516
G01 X28.43670 Y3.21110
G01 X28.52773 Y3.24755
G01 X28.62509 Y3.26200
G01 X33.45345 Y3.25880
G01 X33.57910 Y3.27117
G01 X33.69838 Y3.30737
G01 X33.80836 Y3.36614
G01 X33.90595 Y3.44623
G01 X41.04797 Y10.58934
G01 X41.10685 Y10.63301
G01 X41.19788 Y10.66948
G01 X41.29527 Y10.68393
G01 X42.25557 Y10.69074
G01 X42.35285 Y10.73151
G01 X42.43108 Y10.78630
G01 X42.59255 Y10.82821
G01 X42.73743 Y10.80306
G01 X42.90578 Y10.70550
G01 X43.02354 Y10.68393
G01 X45.58645 Y10.68393
G01 X45.65556 Y10.69074
G01 X45.74903 Y10.72945
G01 X45.78012 Y10.76735
G01 X45.65376 Y10.69981
G01 X43.00499 Y10.69501
G01 X42.90931 Y10.71403
G01 X42.82821 Y10.76824
G01 X42.77401 Y10.84934
G01 X42.75498 Y10.94502
G01 X42.75978 Y11.79379
G01 X42.82821 Y11.92178
G01 X42.95623 Y11.99021
G01 X45.60499 Y11.99501
G01 X45.74032 Y11.95396
G01 X45.81111 Y11.88563
G01 X45.85924 Y11.79562
G01 X45.86605 Y10.96349
G01 X45.84451 Y10.84581
G01 X45.78012 Y10.76735
G01 X45.85017 Y10.89625
G01 X45.85017 Y11.79379
G01 X45.78830 Y11.92833
G01 X45.65556 Y11.99927
G01 X43.02348 Y12.00608
G01 X42.90578 Y11.98452
G01 X42.76052 Y11.89523
G01 X42.61703 Y11.86303
G01 X42.47256 Y11.88695
G01 X42.30418 Y11.98452
G01 X42.18648 Y12.00608
G01 X39.62349 Y12.00608
G01 X39.50579 Y11.98454
G01 X39.46375 Y11.95005
G01 X39.60500 Y11.99501
G01 X42.20499 Y11.99501
G01 X42.34388 Y11.95289
G01 X42.43596 Y11.84068
G01 X42.45498 Y11.74502
G01 X42.45498 Y10.94502
G01 X42.43596 Y10.84934
G01 X42.38175 Y10.76824
G01 X42.30065 Y10.71403
G01 X42.20499 Y10.69501
G01 X41.13888 Y10.69501
G01 X33.89693 Y3.45306
G01 X33.71634 Y3.32807
G01 X33.60072 Y3.28799
G01 X33.45500 Y3.27000
G01 X28.43888 Y3.27000
G01 X28.27104 Y3.07755
G01 X28.06167 Y2.93051
G01 X27.84963 Y2.84207
G01 X27.62385 Y2.79967
G01 X27.44615 Y2.79967
G01 X27.17063 Y2.85822
G01 X26.96304 Y2.95664
G01 X26.78044 Y3.09607
G01 X26.64506 Y3.24844
G01 X26.52070 Y3.47204
G01 X26.45494 Y3.69215
G01 X26.43500 Y3.89502
G01 X26.45494 Y4.09787
G01 X26.52070 Y4.31798
G01 X26.64506 Y4.54158
G01 X26.78044 Y4.69398
G01 X26.96304 Y4.83340
G01 X27.17063 Y4.93180
G01 X27.44615 Y4.99035
G01 X27.62385 Y4.99035
G01 X27.84963 Y4.94795
G01 X28.06167 Y4.85951
G01 X28.27104 Y4.71247
G01 X28.43891 Y4.52001
G01 X33.19610 Y4.52001
G01 X39.43706 Y10.76097
G01 X39.37401 Y10.84934
G01 X39.35499 Y10.94502
G01 X39.35499 Y11.74502
G01 X39.37401 Y11.84068
G01 X39.46375 Y11.95005
G01 X39.38943 Y11.88906
G01 X39.35072 Y11.79559
G01 X39.35242 Y10.81345
G01 X39.31912 Y10.68729
G01 X39.24328 Y10.57850
G01 X33.28391 Y4.62258
G01 X33.22503 Y4.57894
G01 X33.13399 Y4.54249
G01 X33.03664 Y4.52802
G01 X28.62509 Y4.52802
G01 X28.52773 Y4.54249
G01 X28.43670 Y4.57894
G01 X28.24246 Y4.75486
G01 X28.05984 Y4.87691
G01 X27.85816 Y4.96043
G01 X27.64409 Y5.00302
G01 X27.42588 Y5.00302
G01 X27.20937 Y4.95994
G01 X27.04775 Y4.90678
G01 X26.94968 Y4.90792
G01 X26.85420 Y4.93182
G01 X26.73187 Y5.01354
G01 X26.65016 Y5.13586
G01 X26.62146 Y5.28014
G01 X26.65016 Y5.42441
G01 X26.73187 Y5.54671
G01 X27.15374 Y5.96403
G01 X27.23385 Y6.06164
G01 X27.29263 Y6.17160
G01 X27.32921 Y6.29220
G01 X27.35737 Y6.51323
G01 X27.39471 Y6.59624
G01 X27.45011 Y6.66908
G01 X27.52131 Y6.72791
G01 X27.67287 Y6.78074
G01 X28.28143 Y6.78394
G01 X28.35056 Y6.79075
G01 X28.57304 Y6.86588
G01 X28.74099 Y6.84274
G01 X28.74099 Y6.87094
G01 X28.68902 Y6.94935
G01 X28.67000 Y7.04500
G01 X28.67480 Y8.79379
G01 X28.71211 Y8.88391
G01 X28.82433 Y8.97599
G01 X28.91998 Y8.99501
G01 X29.07231 Y8.99501
G01 X29.01645 Y9.10083
G01 X28.99745 Y9.19234
G01 X28.99865 Y9.39295
G01 X29.05849 Y9.55305
G01 X32.59668 Y13.10151
G01 X32.71906 Y13.18332
G01 X32.86333 Y13.21202
G01 X39.42837 Y13.21202
G01 X39.62349 Y13.18393
G01 X42.18648 Y13.18393
G01 X42.30418 Y13.20549
G01 X42.44944 Y13.29480
G01 X42.59293 Y13.32701
G01 X42.73743 Y13.30306
G01 X42.90908 Y13.21418

G04 P0 ( dwell for no time -- G64 should not smooth over this point )
G00 Z10.000 ( retract )

M5 ( Spindle off. )
G04 P1.000000
M9 ( Coolant off. )
M2 ( Program end. )

