(Block-name: Header)
(Block-expand: 0)
(Block-enable: 1)
( pcb2gcode 2.0.0 )
( Software-independent Gcode )

G94 ( Millimeters per minute feed rate. )
G21 ( Units == Millimeters. )

G90 ( Absolute coordinates. )
(Block-name: block [autolevel])
(Block-expand: 1)
(Block-enable: 1)
G00 S15000 ( RPM spindle speed. )
(G64 P0.01016) ( set maximum deviation from commanded toolpath )
G01 F60.00000 ( Feedrate. )


G00 Z10.00000 (Retract to tool change height)
(Block-name: block [autolevel])
(Block-expand: 0)
(Block-enable: 0)
(Block-X: T0)
(Block-X: M5      [Spindle stop.])
(Block-X: G04 P1.00000 [Wait for spindle to stop])
(Block-X: [MSG, Change tool bit to mill diameter 0.50000mm])
(Block-X: M6      [Tool change.])
(Block-X: M0      [Temporary machine stop.])
(Block-X: M3 [ Spindle on clockwise. ])
(Block-X: G04 P1.00000 [Wait for spindle to get up to speed])
(Block-X: G04 P0 [ dwell for no time -- G64 should not smooth over this point ])
(Block-X: G0X42.9091Y13.2142Z1.6605)
(Block-X: )
(Block-X: G0X40.6835Y12.5897Z1.6804)
(Block-X: G0X27.825Y8.9817Z1.7845)
(Block-X: G0X25.9891Y8.4665Z1.8041)
(Block-X: G0X14.9665Y5.3736Z1.9089)
(Block-X: G0X3.3282Y2.108Z2.0006)
(Block-X: G0X2.108Y1.7656Z2.011)
(Block-X: G0X1.108Y1.485Z2.0197)
(Block-X: G01 F30.00000)
(Block-X: G1X1.108Y1.485Z-0.0803)
(Block-X: G04 P0 [ dwell for no time -- G64 should not smooth over this point ])
(Block-X: G01 F60.00000)
(Block-X: G01 X1.10800 Y1.48502)
(Block-X: G1X1.108Y2.108Z-0.0823)
(Block-X: G1X1.108Y8.4665Z-0.1025)
(Block-X: G1X1.108Y14.825Z-0.1415)
(Block-X: G1X1.108Y21.1835Z-0.1578)
(Block-X: G1X1.108Y27.542Z-0.2068)
(Block-X: G1X1.108Y29.165Z-0.2193)
(Block-X: G1X1.1179Y29.2506Z-0.22)
(Block-X: G1X1.1715Y29.3745Z-0.2213)
(Block-X: G1X1.2377Y29.4474Z-0.2223)
(Block-X: G1X1.3188Y29.5016Z-0.2232)
(Block-X: G1X1.4602Y29.5396Z-0.2244)
(Block-X: G1X2.108Y29.5396Z-0.2284)
(Block-X: G1X14.9665Y29.5402Z-0.3084)
(Block-X: G1X27.825Y29.5408Z-0.4273)
(Block-X: G1X40.6835Y29.5414Z-0.525)
(Block-X: G1X53.542Y29.5419Z-0.6062)
(Block-X: G1X55.165Y29.542Z-0.6165)
(Block-X: G1X55.2624Y29.5275Z-0.617)
(Block-X: G1X55.3525Y29.4902Z-0.6173)
(Block-X: G1X55.4481Y29.4134Z-0.6174)
(Block-X: G1X55.5028Y29.3315Z-0.6173)
(Block-X: G1X55.542Y29.165Z-0.6165)
(Block-X: G1X55.542Y27.542Z-0.6062)
(Block-X: G1X55.542Y21.1835Z-0.5661)
(Block-X: G1X55.542Y14.825Z-0.538)
(Block-X: G1X55.542Y8.4665Z-0.5062)
(Block-X: G1X55.542Y2.108Z-0.4982)
(Block-X: G1X55.542Y1.485Z-0.4974)
(Block-X: G1X55.5275Y1.3876Z-0.4971)
(Block-X: G1X55.4902Y1.2975Z-0.4968)
(Block-X: G1X55.4134Y1.202Z-0.4961)
(Block-X: G1X55.3314Y1.1472Z-0.4955)
(Block-X: G1X55.165Y1.108Z-0.4942)
(Block-X: G1X53.542Y1.108Z-0.4829)
(Block-X: G1X40.6835Y1.108Z-0.393)
(Block-X: G1X27.825Y1.108Z-0.3026)
(Block-X: G1X14.9665Y1.108Z-0.1884)
(Block-X: G1X2.108Y1.108Z-0.087)
(Block-X: G1X1.485Y1.108Z-0.0821)
(Block-X: G1X1.3322Y1.1415Z-0.081)
(Block-X: G1X1.2055Y1.2336Z-0.0803)
(Block-X: G1X1.1264Y1.3685Z-0.0801)
(Block-X: G1X1.108Y1.485Z-0.0803)
(Block-X: G04 P0 [ dwell for no time -- G64 should not smooth over this point ])
(Block-X: G0X1.108Y1.485Z2.0197)
(Block-name: block [autolevel])
(Block-expand: 1)
(Block-enable: 1)
M3
G0X2.0646Y2.108Z2.0103
G0X2.108Y2.1362Z2.0099
G0X8.874Y6.5424Z1.9502
G01 F30.00000
G1X8.874Y6.5424Z-0.1498
G04 P0 ( dwell for no time -- G64 should not smooth over this point )
G01 F60.00000
G01 X8.87402 Y6.54244
G1X8.8807Y6.4744Z-0.1498
G1X8.9194Y6.381Z-0.1499
G1X9.0358Y6.2855Z-0.1505
G1X9.1525Y6.264Z-0.1513
G1X9.481Y6.2658Z-0.1536
G1X9.0862Y6.2798Z-0.1509
G1X8.9573Y6.3499Z-0.1501
G1X8.8898Y6.4763Z-0.1498
G1X8.885Y6.871Z-0.1505
G1X8.874Y6.5424Z-0.1498
G04 P0 ( dwell for no time -- G64 should not smooth over this point )
G0X8.874Y6.5424Z1.9502
(Block-name: block [autolevel])
(Block-expand: 0)
(Block-enable: 1)

G0X10.489Y6.2658Z1.9394
G01 F30.00000
G1X10.489Y6.2658Z-0.1606
G04 P0 ( dwell for no time -- G64 should not smooth over this point )
G01 F60.00000
G01 X10.48898 Y6.26583
G1X10.8838Y6.2798Z-0.1633
G1X11.0118Y6.3482Z-0.1643
G1X11.0802Y6.4763Z-0.1649
G1X11.0942Y6.871Z-0.1656
G1X11.0893Y6.4745Z-0.165
G1X11.0183Y6.3417Z-0.1643
G1X10.8856Y6.2707Z-0.1633
G1X10.489Y6.2658Z-0.1606
G04 P0 ( dwell for no time -- G64 should not smooth over this point )
G0X10.489Y6.2658Z1.9394
(Block-name: block [autolevel])
(Block-expand: 0)
(Block-enable: 1)

G0X7.7132Y8.4665Z1.9544
G0X7.229Y8.8504Z1.9552
G01 F30.00000
G1X7.229Y8.8504Z-0.1448
G04 P0 ( dwell for no time -- G64 should not smooth over this point )
G01 F60.00000
G01 X7.22899 Y8.85041
G1X7.229Y8.8641Z-0.1449
G1X7.3432Y8.8898Z-0.1458
G1X7.4725Y8.9589Z-0.147
G1X7.5761Y9.0625Z-0.1483
G1X7.6407Y9.181Z-0.1495
G1X7.6853Y9.181Z-0.1498
G1X7.6645Y9.0108Z-0.1486
G1X7.569Y8.8945Z-0.1473
G1X7.4756Y8.8557Z-0.1464
G1X7.229Y8.8504Z-0.1448
G04 P0 ( dwell for no time -- G64 should not smooth over this point )
G0X7.229Y8.8504Z1.9552
(Block-name: block [autolevel])
(Block-expand: 0)
(Block-enable: 1)

G0X5.7641Y9.1265Z1.9631
G01 F30.00000
G1X5.7641Y9.1265Z-0.1369
G04 P0 ( dwell for no time -- G64 should not smooth over this point )
G01 F60.00000
G01 X5.76412 Y9.12653
G1X5.7647Y9.181Z-0.1372
G1X5.8092Y9.181Z-0.1375
G1X5.8739Y9.0625Z-0.1372
G1X5.9775Y8.9589Z-0.1373
G1X6.1067Y8.8898Z-0.1377
G1X6.221Y8.8641Z-0.1383
G1X6.221Y8.8504Z-0.1382
G1X5.9744Y8.8557Z-0.1366
G1X5.881Y8.8945Z-0.1363
G1X5.7855Y9.0108Z-0.1363
G1X5.7641Y9.1265Z-0.1369
G04 P0 ( dwell for no time -- G64 should not smooth over this point )
G0X5.7641Y9.1265Z1.9631
(Block-name: block [autolevel])
(Block-expand: 0)
(Block-enable: 1)

G0X8.8018Y14.825Z1.9088
G0X8.8857Y14.9823Z1.9079
G01 F30.00000
G1X8.8857Y14.9823Z-0.1921
G04 P0 ( dwell for no time -- G64 should not smooth over this point )
G01 F60.00000
G01 X8.88566 Y14.98225
G1X8.9158Y15.249Z-0.1929
G1X8.9919Y15.4657Z-0.1939
G1X9.1115Y15.6619Z-0.1951
G1X9.249Y15.8125Z-0.1963
G1X9.36Y15.8948Z-0.1972
G1X9.3684Y16.2948Z-0.1982
G1X9.418Y16.4584Z-0.1989
G1X9.4799Y16.564Z-0.1995
G1X13.291Y20.3751Z-0.2319
G1X13.4418Y20.4557Z-0.233
G1X13.6579Y20.495Z-0.2344
G1X14.9665Y20.4907Z-0.2426
G1X16.1877Y20.4866Z-0.2535
G1X16.3514Y20.4369Z-0.2548
G1X16.5138Y20.3284Z-0.2561
G1X17.19Y19.6539Z-0.2607
G1X17.19Y20.1301Z-0.2617
G1X16.9737Y20.2803Z-0.2601
G1X16.8198Y20.4512Z-0.259
G1X16.6954Y20.6748Z-0.2584
G1X16.6297Y20.8949Z-0.2583
G1X16.6097Y21.0977Z-0.2585
G1X16.6201Y21.1835Z-0.2588
G1X16.6405Y21.3517Z-0.2603
G1X16.7167Y21.5685Z-0.2626
G1X16.8198Y21.7443Z-0.2649
G1X16.9737Y21.9152Z-0.2676
G1X17.1831Y22.0622Z-0.2707
G1X17.3698Y22.1439Z-0.273
G1X17.6209Y22.1931Z-0.2756
G1X17.8506Y22.1876Z-0.2776
G1X18.0244Y22.1507Z-0.2789
G1X18.2364Y22.0622Z-0.2801
G1X18.4458Y21.9152Z-0.2808
G1X18.5997Y21.7443Z-0.2809
G1X18.7028Y21.5685Z-0.2804
G1X18.7789Y21.3517Z-0.2794
G1X18.7966Y21.1835Z-0.2783
G1X18.8084Y21.0716Z-0.2781
G1X18.7789Y20.8438Z-0.2774
G1X18.7028Y20.627Z-0.2762
G1X18.5997Y20.4512Z-0.2749
G1X18.44Y20.2756Z-0.2731
G1X18.44Y19.0449Z-0.2705
G1X18.551Y18.9625Z-0.2713
G1X18.6884Y18.8119Z-0.2722
G1X18.808Y18.6157Z-0.2729
G1X18.8842Y18.399Z-0.2731
G1X18.915Y18.145Z-0.2728
G1X18.8842Y17.891Z-0.272
G1X18.808Y17.6743Z-0.2709
G1X18.7049Y17.4984Z-0.2696
G1X18.5695Y17.3461Z-0.268
G1X18.3869Y17.2066Z-0.2661
G1X18.1296Y17.0921Z-0.2636
G1X17.9038Y17.0497Z-0.2615
G1X17.7261Y17.0497Z-0.26
G1X17.4506Y17.1082Z-0.2576
G1X17.2883Y17.1805Z-0.2564
G1X17.0993Y17.3111Z-0.255
G1X16.9251Y17.4984Z-0.2538
G1X16.8007Y17.722Z-0.2532
G1X16.7349Y17.9422Z-0.253
G1X16.715Y18.145Z-0.2533
G1X16.7343Y18.3418Z-0.2539
G1X15.8311Y19.245Z-0.2477
G1X14.9665Y19.245Z-0.24
G1X13.9168Y19.245Z-0.2334
G1X10.61Y15.9382Z-0.2053
G1X10.61Y15.8948Z-0.2052
G1X10.721Y15.8125Z-0.2058
G1X10.8749Y15.6416Z-0.2064
G1X10.978Y15.4657Z-0.2067
G1X11.0542Y15.249Z-0.2067
G1X11.0836Y15.0211Z-0.2064
G1X11.0677Y14.825Z-0.2058
G1X11.065Y14.7922Z-0.2056
G1X10.9993Y14.572Z-0.2039
G1X10.8749Y14.3484Z-0.2017
G1X10.721Y14.1776Z-0.1997
G1X10.5117Y14.0305Z-0.1975
G1X10.3249Y13.9489Z-0.1958
G1X10.1258Y13.9051Z-0.1942
G1X9.8442Y13.9051Z-0.1924
G1X9.6206Y13.9582Z-0.1913
G1X9.4583Y14.0305Z-0.1906
G1X9.2693Y14.1611Z-0.1902
G1X9.0951Y14.3484Z-0.1902
G1X8.9707Y14.572Z-0.1908
G1X8.9049Y14.7922Z-0.1917
G1X8.9016Y14.825Z-0.1919
G1X8.8857Y14.9823Z-0.1921
G04 P0 ( dwell for no time -- G64 should not smooth over this point )
G0X8.8857Y14.9823Z1.9079
(Block-name: block [autolevel])
(Block-expand: 0)
(Block-enable: 1)

G0X9.0681Y14.825Z1.9071
G0X14.9665Y9.741Z1.8994
G0X16.4451Y8.4665Z1.8932
G0X17.375Y7.665Z1.8851
G01 F30.00000
G1X17.375Y7.665Z-0.2149
G04 P0 ( dwell for no time -- G64 should not smooth over this point )
G01 F60.00000
G01 X17.37500 Y7.66502
G1X17.4048Y7.4968Z-0.215
G1X17.505Y7.3296Z-0.2158
G1X17.6615Y7.2136Z-0.2172
G1X17.8017Y7.171Z-0.2184
G1X18.8483Y7.171Z-0.2281
G1X19.0317Y7.2367Z-0.2299
G1X19.1741Y7.365Z-0.2313
G1X20.536Y7.365Z-0.2439
G1X20.7039Y7.1726Z-0.2453
G1X20.9133Y7.0255Z-0.2471
G1X21.1001Y6.9439Z-0.2487
G1X21.2992Y6.9001Z-0.2505
G1X21.5288Y6.8947Z-0.2526
G1X21.7799Y6.9439Z-0.255
G1X21.9667Y7.0255Z-0.2568
G1X22.176Y7.1726Z-0.2589
G1X22.2656Y7.27Z-0.2598
G1X24.86Y7.27Z-0.2839
G1X24.86Y7.045Z-0.2836
G1X24.879Y6.9493Z-0.2836
G1X24.9332Y6.8682Z-0.284
G1X25.0143Y6.814Z-0.2847
G1X25.11Y6.795Z-0.2856
G1X25.8088Y6.7998Z-0.292
G1X25.9367Y6.8682Z-0.2933
G1X26.0052Y6.9962Z-0.2941
G1X26.01Y7.6549Z-0.295
G1X26.0525Y7.8038Z-0.2956
G1X26.0579Y7.9342Z-0.2958
G1X26.01Y8.1351Z-0.2956
G1X26.0076Y8.4665Z-0.296
G1X26.0052Y8.7938Z-0.2977
G1X25.9367Y8.9218Z-0.2977
G1X25.8088Y8.9902Z-0.2968
G1X25.11Y8.995Z-0.2904
G1X24.9711Y8.9529Z-0.2889
G1X24.879Y8.8407Z-0.2874
G1X24.86Y8.745Z-0.2868
G1X24.86Y8.52Z-0.2856
G1X22.3988Y8.52Z-0.2626
G1X22.3299Y8.6366Z-0.2626
G1X22.1945Y8.789Z-0.2622
G1X22.0119Y8.9284Z-0.2612
G1X21.7799Y9.0362Z-0.2597
G1X21.5288Y9.0854Z-0.2576
G1X21.2992Y9.0799Z-0.2554
G1X21.1001Y9.0362Z-0.2533
G1X20.9133Y8.9545Z-0.2512
G1X20.7039Y8.8075Z-0.2484
G1X20.5361Y8.615Z-0.2458
G1X19.1741Y8.615Z-0.2331
G1X19.0317Y8.7433Z-0.2325
G1X18.8483Y8.809Z-0.2312
G1X17.8017Y8.809Z-0.2214
G1X17.6615Y8.7665Z-0.2199
G1X17.5775Y8.7162Z-0.2188
G1X17.4739Y8.6125Z-0.2172
G1X17.4048Y8.4832Z-0.2159
G1X17.4018Y8.4665Z-0.2157
G1X17.375Y8.315Z-0.2154
G1X17.375Y7.665Z-0.2149
G04 P0 ( dwell for no time -- G64 should not smooth over this point )
G0X17.375Y7.665Z1.8851
(Block-name: block [autolevel])
(Block-expand: 0)
(Block-enable: 1)

G0X17.769Y8.4665Z1.8808
G0X18.78Y10.5231Z1.8598
G01 F30.00000
G1X18.78Y10.5231Z-0.2402
G04 P0 ( dwell for no time -- G64 should not smooth over this point )
G01 F60.00000
G01 X18.78002 Y10.52308
G1X18.9606Y10.3981Z-0.2412
G1X19.0762Y10.358Z-0.242
G1X19.2217Y10.34Z-0.2432
G1X21.8539Y10.34Z-0.2674
G1X21.9996Y10.358Z-0.2688
G1X22.1801Y10.4328Z-0.2709
G1X22.2959Y10.5231Z-0.2724
G1X23.7222Y11.9494Z-0.2929
G1X25.7089Y11.9506Z-0.3109
G1X25.9005Y11.9887Z-0.3128
G1X26.0513Y12.0693Z-0.3146
G1X27.1469Y13.1531Z-0.3298
G1X27.2373Y13.2688Z-0.3312
G1X27.2907Y13.3789Z-0.3322
G1X27.33Y13.595Z-0.3336
G1X27.33Y14.825Z-0.3396
G1X27.33Y15.195Z-0.3405
G1X27.3163Y15.3249Z-0.3407
G1X27.28Y15.4368Z-0.3406
G1X27.28Y16.045Z-0.3421
G1X27.2379Y16.1839Z-0.342
G1X27.1689Y16.2529Z-0.3416
G1X27.0788Y16.2902Z-0.3409
G1X26.3312Y16.2902Z-0.3343
G1X26.2411Y16.2529Z-0.3334
G1X26.1721Y16.1839Z-0.3326
G1X26.13Y16.045Z-0.3319
G1X26.13Y15.4368Z-0.3305
G1X26.0937Y15.3249Z-0.3299
G1X26.08Y15.195Z-0.3295
G1X26.08Y14.825Z-0.3287
G1X26.08Y13.8539Z-0.3238
G1X25.4255Y13.1994Z-0.3147
G1X24.0883Y13.1994Z-0.3027
G1X24.0883Y14.825Z-0.3112
G1X24.0883Y16.9552Z-0.316
G1X25.6811Y18.548Z-0.3337
G1X25.7715Y18.6638Z-0.3348
G1X25.8249Y18.7739Z-0.3355
G1X25.8558Y18.8923Z-0.3361
G1X25.863Y19.1545Z-0.3368
G1X25.8249Y19.3461Z-0.3369
G1X25.7715Y19.4562Z-0.3366
G1X25.6976Y19.5538Z-0.3362
G1X24.0686Y21.1835Z-0.3254
G1X21.9371Y23.316Z-0.3233
G1X21.8214Y23.4063Z-0.323
G1X21.7113Y23.4597Z-0.3224
G1X21.4952Y23.499Z-0.3208
G1X14.9665Y23.4978Z-0.2618
G1X14.8696Y23.4978Z-0.2612
G1X14.7484Y23.481Z-0.2603
G1X14.6328Y23.441Z-0.2593
G1X14.4522Y23.316Z-0.2572
G1X12.3235Y21.1835Z-0.2276
G1X7.7549Y16.6068Z-0.1886
G1X7.6743Y16.456Z-0.1877
G1X7.6362Y16.2644Z-0.187
G1X7.6354Y14.825Z-0.1837
G1X7.635Y14.18Z-0.1798
G1X7.635Y14.825Z-0.1837
G1X7.635Y16.4988Z-0.1875
G1X12.3197Y21.1835Z-0.2275
G1X14.6352Y23.499Z-0.2598
G1X14.9665Y23.499Z-0.2618
G1X21.7541Y23.499Z-0.3231
G1X24.0696Y21.1835Z-0.3254
G1X26.405Y18.8481Z-0.3409
G1X26.405Y18.6489Z-0.3404
G1X24.993Y17.237Z-0.3246
G1X24.9027Y17.1212Z-0.3236
G1X24.828Y16.9407Z-0.3225
G1X24.81Y16.795Z-0.322
G1X24.81Y15.195Z-0.3183
G1X24.8237Y15.0651Z-0.3182
G1X24.86Y14.9532Z-0.3182
G1X24.86Y14.825Z-0.3179
G1X24.86Y14.345Z-0.3155
G1X24.9021Y14.2061Z-0.3151
G1X25.0143Y14.1141Z-0.3157
G1X25.11Y14.095Z-0.3164
G1X25.8088Y14.0998Z-0.3226
G1X25.8989Y14.1371Z-0.3236
G1X25.991Y14.2493Z-0.325
G1X26.01Y14.345Z-0.3256
G1X26.01Y14.825Z-0.328
G1X26.01Y14.9532Z-0.3283
G1X26.0463Y15.0651Z-0.3289
G1X26.06Y15.195Z-0.3293
G1X26.06Y16.5361Z-0.3325
G1X27.4719Y17.9481Z-0.3482
G1X27.5623Y18.0638Z-0.3493
G1X27.637Y18.2443Z-0.3504
G1X27.655Y18.39Z-0.3509
G1X27.655Y19.107Z-0.3526
G1X27.6157Y19.3231Z-0.3527
G1X27.5623Y19.4332Z-0.3525
G1X27.4719Y19.5489Z-0.352
G1X25.8374Y21.1835Z-0.3412
G1X22.4549Y24.566Z-0.338
G1X22.3392Y24.6563Z-0.3376
G1X22.2291Y24.7097Z-0.3371
G1X22.013Y24.749Z-0.3354
G1X14.9665Y24.749Z-0.2715
G1X14.3764Y24.749Z-0.2678
G1X14.1603Y24.7097Z-0.2662
G1X14.0502Y24.6563Z-0.2651
G1X13.9344Y24.566Z-0.2636
G1X10.552Y21.1835Z-0.2165
G1X6.568Y17.1996Z-0.1824
G1X6.4777Y17.0839Z-0.1815
G1X6.403Y16.9034Z-0.1806
G1X6.385Y16.7576Z-0.1802
G1X6.385Y14.825Z-0.1756
G1X6.385Y13.1489Z-0.1654
G1X6.2199Y12.972Z-0.1633
G1X6.1581Y12.8664Z-0.1622
G1X6.1084Y12.7027Z-0.1609
G1X6.1Y12.5274Z-0.1598
G1X5.9775Y12.4611Z-0.1586
G1X5.905Y12.3954Z-0.1577
G1X5.8048Y12.2282Z-0.1561
G1X5.775Y12.06Z-0.1548
G1X5.775Y11.41Z-0.1509
G1X5.7906Y11.2887Z-0.1502
G1X5.8235Y11.1965Z-0.1499
G1X5.9396Y11.04Z-0.1497
G1X6.1067Y10.9398Z-0.1502
G1X6.275Y10.91Z-0.1511
G1X7.175Y10.91Z-0.1569
G1X7.3432Y10.9398Z-0.1582
G1X7.4725Y11.0089Z-0.1595
G1X7.5761Y11.1125Z-0.1608
G1X7.6452Y11.2418Z-0.162
G1X7.6699Y11.3462Z-0.1628
G1X8.9043Y10.1118Z-0.1634
G1X8.885Y9.915Z-0.162
G1X8.9158Y9.661Z-0.1607
G1X8.9919Y9.4443Z-0.1599
G1X9.1115Y9.2481Z-0.1595
G1X9.249Y9.0976Z-0.1595
G1X9.4583Y8.9505Z-0.1599
G1X9.6451Y8.8689Z-0.1607
G1X9.8442Y8.8251Z-0.1617
G1X10.0738Y8.8197Z-0.1632
G1X10.3249Y8.8689Z-0.1651
G1X10.5569Y8.9766Z-0.1673
G1X10.7395Y9.1161Z-0.1693
G1X10.8749Y9.2684Z-0.1711
G1X10.9993Y9.492Z-0.1733
G1X11.065Y9.7122Z-0.175
G1X11.085Y9.915Z-0.1764
G1X11.0657Y10.1118Z-0.1774
G1X11.71Y10.7561Z-0.1855
G1X13.9996Y8.4665Z-0.1867
G1X14.9665Y7.4996Z-0.1924
G1X16.968Y5.4981Z-0.2094
G1X17.0838Y5.4077Z-0.2104
G1X17.2643Y5.333Z-0.212
G1X17.4759Y5.315Z-0.214
G1X17.5775Y5.2139Z-0.2148
G1X17.7536Y5.1306Z-0.2163
G1X17.875Y5.115Z-0.2174
G1X18.8483Y5.121Z-0.2263
G1X19.0317Y5.1867Z-0.2281
G1X19.1741Y5.315Z-0.2295
G1X20.7731Y5.315Z-0.2441
G1X20.8394Y5.0907Z-0.2445
G1X20.9637Y4.8671Z-0.2454
G1X21.1176Y4.6962Z-0.2466
G1X21.2817Y4.5753Z-0.248
G1X21.5137Y4.4675Z-0.25
G1X21.7128Y4.4238Z-0.2517
G1X21.9425Y4.4183Z-0.2538
G1X22.1935Y4.4675Z-0.2562
G1X22.4256Y4.5753Z-0.2584
G1X22.5897Y4.6962Z-0.26
G1X22.7271Y4.8468Z-0.2614
G1X22.8467Y5.0429Z-0.2627
G1X22.9337Y5.3108Z-0.2638
G1X22.9536Y5.5137Z-0.2642
G1X22.9337Y5.7165Z-0.2643
G1X22.8679Y5.9366Z-0.2639
G1X22.7436Y6.1602Z-0.263
G1X22.5694Y6.3476Z-0.2616
G1X22.4256Y6.452Z-0.2604
G1X22.218Y6.5504Z-0.2586
G1X21.9425Y6.609Z-0.2561
G1X21.7128Y6.6035Z-0.254
G1X21.5121Y6.5579Z-0.2521
G1X19.1741Y6.565Z-0.2306
G1X19.0725Y6.6661Z-0.2297
G1X18.9885Y6.7165Z-0.229
G1X18.8963Y6.7495Z-0.2282
G1X18.775Y6.765Z-0.2271
G1X17.8505Y6.7638Z-0.2185
G1X17.7067Y6.7352Z-0.2172
G1X17.5722Y6.6617Z-0.2159
G1X15.7674Y8.4665Z-0.2005
G1X14.9665Y9.2674Z-0.1978
G1X12.335Y11.8989Z-0.1964
G1X12.335Y14.825Z-0.214
G1X12.335Y15.5232Z-0.2155
G1X14.3318Y17.52Z-0.2325
G1X14.3711Y17.52Z-0.2327
G1X14.5389Y17.3276Z-0.2334
G1X14.703Y17.2066Z-0.2342
G1X14.9351Y17.0989Z-0.2354
G1X14.9665Y17.092Z-0.2356
G1X15.1342Y17.0551Z-0.237
G1X15.3638Y17.0497Z-0.2391
G1X15.6149Y17.0989Z-0.2414
G1X15.8017Y17.1805Z-0.2432
G1X16.011Y17.3276Z-0.2454
G1X16.1649Y17.4984Z-0.2471
G1X16.2893Y17.722Z-0.2486
G1X16.355Y17.9422Z-0.2497
G1X16.375Y18.145Z-0.2503
G1X16.3442Y18.399Z-0.2505
G1X16.268Y18.6157Z-0.2503
G1X16.1649Y18.7916Z-0.2498
G1X16.011Y18.9625Z-0.2487
G1X15.8017Y19.1095Z-0.2472
G1X15.6149Y19.1912Z-0.2457
G1X15.3638Y19.2404Z-0.2436
G1X15.1342Y19.2349Z-0.2415
G1X14.9665Y19.1981Z-0.2399
G1X14.9351Y19.1912Z-0.2397
G1X14.703Y19.0834Z-0.238
G1X14.5389Y18.9625Z-0.2368
G1X14.3711Y18.77Z-0.2353
G1X13.9752Y18.7616Z-0.2328
G1X13.8568Y18.7307Z-0.232
G1X13.7467Y18.6773Z-0.2312
G1X13.631Y18.587Z-0.2303
G1X11.2049Y16.149Z-0.2096
G1X11.1243Y15.9982Z-0.2088
G1X11.085Y15.7821Z-0.208
G1X11.085Y14.825Z-0.2059
G1X11.085Y11.8989Z-0.1883
G1X10.179Y10.9929Z-0.177
G1X10.1015Y11.0088Z-0.1766
G1X9.8961Y11.0104Z-0.1752
G1X9.791Y10.9929Z-0.1744
G1X7.635Y13.1489Z-0.1735
G1X7.635Y14.18Z-0.1798
G1X7.6743Y13.9639Z-0.1787
G1X7.7277Y13.8538Z-0.1784
G1X7.8016Y13.7562Z-0.1783
G1X8.9043Y12.6518Z-0.1787
G1X8.885Y12.455Z-0.1774
G1X8.9049Y12.2522Z-0.1763
G1X8.9707Y12.032Z-0.1754
G1X9.0951Y11.8084Z-0.1749
G1X9.249Y11.6375Z-0.1748
G1X9.4583Y11.4905Z-0.1753
G1X9.6451Y11.4088Z-0.176
G1X9.8442Y11.3651Z-0.177
G1X10.0738Y11.3597Z-0.1785
G1X10.3493Y11.4182Z-0.1806
G1X10.5569Y11.5167Z-0.1826
G1X10.7395Y11.6561Z-0.1846
G1X10.8749Y11.8084Z-0.1864
G1X10.978Y11.9843Z-0.1881
G1X11.065Y12.2522Z-0.1903
G1X11.0843Y12.4685Z-0.1917
G1X11.065Y12.6579Z-0.1928
G1X10.9993Y12.878Z-0.1937
G1X10.8584Y13.1219Z-0.1942
G1X10.721Y13.2725Z-0.1942
G1X10.5117Y13.4195Z-0.1938
G1X10.3249Y13.5012Z-0.1931
G1X10.1258Y13.5449Z-0.192
G1X9.8961Y13.5503Z-0.1906
G1X9.791Y13.5329Z-0.1898
G1X8.885Y14.4389Z-0.1894
G1X8.885Y14.825Z-0.1917
G1X8.885Y15.981Z-0.1944
G1X14.0875Y21.1835Z-0.2385
G1X14.9665Y22.0625Z-0.2508
G1X15.153Y22.249Z-0.2539
G1X21.2363Y22.249Z-0.3085
G1X22.3018Y21.1835Z-0.3096
G1X24.4253Y19.06Z-0.3238
G1X23.0213Y17.656Z-0.3081
G1X22.931Y17.5403Z-0.3071
G1X22.8776Y17.4302Z-0.3064
G1X22.8383Y17.2141Z-0.3055
G1X22.8383Y14.825Z-0.3002
G1X22.8383Y12.8333Z-0.2896
G1X21.595Y11.59Z-0.2718
G1X19.4809Y11.59Z-0.2526
G1X18.44Y12.6309Z-0.2491
G1X18.44Y14.7052Z-0.2608
G1X18.551Y14.7876Z-0.2623
G1X18.5848Y14.825Z-0.2628
G1X18.7049Y14.9584Z-0.2641
G1X18.808Y15.1343Z-0.2654
G1X18.8842Y15.351Z-0.2666
G1X18.9136Y15.6311Z-0.2674
G1X18.8842Y15.859Z-0.2676
G1X18.808Y16.0757Z-0.2674
G1X18.7049Y16.2516Z-0.2669
G1X18.5695Y16.404Z-0.266
G1X18.3869Y16.5434Z-0.2647
G1X18.1549Y16.6512Z-0.2629
G1X17.9038Y16.7004Z-0.2608
G1X17.6742Y16.6949Z-0.2587
G1X17.4751Y16.6512Z-0.2569
G1X17.2883Y16.5695Z-0.2551
G1X17.0789Y16.4225Z-0.2529
G1X16.9108Y16.2296Z-0.251
G1X16.822Y16.0757Z-0.2499
G1X16.7458Y15.859Z-0.2488
G1X16.7163Y15.5789Z-0.248
G1X16.7458Y15.351Z-0.2477
G1X16.822Y15.1343Z-0.248
G1X16.9415Y14.9381Z-0.2486
G1X17.0448Y14.825Z-0.2493
G1X17.0789Y14.7876Z-0.2493
G1X17.19Y14.7052Z-0.2498
G1X17.19Y12.372Z-0.2363
G1X17.2293Y12.1559Z-0.2355
G1X17.2827Y12.0458Z-0.2353
G1X17.373Y11.9301Z-0.2354
G1X18.9631Y10.34Z-0.2409
G1X24.3339Y10.34Z-0.2901
G1X27.35Y13.3561Z-0.3326
G1X27.35Y14.825Z-0.3398
G1X27.35Y15.195Z-0.3407
G1X27.3636Y15.3249Z-0.3411
G1X27.4Y15.4368Z-0.3417
G1X27.4Y16.045Z-0.3431
G1X27.4421Y16.1839Z-0.3438
G1X27.5543Y16.276Z-0.345
G1X27.65Y16.295Z-0.3459
G1X27.825Y16.2938Z-0.3475
G1X28.3488Y16.2902Z-0.3512
G1X28.4389Y16.2529Z-0.3517
G1X28.531Y16.1407Z-0.3521
G1X28.55Y16.045Z-0.352
G1X28.55Y15.4368Z-0.3505
G1X28.5863Y15.3249Z-0.3505
G1X28.6Y15.195Z-0.3503
G1X28.6Y14.825Z-0.3494
G1X28.6Y14.095Z-0.3458
G1X30.0433Y14.095Z-0.3558
G1X30.7733Y14.825Z-0.3646
G1X32.7353Y16.7869Z-0.3836
G1X32.851Y16.8773Z-0.3847
G1X33.0315Y16.952Z-0.3861
G1X33.1772Y16.97Z-0.3872
G1X39.4981Y16.97Z-0.4323
G1X39.605Y16.995Z-0.4331
G1X40.6835Y16.995Z-0.4408
G1X42.205Y16.995Z-0.4518
G1X42.3006Y16.976Z-0.4524
G1X42.3817Y16.9218Z-0.4528
G1X42.436Y16.8407Z-0.4529
G1X42.455Y16.745Z-0.4527
G1X42.4502Y15.8962Z-0.4499
G1X42.3817Y15.7682Z-0.449
G1X42.2538Y15.6998Z-0.4479
G1X40.6835Y15.697Z-0.4367
G1X39.605Y15.695Z-0.4291
G1X39.4981Y15.72Z-0.4285
G1X33.4361Y15.72Z-0.3857
G1X32.5411Y14.825Z-0.377
G1X30.7441Y13.0281Z-0.355
G1X30.6284Y12.9377Z-0.3538
G1X30.4479Y12.863Z-0.3522
G1X30.3022Y12.845Z-0.3511
G1X28.5457Y12.845Z-0.3392
G1X28.4169Y12.6553Z-0.3374
G1X27.825Y12.0633Z-0.3305
G1X25.0347Y9.2731Z-0.2911
G1X24.8541Y9.1481Z-0.2888
G1X24.7385Y9.108Z-0.2875
G1X24.6173Y9.0912Z-0.2863
G1X18.7042Y9.09Z-0.2314
G1X18.5585Y9.108Z-0.2302
G1X18.378Y9.1827Z-0.2289
G1X18.2623Y9.2731Z-0.2283
G1X14.9665Y12.5801Z-0.2176
G1X14.7699Y12.7773Z-0.2175
G1X14.6893Y12.9282Z-0.2179
G1X14.6512Y13.1197Z-0.2188
G1X14.65Y14.505Z-0.227
G1X14.425Y14.505Z-0.2256
G1X14.3293Y14.524Z-0.2251
G1X14.2171Y14.6161Z-0.2249
G1X14.175Y14.755Z-0.2255
G1X14.175Y14.825Z-0.2259
G1X14.175Y16.455Z-0.2293
G1X14.194Y16.5507Z-0.2296
G1X14.2482Y16.6318Z-0.2301
G1X14.3293Y16.686Z-0.2307
G1X14.425Y16.705Z-0.2314
G1X14.9665Y16.705Z-0.2348
G1X16.125Y16.705Z-0.2451
G1X16.2207Y16.686Z-0.2459
G1X16.3329Y16.5939Z-0.2467
G1X16.375Y16.455Z-0.2468
G1X16.375Y14.825Z-0.2434
G1X16.375Y14.755Z-0.243
G1X16.3329Y14.6161Z-0.2418
G1X16.2207Y14.524Z-0.2403
G1X16.125Y14.505Z-0.2393
G1X15.9Y14.505Z-0.2373
G1X15.9Y13.4031Z-0.2308
G1X17.373Y11.9301Z-0.2354
G04 P0 ( dwell for no time -- G64 should not smooth over this point )
G0X17.373Y11.9301Z1.8646
(Block-name: block [autolevel])
(Block-expand: 0)
(Block-enable: 1)

G0X18.955Y12.69Z1.846
G01 F30.00000
G1X18.955Y12.69Z-0.254
G04 P0 ( dwell for no time -- G64 should not smooth over this point )
G01 F60.00000
G01 X18.95503 Y12.69003
G1X18.975Y12.4872Z-0.2531
G1X19.0407Y12.2671Z-0.2524
G1X19.1651Y12.0435Z-0.2523
G1X19.319Y11.8726Z-0.2527
G1X19.4831Y11.7516Z-0.2535
G1X19.7404Y11.6371Z-0.2552
G1X19.9142Y11.6002Z-0.2566
G1X20.1439Y11.5947Z-0.2586
G1X20.4194Y11.6532Z-0.2614
G1X20.627Y11.7516Z-0.2639
G1X20.7911Y11.8726Z-0.266
G1X20.9449Y12.0435Z-0.2683
G1X21.048Y12.2193Z-0.2702
G1X21.1242Y12.436Z-0.2721
G1X21.155Y12.69Z-0.2738
G1X21.1242Y12.944Z-0.2749
G1X21.0693Y13.113Z-0.2753
G1X20.98Y13.2786Z-0.2754
G1X20.98Y14.7052Z-0.2832
G1X21.091Y14.7876Z-0.2846
G1X21.1252Y14.825Z-0.2851
G1X21.2284Y14.9381Z-0.2863
G1X21.348Y15.1343Z-0.2878
G1X21.4242Y15.351Z-0.2889
G1X21.455Y15.605Z-0.2897
G1X21.4242Y15.859Z-0.29
G1X21.348Y16.0757Z-0.2898
G1X21.2592Y16.2296Z-0.2894
G1X21.091Y16.4225Z-0.2883
G1X20.8817Y16.5695Z-0.2868
G1X20.6949Y16.6512Z-0.2853
G1X20.4438Y16.7004Z-0.2832
G1X20.2142Y16.6949Z-0.2812
G1X20.0151Y16.6512Z-0.2793
G1X19.8283Y16.5695Z-0.2775
G1X19.6189Y16.4225Z-0.2753
G1X19.4651Y16.2516Z-0.2736
G1X19.362Y16.0757Z-0.2723
G1X19.2749Y15.8079Z-0.271
G1X19.255Y15.605Z-0.2704
G1X19.2749Y15.4022Z-0.2701
G1X19.3407Y15.182Z-0.2702
G1X19.4651Y14.9584Z-0.2708
G1X19.5852Y14.825Z-0.2716
G1X19.6189Y14.7876Z-0.2717
G1X19.73Y14.7052Z-0.2722
G1X19.73Y13.7402Z-0.2668
G1X19.4831Y13.6284Z-0.264
G1X19.319Y13.5075Z-0.2619
G1X19.1651Y13.3366Z-0.2595
G1X19.0407Y13.113Z-0.2572
G1X18.975Y12.8929Z-0.2553
G1X18.955Y12.69Z-0.254
G04 P0 ( dwell for no time -- G64 should not smooth over this point )
G0X18.955Y12.69Z1.846
(Block-name: block [autolevel])
(Block-expand: 0)
(Block-enable: 1)

G0X18.7897Y14.825Z1.8354
G0X18.448Y19.2358Z1.829
G01 F30.00000
G1X18.448Y19.2358Z-0.271
G04 P0 ( dwell for no time -- G64 should not smooth over this point )
G01 F60.00000
G01 X18.44799 Y19.23578
G1X18.4553Y20.1868Z-0.2731
G1X18.509Y20.3185Z-0.2738
G1X18.6916Y20.5729Z-0.276
G1X18.7752Y20.7746Z-0.2772
G1X18.8177Y20.9886Z-0.278
G1X18.8177Y21.1835Z-0.2784
G1X18.8177Y21.2068Z-0.2786
G1X18.7752Y21.421Z-0.2799
G1X18.6472Y21.6978Z-0.281
G1X18.6104Y21.8147Z-0.2815
G1X18.607Y21.8763Z-0.282
G1X18.631Y21.9968Z-0.2832
G1X18.7013Y22.1113Z-0.2847
G1X18.8175Y22.2006Z-0.2864
G1X18.9592Y22.2398Z-0.288
G1X21.0768Y22.241Z-0.307
G1X21.1973Y22.2196Z-0.3079
G1X21.324Y22.1465Z-0.3085
G1X22.2882Y21.1835Z-0.3095
G1X24.1474Y19.3266Z-0.3219
G1X24.2009Y19.2591Z-0.3222
G1X24.2364Y19.1804Z-0.3224
G1X24.2554Y19.0848Z-0.3223
G1X24.2506Y18.9865Z-0.322
G1X24.1797Y18.8309Z-0.3211
G1X23.0145Y17.665Z-0.3081
G1X22.9344Y17.5674Z-0.3072
G1X22.8757Y17.4575Z-0.3064
G1X22.8394Y17.3381Z-0.3058
G1X22.8271Y17.2126Z-0.3054
G1X22.8275Y14.825Z-0.3001
G1X22.8278Y12.9678Z-0.2902
G1X22.8099Y12.8716Z-0.2896
G1X22.7199Y12.7262Z-0.288
G1X21.7021Y11.7084Z-0.2734
G1X21.5798Y11.6267Z-0.2718
G1X21.4569Y11.5989Z-0.2706
G1X21.3322Y11.6005Z-0.2694
G1X21.1642Y11.655Z-0.2682
G1X21.0882Y11.7173Z-0.2679
G1X21.0381Y11.7875Z-0.2678
G1X20.9911Y11.9262Z-0.2681
G1X21.0007Y12.0724Z-0.269
G1X21.1207Y12.368Z-0.2717
G1X21.163Y12.5809Z-0.2732
G1X21.163Y12.7991Z-0.2744
G1X21.1206Y13.0123Z-0.2752
G1X21.0174Y13.2565Z-0.2756
G1X20.988Y13.4024Z-0.2761
G1X20.9916Y14.5642Z-0.2825
G1X21.0507Y14.7232Z-0.2839
G1X21.1466Y14.825Z-0.2853
G1X21.2148Y14.8975Z-0.2861
G1X21.3369Y15.0802Z-0.2875
G1X21.4204Y15.2818Z-0.2887
G1X21.463Y15.4959Z-0.2896
G1X21.463Y15.7142Z-0.29
G1X21.4204Y15.9282Z-0.2901
G1X21.3369Y16.1299Z-0.2899
G1X21.2156Y16.3113Z-0.2892
G1X21.0604Y16.4666Z-0.2882
G1X20.8952Y16.5794Z-0.2869
G1X20.8298Y16.6448Z-0.2865
G1X20.7796Y16.7264Z-0.2862
G1X20.7487Y16.8664Z-0.2863
G1X20.7723Y17.0077Z-0.2868
G1X20.8462Y17.1293Z-0.2877
G1X21.0994Y17.3267Z-0.2904
G1X21.2453Y17.4885Z-0.292
G1X21.3361Y17.641Z-0.2932
G1X21.2449Y17.4984Z-0.2921
G1X21.091Y17.3276Z-0.2903
G1X20.8817Y17.1805Z-0.2881
G1X20.6949Y17.0989Z-0.2863
G1X20.4958Y17.0551Z-0.2845
G1X20.2661Y17.0497Z-0.2824
G1X20.0151Y17.0989Z-0.2803
G1X19.8283Y17.1805Z-0.2788
G1X19.6189Y17.3276Z-0.2773
G1X19.4508Y17.5204Z-0.2762
G1X19.3407Y17.722Z-0.2757
G1X19.2858Y17.891Z-0.2756
G1X19.255Y18.145Z-0.2758
G1X19.2858Y18.399Z-0.2766
G1X19.362Y18.6157Z-0.2778
G1X19.4508Y18.7696Z-0.2789
G1X19.6189Y18.9625Z-0.2808
G1X19.851Y19.1243Z-0.2832
G1X19.7837Y19.0922Z-0.2826
G1X19.6099Y18.9626Z-0.2807
G1X19.4632Y18.7999Z-0.2791
G1X19.332Y18.6208Z-0.2775
G1X19.1994Y18.5491Z-0.2762
G1X19.0493Y18.5351Z-0.2748
G1X18.9284Y18.5694Z-0.2738
G1X18.8172Y18.6496Z-0.273
G1X18.6757Y18.8517Z-0.2722
G1X18.5153Y19.0203Z-0.2711
G1X18.4697Y19.1092Z-0.2709
G1X18.448Y19.2358Z-0.271
G04 P0 ( dwell for no time -- G64 should not smooth over this point )
G0X18.448Y19.2358Z1.829
(Block-name: block [autolevel])
(Block-expand: 0)
(Block-enable: 1)

G0X24.2015Y21.1835Z1.7734
G0X26.9846Y22.1257Z1.7408
G01 F30.00000
G1X26.9846Y22.1257Z-0.3592
G04 P0 ( dwell for no time -- G64 should not smooth over this point )
G01 F60.00000
G01 X26.98463 Y22.12569
G1X27.0154Y21.8717Z-0.3574
G1X27.0916Y21.655Z-0.3563
G1X27.1947Y21.4791Z-0.3558
G1X27.3486Y21.3083Z-0.3558
G1X27.5261Y21.1835Z-0.3563
G1X27.5579Y21.1612Z-0.3566
G1X27.7447Y21.0795Z-0.358
G1X27.825Y21.0638Z-0.3587
G1X27.9958Y21.0303Z-0.3599
G1X28.2012Y21.0319Z-0.3614
G1X28.2786Y21.0478Z-0.362
G1X28.62Y20.7064Z-0.3637
G1X28.62Y15.195Z-0.3505
G1X28.6336Y15.0651Z-0.3502
G1X28.67Y14.9532Z-0.3502
G1X28.6709Y14.825Z-0.3499
G1X28.6748Y14.2963Z-0.3473
G1X28.7432Y14.1682Z-0.3472
G1X28.8631Y14.1023Z-0.3477
G1X29.57Y14.095Z-0.3525
G1X29.6668Y14.1146Z-0.3533
G1X29.7779Y14.2061Z-0.3545
G1X29.8152Y14.2963Z-0.3552
G1X29.819Y14.825Z-0.358
G1X29.82Y14.9532Z-0.3583
G1X29.8563Y15.0651Z-0.3588
G1X29.87Y15.195Z-0.3592
G1X29.87Y20.9654Z-0.3736
G1X29.8307Y21.1814Z-0.3738
G1X29.8296Y21.1835Z-0.3738
G1X29.7773Y21.2915Z-0.3743
G1X29.7034Y21.3891Z-0.3746
G1X29.1653Y21.9289Z-0.375
G1X29.1846Y22.1257Z-0.3768
G1X29.1538Y22.3797Z-0.3786
G1X29.0776Y22.5964Z-0.3799
G1X28.9745Y22.7722Z-0.3805
G1X28.8207Y22.9431Z-0.3808
G1X28.6566Y23.0641Z-0.3806
G1X28.4246Y23.1718Z-0.3797
G1X28.1735Y23.221Z-0.3783
G1X27.9438Y23.2156Z-0.3765
G1X27.825Y23.1895Z-0.3754
G1X27.7447Y23.1718Z-0.3745
G1X27.5127Y23.0641Z-0.3716
G1X27.3301Y22.9246Z-0.3688
G1X27.1947Y22.7722Z-0.3663
G1X27.0916Y22.5964Z-0.364
G1X27.0154Y22.3797Z-0.3615
G1X26.9846Y22.1257Z-0.3592
G04 P0 ( dwell for no time -- G64 should not smooth over this point )
G0X26.9846Y22.1257Z1.7408
(Block-name: block [autolevel])
(Block-expand: 0)
(Block-enable: 1)

G0X27.1763Y21.1835Z1.7468
G0X27.825Y17.9948Z1.7485
G0X28.4698Y14.825Z1.7515
G0X29.6593Y8.9779Z1.773
G01 F30.00000
G1X29.6593Y8.9779Z-0.327
G04 P0 ( dwell for no time -- G64 should not smooth over this point )
G01 F60.00000
G01 X29.65933 Y8.97789
G1X29.7467Y8.9218Z-0.3273
G1X29.8152Y8.7938Z-0.3271
G1X29.8268Y8.4665Z-0.3255
G1X29.8292Y8.399Z-0.3254
G1X29.8283Y8.4665Z-0.3255
G1X29.8242Y8.7956Z-0.3271
G1X29.7533Y8.9283Z-0.3274
G1X29.6692Y8.9845Z-0.3271
G1X29.6593Y8.9779Z-0.327
G04 P0 ( dwell for no time -- G64 should not smooth over this point )
G0X29.6593Y8.9779Z1.773
(Block-name: block [autolevel])
(Block-expand: 0)
(Block-enable: 1)

G0X28.5688Y8.4665Z1.7824
G0X27.825Y8.1177Z1.7875
G0X27.35Y7.895Z1.7922
G01 F30.00000
G1X27.35Y7.895Z-0.3078
G04 P0 ( dwell for no time -- G64 should not smooth over this point )
G01 F60.00000
G01 X27.34998 Y7.89501
G1X27.3504Y8.4665Z-0.3086
G1X27.3512Y9.3995Z-0.3132
G1X27.3893Y9.5911Z-0.3145
G1X27.4699Y9.7419Z-0.3159
G1X27.825Y10.098Z-0.321
G1X32.003Y14.2869Z-0.3703
G1X32.1836Y14.4119Z-0.3723
G1X32.2993Y14.452Z-0.3733
G1X32.445Y14.47Z-0.3744
G1X39.4981Y14.47Z-0.4235
G1X39.605Y14.495Z-0.4244
G1X40.6835Y14.495Z-0.4319
G1X42.205Y14.495Z-0.4426
G1X42.3439Y14.4529Z-0.4433
G1X42.436Y14.3407Z-0.4432
G1X42.455Y14.245Z-0.4428
G1X42.4502Y13.3963Z-0.4374
G1X42.3817Y13.2682Z-0.4361
G1X42.2538Y13.1998Z-0.4348
G1X40.6835Y13.197Z-0.4235
G1X39.605Y13.195Z-0.4162
G1X39.4981Y13.22Z-0.4156
G1X32.7039Y13.22Z-0.3694
G1X28.6Y9.1161Z-0.3211
G1X28.5993Y8.4665Z-0.3178
G1X28.5986Y7.8689Z-0.317
G1X28.5863Y7.7651Z-0.3168
G1X28.55Y7.6532Z-0.3164
G1X28.5452Y6.9962Z-0.3155
G1X28.4767Y6.8682Z-0.3149
G1X28.3956Y6.814Z-0.3143
G1X28.3Y6.795Z-0.3137
G1X27.825Y6.795Z-0.3106
G1X27.65Y6.795Z-0.309
G1X27.5543Y6.814Z-0.3082
G1X27.4732Y6.8682Z-0.3075
G1X27.4048Y6.9962Z-0.307
G1X27.4Y7.6532Z-0.3079
G1X27.3636Y7.7651Z-0.3077
G1X27.35Y7.895Z-0.3078
G04 P0 ( dwell for no time -- G64 should not smooth over this point )
G0X27.35Y7.895Z1.7922
(Block-name: block [autolevel])
(Block-expand: 0)
(Block-enable: 1)

G0X27.825Y7.6897Z1.7881
G0X29.749Y6.8582Z1.777
G01 F30.00000
G1X29.749Y6.8582Z-0.323
G04 P0 ( dwell for no time -- G64 should not smooth over this point )
G01 F60.00000
G01 X29.74899 Y6.85816
G1X29.7855Y6.901Z-0.3233
G1X29.8242Y6.9944Z-0.3237
G1X29.8292Y7.391Z-0.3242
G1X29.8152Y6.9962Z-0.3236
G1X29.749Y6.8582Z-0.323
G04 P0 ( dwell for no time -- G64 should not smooth over this point )
G0X29.749Y6.8582Z1.777
(Block-name: block [autolevel])
(Block-expand: 0)
(Block-enable: 1)

G0X31.5543Y8.4665Z1.7638
G0X38.6916Y14.825Z1.6799
G0X40.6835Y16.5995Z1.6604
G0X42.755Y18.445Z1.6395
G01 F30.00000
G1X42.755Y18.445Z-0.4605
G04 P0 ( dwell for no time -- G64 should not smooth over this point )
G01 F60.00000
G01 X42.75498 Y18.44501
G1X42.7598Y19.2938Z-0.4634
G1X42.8282Y19.4218Z-0.4643
G1X42.9562Y19.4902Z-0.4655
G1X45.605Y19.495Z-0.4851
G1X45.7007Y19.476Z-0.4857
G1X45.7818Y19.4218Z-0.4861
G1X45.8502Y19.2938Z-0.4862
G1X45.8502Y18.3962Z-0.483
G1X45.7818Y18.2682Z-0.482
G1X45.6538Y18.1998Z-0.4808
G1X43.005Y18.195Z-0.4615
G1X42.9093Y18.214Z-0.4609
G1X42.8282Y18.2682Z-0.4605
G1X42.774Y18.3494Z-0.4603
G1X42.755Y18.445Z-0.4605
G04 P0 ( dwell for no time -- G64 should not smooth over this point )
G0X42.755Y18.445Z1.6395
(Block-name: block [autolevel])
(Block-expand: 0)
(Block-enable: 1)

G0X44.809Y16.995Z1.6295
G01 F30.00000
G1X44.809Y16.995Z-0.4705
G04 P0 ( dwell for no time -- G64 should not smooth over this point )
G01 F60.00000
G01 X44.80898 Y16.99502
G1X45.6538Y16.9902Z-0.4765
G1X45.7439Y16.9529Z-0.477
G1X45.8419Y16.849Z-0.4774
G1X45.749Y16.9606Z-0.4771
G1X45.6556Y16.9993Z-0.4766
G1X44.809Y16.995Z-0.4705
G04 P0 ( dwell for no time -- G64 should not smooth over this point )
G0X44.809Y16.995Z1.6295
(Block-name: block [autolevel])
(Block-expand: 0)
(Block-enable: 1)

G0X44.809Y15.6864Z1.6341
G01 F30.00000
G1X44.809Y15.6864Z-0.4659
G04 P0 ( dwell for no time -- G64 should not smooth over this point )
G01 F60.00000
G01 X44.80898 Y15.68636
G1X45.6538Y15.6998Z-0.4719
G1X45.7439Y15.7371Z-0.4727
G1X45.8419Y15.841Z-0.4737
G1X45.749Y15.7294Z-0.4727
G1X45.6556Y15.6907Z-0.4719
G1X44.809Y15.6864Z-0.4659
G04 P0 ( dwell for no time -- G64 should not smooth over this point )
G0X44.809Y15.6864Z1.6341
(Block-name: block [autolevel])
(Block-expand: 0)
(Block-enable: 1)

G0X44.809Y14.825Z1.6371
G0X44.809Y14.495Z1.6391
G01 F30.00000
G1X44.809Y14.495Z-0.4609
G04 P0 ( dwell for no time -- G64 should not smooth over this point )
G01 F60.00000
G01 X44.80898 Y14.49500
G1X45.6538Y14.4902Z-0.4668
G1X45.7439Y14.4529Z-0.4672
G1X45.8419Y14.349Z-0.4673
G1X45.749Y14.4606Z-0.4673
G1X45.6556Y14.4993Z-0.4669
G1X44.809Y14.495Z-0.4609
G04 P0 ( dwell for no time -- G64 should not smooth over this point )
G0X44.809Y14.495Z1.6391
(Block-name: block [autolevel])
(Block-expand: 0)
(Block-enable: 1)

G0X44.809Y13.1863Z1.647
G01 F30.00000
G1X44.809Y13.1863Z-0.453
G04 P0 ( dwell for no time -- G64 should not smooth over this point )
G01 F60.00000
G01 X44.80898 Y13.18634
G1X45.6538Y13.1998Z-0.4591
G1X45.7439Y13.2371Z-0.46
G1X45.8419Y13.341Z-0.4613
G1X45.749Y13.2295Z-0.46
G1X45.6556Y13.1907Z-0.4591
G1X44.809Y13.1863Z-0.453
G04 P0 ( dwell for no time -- G64 should not smooth over this point )
G0X44.809Y13.1863Z1.647
(Block-name: block [autolevel])
(Block-expand: 0)
(Block-enable: 1)

G0X42.9094Y13.214Z1.6605
G01 F30.00000
G1X42.9094Y13.214Z-0.4395
G04 P0 ( dwell for no time -- G64 should not smooth over this point )
G01 F60.00000
G01 X42.90941 Y13.21403
G1X43.005Y13.195Z-0.4401
G1X43.801Y13.1863Z-0.4458
G1X42.9544Y13.1907Z-0.4397
G1X42.8282Y13.2682Z-0.4393
G1X42.774Y13.3493Z-0.4394
G1X42.755Y13.445Z-0.4399
G1X42.755Y14.245Z-0.4449
G1X42.774Y14.3407Z-0.4456
G1X42.8282Y14.4218Z-0.4465
G1X42.9562Y14.4902Z-0.4478
G1X43.801Y14.5037Z-0.4538
G1X42.9544Y14.4993Z-0.4479
G1X42.8571Y14.4585Z-0.4469
G1X42.7789Y14.4037Z-0.446
G1X42.6174Y14.3618Z-0.4446
G1X42.4726Y14.387Z-0.4438
G1X42.3042Y14.4845Z-0.4432
G1X42.1865Y14.5061Z-0.4425
G1X40.6835Y14.5061Z-0.4319
G1X39.6235Y14.5061Z-0.4246
G1X39.4284Y14.478Z-0.423
G1X33.03Y14.4879Z-0.3786
G1X32.9061Y14.5416Z-0.378
G1X32.8021Y14.6456Z-0.3779
G1X32.7458Y14.7815Z-0.3782
G1X32.7458Y14.825Z-0.3784
G1X32.7458Y14.9285Z-0.3787
G1X32.779Y15.0212Z-0.3792
G1X32.8332Y15.1023Z-0.3798
G1X33.3761Y15.6414Z-0.3851
G1X33.4627Y15.6877Z-0.3858
G1X33.5956Y15.712Z-0.3868
G1X39.4284Y15.712Z-0.4279
G1X39.6235Y15.6839Z-0.4292
G1X40.6835Y15.6839Z-0.4367
G1X42.1865Y15.6839Z-0.4473
G1X42.3042Y15.7055Z-0.4482
G1X42.4494Y15.7948Z-0.4496
G1X42.5929Y15.827Z-0.4507
G1X42.7374Y15.8031Z-0.4516
G1X42.9095Y15.714Z-0.4525
G1X43.005Y15.695Z-0.4532
G1X43.801Y15.6864Z-0.4588
G1X42.9544Y15.6908Z-0.4528
G1X42.8282Y15.7682Z-0.4522
G1X42.774Y15.8493Z-0.452
G1X42.755Y15.945Z-0.4522
G1X42.755Y16.745Z-0.4549
G1X42.774Y16.8407Z-0.4553
G1X42.8282Y16.9218Z-0.456
G1X42.9562Y16.9902Z-0.4571
G1X43.801Y17.0037Z-0.4633
G1X42.9544Y16.9993Z-0.4572
G1X42.8571Y16.9585Z-0.4563
G1X42.7789Y16.9037Z-0.4556
G1X42.6174Y16.8618Z-0.4543
G1X42.4726Y16.887Z-0.4533
G1X42.3042Y16.9845Z-0.4524
G1X42.1865Y17.0061Z-0.4517
G1X40.6835Y17.0061Z-0.4409
G1X39.6235Y17.0061Z-0.4333
G1X39.4284Y16.978Z-0.4318
G1X33.1788Y16.9812Z-0.3873
G1X33.0531Y16.9689Z-0.3863
G1X32.9338Y16.9327Z-0.3854
G1X32.8238Y16.8739Z-0.3844
G1X32.7263Y16.7938Z-0.3835
G1X30.7614Y14.825Z-0.3646
G1X30.4746Y14.5376Z-0.3611
G1X30.3955Y14.479Z-0.3602
G1X30.3054Y14.4404Z-0.3594
G1X30.1833Y14.4297Z-0.3585
G1X30.1107Y14.4404Z-0.358
G1X29.9794Y14.5066Z-0.3574
G1X29.9104Y14.5755Z-0.3573
G1X29.8598Y14.66Z-0.3574
G1X29.8311Y14.8075Z-0.358
G1X29.8316Y14.825Z-0.358
G1X29.8352Y14.946Z-0.3584
G1X29.878Y15.164Z-0.3592
G1X29.8812Y20.9638Z-0.3736
G1X29.8688Y21.0894Z-0.3739
G1X29.8403Y21.1835Z-0.3739
G1X29.8326Y21.2087Z-0.374
G1X29.7738Y21.3187Z-0.3745
G1X29.6938Y21.4163Z-0.3747
G1X29.303Y21.8025Z-0.375
G1X29.2213Y21.9248Z-0.3754
G1X29.1926Y22.0691Z-0.3764
G1X29.1926Y22.2348Z-0.3777
G1X29.1501Y22.4489Z-0.3792
G1X29.0665Y22.6505Z-0.3802
G1X28.9453Y22.832Z-0.3808
G1X28.7909Y22.9864Z-0.3809
G1X28.6095Y23.1076Z-0.3806
G1X28.4078Y23.1911Z-0.3798
G1X28.1937Y23.2337Z-0.3785
G1X27.9755Y23.2337Z-0.3769
G1X27.825Y23.2037Z-0.3755
G1X27.7614Y23.1911Z-0.3748
G1X27.5598Y23.1076Z-0.3723
G1X27.3783Y22.9863Z-0.3697
G1X27.224Y22.832Z-0.3671
G1X27.1027Y22.6505Z-0.3645
G1X27.0192Y22.4489Z-0.3621
G1X26.9766Y22.2348Z-0.36
G1X26.9766Y22.0166Z-0.3582
G1X27.0192Y21.8025Z-0.3568
G1X27.1027Y21.6009Z-0.3559
G1X27.224Y21.4194Z-0.3555
G1X27.3783Y21.2651Z-0.3557
G1X27.5004Y21.1835Z-0.3561
G1X27.5598Y21.1438Z-0.3565
G1X27.7614Y21.0603Z-0.3581
G1X27.825Y21.0476Z-0.3587
G1X27.9755Y21.0177Z-0.3597
G1X28.19Y21.0129Z-0.3613
G1X28.3297Y20.9668Z-0.3622
G1X28.5414Y20.7665Z-0.3633
G1X28.5877Y20.6798Z-0.3634
G1X28.612Y20.5468Z-0.3633
G1X28.6047Y16.6094Z-0.3538
G1X28.5715Y16.5169Z-0.3533
G1X28.518Y16.4347Z-0.3527
G1X28.4341Y16.363Z-0.3519
G1X28.309Y16.3134Z-0.3509
G1X27.825Y16.3079Z-0.3475
G1X27.669Y16.3061Z-0.3461
G1X27.5474Y16.2835Z-0.345
G1X27.4461Y16.2376Z-0.344
G1X27.303Y16.2242Z-0.3427
G1X27.0806Y16.2993Z-0.3409
G1X26.7514Y16.3061Z-0.338
G1X26.6071Y16.3348Z-0.3368
G1X26.4937Y16.408Z-0.336
G1X26.4314Y16.484Z-0.3356
G1X26.3817Y16.6095Z-0.3355
G1X26.3769Y16.7079Z-0.3356
G1X26.3959Y16.8035Z-0.336
G1X26.4684Y16.9315Z-0.337
G1X27.4788Y17.9391Z-0.3483
G1X27.5589Y18.0367Z-0.3492
G1X27.6177Y18.1466Z-0.35
G1X27.6538Y18.266Z-0.3506
G1X27.6662Y18.3916Z-0.351
G1X27.6662Y19.1055Z-0.3527
G1X27.6538Y19.2311Z-0.3529
G1X27.6177Y19.3504Z-0.3528
G1X27.5589Y19.4604Z-0.3526
G1X27.4788Y19.558Z-0.3521
G1X25.8532Y21.1835Z-0.3414
G1X22.4639Y24.5728Z-0.3381
G1X22.3664Y24.6529Z-0.3379
G1X22.2564Y24.7116Z-0.3373
G1X22.1371Y24.7479Z-0.3365
G1X22.0114Y24.7602Z-0.3355
G1X14.9665Y24.7602Z-0.2716
G1X14.3779Y24.7602Z-0.2679
G1X14.2523Y24.7479Z-0.267
G1X14.1329Y24.7117Z-0.266
G1X14.023Y24.6529Z-0.2649
G1X13.9254Y24.5728Z-0.2636
G1X10.5361Y21.1835Z-0.2164
G1X6.5612Y17.2086Z-0.1824
G1X6.4811Y17.111Z-0.1816
G1X6.4223Y17.0011Z-0.181
G1X6.3861Y16.8817Z-0.1805
G1X6.3738Y16.7561Z-0.1801
G1X6.3725Y14.825Z-0.1755
G1X6.3714Y13.2492Z-0.1659
G1X6.3331Y13.1373Z-0.165
G1X6.1961Y12.9584Z-0.163
G1X6.1373Y12.8484Z-0.162
G1X6.051Y12.5632Z-0.1597
G1X5.8516Y12.3429Z-0.1571
G1X5.7755Y12.1594Z-0.1554
G1X5.7639Y11.4286Z-0.1509
G1X5.7755Y11.3107Z-0.1503
G1X5.8518Y11.1266Z-0.1497
G1X5.9966Y10.9322Z-0.1494
G1X6.0176Y10.8743Z-0.1492
G1X6.0297Y10.752Z-0.1485
G1X6.0105Y10.6556Z-0.1478
G1X5.9722Y10.5782Z-0.1471
G1X5.8434Y10.4454Z-0.1454
G1X5.7855Y10.3592Z-0.1445
G1X5.7647Y10.189Z-0.1434
G1X5.8092Y10.189Z-0.1437
G1X5.8739Y10.3075Z-0.1448
G1X5.9775Y10.4111Z-0.1461
G1X6.1536Y10.4945Z-0.1478
G1X6.275Y10.51Z-0.1487
G1X7.175Y10.51Z-0.1545
G1X7.2963Y10.4945Z-0.1552
G1X7.4317Y10.4384Z-0.1557
G1X7.545Y10.3454Z-0.1559
G1X7.6407Y10.189Z-0.1556
G1X7.6853Y10.189Z-0.1559
G1X7.6588Y10.4539Z-0.1573
G1X7.6859Y10.578Z-0.1582
G1X7.7369Y10.6668Z-0.1591
G1X7.8526Y10.7661Z-0.1605
G1X7.9726Y10.808Z-0.1615
G1X8.0748Y10.8111Z-0.1622
G1X8.1971Y10.7765Z-0.1628
G1X8.3022Y10.7026Z-0.163
G1X8.8261Y10.1601Z-0.1631
G1X8.8722Y10.0204Z-0.1626
G1X8.877Y9.8059Z-0.1613
G1X8.9196Y9.5918Z-0.1603
G1X9.0031Y9.3902Z-0.1596
G1X9.1253Y9.2073Z-0.1593
G1X9.2725Y9.0521Z-0.1593
G1X9.3295Y8.9243Z-0.1589
G1X9.334Y8.7702Z-0.158
G1X9.2764Y8.6272Z-0.1568
G1X9.1663Y8.5193Z-0.1554
G1X9.0487Y8.4665Z-0.1543
G1X8.991Y8.4406Z-0.1539
G1X8.8955Y8.3242Z-0.1531
G1X8.874Y8.2076Z-0.1527
G1X8.8758Y7.879Z-0.1522
G1X8.8898Y8.2738Z-0.153
G1X8.9603Y8.4032Z-0.1537
G1X9.0393Y8.456Z-0.1543
G1X9.0923Y8.4665Z-0.1546
G1X9.135Y8.475Z-0.155
G1X10.835Y8.475Z-0.1661
G1X10.863Y8.4665Z-0.1662
G1X10.9739Y8.4329Z-0.1669
G1X11.066Y8.3207Z-0.1673
G1X11.085Y8.225Z-0.1673
G1X11.0942Y7.879Z-0.1669
G1X11.096Y8.2076Z-0.1674
G1X11.0745Y8.3242Z-0.1674
G1X10.979Y8.4406Z-0.1669
G1X10.9213Y8.4665Z-0.1666
G1X10.8037Y8.5193Z-0.1661
G1X10.6936Y8.6272Z-0.1661
G1X10.6359Y8.7702Z-0.1665
G1X10.6404Y8.9243Z-0.1675
G1X10.6974Y9.0521Z-0.1686
G1X10.8447Y9.2073Z-0.1705
G1X10.9669Y9.3902Z-0.1724
G1X11.0504Y9.5918Z-0.1742
G1X11.093Y9.8059Z-0.1758
G1X11.1029Y10.0572Z-0.1773
G1X11.1565Y10.1811Z-0.1784
G1X11.5005Y10.5251Z-0.1827
G1X11.6364Y10.5814Z-0.184
G1X11.7348Y10.5862Z-0.1846
G1X11.8312Y10.5682Z-0.1852
G1X11.9766Y10.4782Z-0.1856
G1X13.9865Y8.4665Z-0.1866
G1X14.9665Y7.4856Z-0.1924
G1X16.959Y5.4912Z-0.2094
G1X17.0566Y5.4112Z-0.2102
G1X17.1666Y5.3524Z-0.2112
G1X17.4857Y5.2688Z-0.214
G1X17.6801Y5.1445Z-0.2157
G1X17.7756Y5.1155Z-0.2165
G1X17.8935Y5.1039Z-0.2176
G1X18.7564Y5.1039Z-0.2255
G1X18.8744Y5.1156Z-0.2266
G1X18.9698Y5.1445Z-0.2275
G1X19.1866Y5.2769Z-0.2296
G1X19.334Y5.307Z-0.2309
G1X20.5619Y5.2997Z-0.2421
G1X20.6975Y5.2435Z-0.2433
G1X20.8003Y5.1413Z-0.2442
G1X20.871Y4.9897Z-0.2447
G1X21.0386Y4.7296Z-0.2459
G1X21.0667Y4.6365Z-0.2461
G1X21.0586Y4.4777Z-0.2459
G1X20.9925Y4.3463Z-0.2451
G1X20.9235Y4.2773Z-0.2444
G1X20.8391Y4.2267Z-0.2436
G1X20.6948Y4.198Z-0.2423
G1X14.9665Y4.1992Z-0.1903
G1X9.0105Y4.2005Z-0.1467
G1X8.8799Y4.2317Z-0.1458
G1X8.7688Y4.3084Z-0.1452
G1X4.7884Y8.2888Z-0.1261
G1X4.7067Y8.4111Z-0.1258
G1X4.6957Y8.4665Z-0.1259
G1X4.678Y8.5554Z-0.1263
G1X4.6813Y14.825Z-0.1646
G1X4.6828Y17.6734Z-0.1715
G1X4.7067Y17.7689Z-0.1719
G1X4.7884Y17.8912Z-0.1727
G1X8.0807Y21.1835Z-0.2012
G1X12.8328Y25.9356Z-0.2673
G1X12.9119Y25.9942Z-0.2683
G1X13.002Y26.0315Z-0.2691
G1X13.0994Y26.046Z-0.2699
G1X14.9665Y26.0455Z-0.2815
G1X27.825Y26.0422Z-0.3987
G1X32.7141Y26.0409Z-0.4354
G1X32.8081Y26.0124Z-0.4359
G1X32.9192Y25.9356Z-0.4361
G1X37.6713Y21.1835Z-0.4317
G1X39.2433Y19.6115Z-0.4386
G1X39.3191Y19.5027Z-0.4388
G1X39.3524Y19.3766Z-0.4386
G1X39.3507Y18.3944Z-0.4356
G1X39.4661Y18.2372Z-0.436
G1X39.605Y18.195Z-0.4368
G1X40.6835Y18.195Z-0.4446
G1X42.205Y18.195Z-0.4557
G1X42.3006Y18.214Z-0.4564
G1X42.4128Y18.3061Z-0.4576
G1X42.4502Y18.3962Z-0.4581
G1X42.4502Y19.2938Z-0.4611
G1X42.3817Y19.4218Z-0.461
G1X42.2538Y19.4902Z-0.4603
G1X41.1389Y19.495Z-0.4521
G1X40.6835Y19.9504Z-0.4501
G1X39.4504Y21.1835Z-0.4449
G1X33.5129Y27.121Z-0.4504
G1X33.3972Y27.2113Z-0.4503
G1X33.2167Y27.286Z-0.4495
G1X33.071Y27.304Z-0.4486
G1X27.825Y27.304Z-0.4091
G1X14.9665Y27.304Z-0.2912
G1X12.681Y27.304Z-0.2769
G1X12.5352Y27.286Z-0.2759
G1X12.3548Y27.2113Z-0.2742
G1X12.239Y27.121Z-0.2728
G1X6.3016Y21.1835Z-0.1901
G1X3.603Y18.485Z-0.1667
G1X3.4781Y18.3044Z-0.1654
G1X3.438Y18.1887Z-0.1649
G1X3.42Y18.043Z-0.1644
G1X3.42Y14.825Z-0.1565
G1X3.42Y8.4665Z-0.1176
G1X3.42Y8.137Z-0.1167
G1X3.438Y7.9913Z-0.1164
G1X3.4781Y7.8757Z-0.1163
G1X3.603Y7.6951Z-0.1167
G1X8.175Y3.1231Z-0.1386
G1X8.3556Y2.9981Z-0.1397
G1X8.4712Y2.958Z-0.1405
G1X8.5925Y2.9412Z-0.1414
G1X14.9665Y2.9442Z-0.1895
G1X23.9527Y2.9484Z-0.2704
G1X24.1163Y2.9981Z-0.2719
G1X24.2969Y3.1231Z-0.2737
G1X27.1469Y5.9731Z-0.3032
G1X27.2719Y6.1537Z-0.3046
G1X27.312Y6.2693Z-0.3052
G1X27.33Y6.415Z-0.3055
G1X27.33Y7.895Z-0.3076
G1X27.3163Y8.025Z-0.3076
G1X27.28Y8.1368Z-0.3075
G1X27.28Y8.4665Z-0.3079
G1X27.28Y8.745Z-0.3093
G1X27.261Y8.8407Z-0.3096
G1X27.1689Y8.9529Z-0.3093
G1X27.0788Y8.9902Z-0.3086
G1X26.3312Y8.9902Z-0.3017
G1X26.2032Y8.9218Z-0.3001
G1X26.1348Y8.7938Z-0.2989
G1X26.1324Y8.4665Z-0.2972
G1X26.13Y8.1368Z-0.2967
G1X26.0937Y8.025Z-0.2963
G1X26.08Y7.895Z-0.296
G1X26.08Y6.6739Z-0.2944
G1X23.5961Y4.19Z-0.2686
G1X14.9665Y4.19Z-0.1903
G1X8.8759Y4.19Z-0.1457
G1X4.67Y8.3959Z-0.1256
G1X4.67Y8.4665Z-0.1257
G1X4.67Y14.825Z-0.1645
G1X4.67Y17.7841Z-0.1717
G1X8.0694Y21.1835Z-0.2011
G1X12.9399Y26.054Z-0.2689
G1X14.9665Y26.054Z-0.2815
G1X27.825Y26.054Z-0.3988
G1X32.8121Y26.054Z-0.4363
G1X37.6826Y21.1835Z-0.4318
G1X39.4371Y19.4291Z-0.4394
G1X39.374Y19.3407Z-0.4387
G1X39.355Y19.245Z-0.4382
G1X39.355Y18.445Z-0.4358
G1X39.374Y18.3494Z-0.4356
G1X39.4217Y18.2617Z-0.4357
G1X39.5058Y18.2055Z-0.4361
G1X39.6234Y18.1839Z-0.4369
G1X40.6835Y18.1839Z-0.4446
G1X42.1865Y18.1839Z-0.4555
G1X42.3042Y18.2055Z-0.4564
G1X42.4726Y18.3031Z-0.458
G1X42.6174Y18.3282Z-0.4591
G1X42.7789Y18.2863Z-0.4602
G1X42.9058Y18.2055Z-0.4608
G1X43.0234Y18.1839Z-0.4616
G1X45.6556Y18.1908Z-0.4808
G1X45.7883Y18.2617Z-0.482
G1X45.8592Y18.3944Z-0.483
G1X45.8592Y19.2956Z-0.4863
G1X45.8205Y19.3891Z-0.4863
G1X45.749Y19.4606Z-0.486
G1X45.6556Y19.4993Z-0.4855
G1X43.0235Y19.5061Z-0.466
G1X42.9058Y19.4845Z-0.4651
G1X42.7897Y19.4096Z-0.464
G1X42.7026Y19.3742Z-0.4632
G1X42.568Y19.363Z-0.4622
G1X42.4311Y19.4037Z-0.4613
G1X42.3528Y19.4585Z-0.4609
G1X42.2556Y19.4993Z-0.4603
G1X41.2953Y19.5061Z-0.4533
G1X41.1979Y19.5205Z-0.4526
G1X41.1069Y19.557Z-0.452
G1X41.048Y19.6007Z-0.4517
G1X40.6835Y19.9652Z-0.4502
G1X39.4654Y21.1835Z-0.445
G1X33.5219Y27.1278Z-0.4505
G1X33.4244Y27.2079Z-0.4505
G1X33.3144Y27.2666Z-0.4501
G1X33.1951Y27.3028Z-0.4495
G1X33.0695Y27.3152Z-0.4487
G1X27.825Y27.3152Z-0.4091
G1X14.9665Y27.3152Z-0.2913
G1X12.6825Y27.3152Z-0.277
G1X12.5569Y27.3028Z-0.2762
G1X12.4376Y27.2666Z-0.2751
G1X12.3276Y27.2079Z-0.274
G1X12.23Y27.1278Z-0.2728
G1X6.2857Y21.1835Z-0.19
G1X3.5962Y18.494Z-0.1666
G1X3.5161Y18.3964Z-0.1659
G1X3.4573Y18.2864Z-0.1652
G1X3.4211Y18.1671Z-0.1647
G1X3.4088Y18.0415Z-0.1643
G1X3.4088Y14.825Z-0.1564
G1X3.4088Y8.4665Z-0.1175
G1X3.4088Y8.1386Z-0.1166
G1X3.4211Y8.013Z-0.1163
G1X3.4573Y7.8936Z-0.1162
G1X3.5161Y7.7836Z-0.1163
G1X3.5962Y7.686Z-0.1166
G1X8.166Y3.1162Z-0.1385
G1X8.2636Y3.0362Z-0.1391
G1X8.3736Y2.9774Z-0.1398
G1X8.4929Y2.9412Z-0.1407
G1X8.6185Y2.9288Z-0.1416
G1X14.9665Y2.9288Z-0.1895
G1X23.8534Y2.9288Z-0.2694
G1X23.9791Y2.9412Z-0.2706
G1X24.0984Y2.9774Z-0.2717
G1X24.2084Y3.0362Z-0.2728
G1X24.306Y3.1163Z-0.2737
G1X25.8833Y4.6981Z-0.29
G1X26.0056Y4.7798Z-0.2912
G1X26.1376Y4.8082Z-0.2925
G1X26.2354Y4.7986Z-0.2933
G1X26.3593Y4.745Z-0.2944
G1X26.4633Y4.641Z-0.2952
G1X26.5054Y4.552Z-0.2955
G1X26.5244Y4.4563Z-0.2955
G1X26.5201Y4.3604Z-0.2953
G1X26.4701Y4.2206Z-0.2947
G1X26.427Y4.0041Z-0.294
G1X26.427Y3.7859Z-0.2937
G1X26.4696Y3.5718Z-0.2938
G1X26.5531Y3.3702Z-0.2943
G1X26.6743Y3.1887Z-0.2952
G1X26.8287Y3.0344Z-0.2963
G1X27.0102Y2.9131Z-0.2978
G1X27.2118Y2.8296Z-0.2995
G1X27.4259Y2.787Z-0.3014
G1X27.6441Y2.787Z-0.3033
G1X27.825Y2.823Z-0.305
G1X27.8582Y2.8296Z-0.3052
G1X28.0598Y2.9131Z-0.3067
G1X28.2425Y3.0352Z-0.3082
G1X28.4367Y3.2111Z-0.3097
G1X28.5277Y3.2475Z-0.3104
G1X28.6251Y3.262Z-0.3111
G1X33.4534Y3.2588Z-0.3439
G1X33.5791Y3.2712Z-0.3447
G1X33.6984Y3.3074Z-0.3456
G1X33.8084Y3.3661Z-0.3464
G1X33.9059Y3.4462Z-0.3471
G1X38.9255Y8.4665Z-0.3821
G1X40.6835Y10.2248Z-0.4043
G1X41.048Y10.5893Z-0.4094
G1X41.1069Y10.633Z-0.4101
G1X41.1979Y10.6695Z-0.411
G1X41.2953Y10.6839Z-0.4118
G1X42.2556Y10.6907Z-0.419
G1X42.3528Y10.7315Z-0.42
G1X42.4311Y10.7863Z-0.4209
G1X42.5926Y10.8282Z-0.4223
G1X42.7374Y10.8031Z-0.4233
G1X42.9058Y10.7055Z-0.4239
G1X43.0235Y10.6839Z-0.4246
G1X45.5864Y10.6839Z-0.4436
G1X45.6556Y10.6907Z-0.4442
G1X45.749Y10.7294Z-0.4451
G1X45.7801Y10.7674Z-0.4455
G1X45.6538Y10.6998Z-0.4442
G1X43.005Y10.695Z-0.4246
G1X42.9093Y10.714Z-0.424
G1X42.8282Y10.7682Z-0.4237
G1X42.774Y10.8493Z-0.4238
G1X42.755Y10.945Z-0.4243
G1X42.7598Y11.7938Z-0.4296
G1X42.8282Y11.9218Z-0.4309
G1X42.9562Y11.9902Z-0.4323
G1X45.605Y11.995Z-0.4516
G1X45.7403Y11.954Z-0.4523
G1X45.8111Y11.8856Z-0.4524
G1X45.8592Y11.7956Z-0.4522
G1X45.8661Y10.9635Z-0.4473
G1X45.8445Y10.8458Z-0.4465
G1X45.7801Y10.7674Z-0.4455
G1X45.8502Y10.8963Z-0.4468
G1X45.8502Y11.7938Z-0.4521
G1X45.7883Y11.9283Z-0.4525
G1X45.6556Y11.9993Z-0.452
G1X43.0235Y12.0061Z-0.4328
G1X42.9058Y11.9845Z-0.4319
G1X42.7605Y11.8952Z-0.4302
G1X42.617Y11.863Z-0.429
G1X42.4726Y11.887Z-0.4281
G1X42.3042Y11.9845Z-0.4275
G1X42.1865Y12.0061Z-0.4268
G1X40.6835Y12.0061Z-0.4158
G1X39.6235Y12.0061Z-0.4088
G1X39.5058Y11.9845Z-0.4079
G1X39.4637Y11.95Z-0.4074
G1X39.605Y11.995Z-0.4086
G1X40.6835Y11.995Z-0.4158
G1X42.205Y11.995Z-0.4268
G1X42.3439Y11.9529Z-0.4276
G1X42.436Y11.8407Z-0.4275
G1X42.455Y11.745Z-0.4271
G1X42.455Y10.945Z-0.4221
G1X42.436Y10.8493Z-0.4213
G1X42.3817Y10.7682Z-0.4204
G1X42.3006Y10.714Z-0.4195
G1X42.205Y10.695Z-0.4186
G1X41.1389Y10.695Z-0.4107
G1X40.6835Y10.2396Z-0.4044
G1X38.9104Y8.4665Z-0.382
G1X33.8969Y3.4531Z-0.347
G1X33.7163Y3.3281Z-0.3457
G1X33.6007Y3.288Z-0.3449
G1X33.455Y3.27Z-0.3439
G1X28.4389Y3.27Z-0.3098
G1X28.271Y3.0776Z-0.3084
G1X28.0617Y2.9305Z-0.3068
G1X27.8496Y2.8421Z-0.3052
G1X27.825Y2.8374Z-0.305
G1X27.6239Y2.7997Z-0.3032
G1X27.4461Y2.7997Z-0.3016
G1X27.1706Y2.8582Z-0.2992
G1X26.963Y2.9566Z-0.2974
G1X26.7804Y3.0961Z-0.296
G1X26.6451Y3.2484Z-0.295
G1X26.5207Y3.472Z-0.2942
G1X26.4549Y3.6921Z-0.2939
G1X26.435Y3.895Z-0.2939
G1X26.4549Y4.0979Z-0.2944
G1X26.5207Y4.318Z-0.2953
G1X26.6451Y4.5416Z-0.2967
G1X26.7804Y4.694Z-0.2982
G1X26.963Y4.8334Z-0.3
G1X27.1706Y4.9318Z-0.302
G1X27.4461Y4.9904Z-0.3046
G1X27.6239Y4.9904Z-0.3062
G1X27.825Y4.9526Z-0.308
G1X27.8496Y4.9479Z-0.3082
G1X28.0617Y4.8595Z-0.3095
G1X28.271Y4.7125Z-0.3106
G1X28.4389Y4.52Z-0.3115
G1X33.1961Y4.52Z-0.3432
G1X37.1426Y8.4665Z-0.371
G1X39.4371Y10.761Z-0.3997
G1X39.374Y10.8493Z-0.3998
G1X39.355Y10.945Z-0.4003
G1X39.355Y11.745Z-0.4053
G1X39.374Y11.8407Z-0.4061
G1X39.4637Y11.95Z-0.4074
G1X39.3894Y11.8891Z-0.4065
G1X39.3507Y11.7956Z-0.4056
G1X39.3524Y10.8134Z-0.3995
G1X39.3191Y10.6873Z-0.3985
G1X39.2433Y10.5785Z-0.3973
G1X37.1301Y8.4665Z-0.3709
G1X33.2839Y4.6226Z-0.3438
G1X33.225Y4.5789Z-0.3434
G1X33.134Y4.5425Z-0.3428
G1X33.0366Y4.528Z-0.3421
G1X28.6251Y4.528Z-0.3128
G1X28.5277Y4.5425Z-0.3121
G1X28.4367Y4.5789Z-0.3116
G1X28.2425Y4.7549Z-0.3105
G1X28.0598Y4.8769Z-0.3095
G1X27.8582Y4.9604Z-0.3083
G1X27.825Y4.967Z-0.308
G1X27.6441Y5.003Z-0.3064
G1X27.4259Y5.003Z-0.3045
G1X27.2094Y4.9599Z-0.3024
G1X27.0478Y4.9068Z-0.3009
G1X26.9497Y4.9079Z-0.3
G1X26.8542Y4.9318Z-0.2991
G1X26.7319Y5.0135Z-0.2981
G1X26.6502Y5.1359Z-0.2976
G1X26.6215Y5.2801Z-0.2975
G1X26.6502Y5.4244Z-0.2979
G1X26.7319Y5.5467Z-0.2989
G1X27.1537Y5.964Z-0.3033
G1X27.2339Y6.0616Z-0.3042
G1X27.2926Y6.1716Z-0.3049
G1X27.3292Y6.2922Z-0.3054
G1X27.3574Y6.5132Z-0.3059
G1X27.3947Y6.5962Z-0.3064
G1X27.4501Y6.6691Z-0.307
G1X27.5213Y6.7279Z-0.3077
G1X27.6729Y6.7807Z-0.3092
G1X27.825Y6.7815Z-0.3106
G1X28.2814Y6.7839Z-0.3135
G1X28.3506Y6.7908Z-0.314
G1X28.573Y6.8659Z-0.3155
G1X28.741Y6.8427Z-0.3166
G1X28.741Y6.8709Z-0.3166
G1X28.689Y6.9493Z-0.3164
G1X28.67Y7.045Z-0.3164
G1X28.6739Y8.4665Z-0.3183
G1X28.6748Y8.7938Z-0.3199
G1X28.7121Y8.8839Z-0.3206
G1X28.8243Y8.976Z-0.3218
G1X28.92Y8.995Z-0.3225
G1X29.0723Y8.995Z-0.3234
G1X29.0164Y9.1008Z-0.3236
G1X28.9975Y9.1923Z-0.3239
G1X28.9987Y9.393Z-0.325
G1X29.0585Y9.5531Z-0.3261
G1X32.5967Y13.1015Z-0.368
G1X32.7191Y13.1833Z-0.3693
G1X32.8633Y13.212Z-0.3704
G1X39.4284Y13.212Z-0.4151
G1X39.6235Y13.1839Z-0.4162
G1X40.6835Y13.1839Z-0.4234
G1X42.1865Y13.1839Z-0.4342
G1X42.3042Y13.2055Z-0.4352
G1X42.4494Y13.2948Z-0.4368
G1X42.5929Y13.327Z-0.438
G1X42.7374Y13.3031Z-0.4389
G1X42.9091Y13.2142Z-0.4395

G04 P0 ( dwell for no time -- G64 should not smooth over this point )
G0X42.9091Y13.2142Z9.6605
(Block-name: block [autolevel])
(Block-expand: 0)
(Block-enable: 1)

M5 ( Spindle off. )
G04 P1.000000
M9 ( Coolant off. )
M2 ( Program end. )

