( pcb2gcode 2.0.0 )
( Software-independent Gcode )
( This file uses a mill head of 1.00000mm to drill the 1 hole sizes. )
( Hole sizes: [1.00076 mm] )

G94       (Millimeters per minute feed rate.)
G21       (Units == Millimeters.)
G91.1     (Incremental arc distance mode.)
G90       (Absolute coordinates.)
S15000    (RPM spindle speed.)
G01 F20.00000 (Feedrate)
M3        (Spindle on clockwise.)
G04 P1.00000
G00 Z2.00000

G0 X9.98606 Y7.37500
G1 Z-2.50000 F10.00000
G0 Z2.00000

G0 X9.98606 Y9.91500
G1 Z-2.50000 F10.00000
G0 Z2.00000

G0 X9.98606 Y12.45500
G1 Z-2.50000 F10.00000
G0 Z2.00000

G0 X9.98606 Y14.99500
G1 Z-2.50000 F10.00000
G0 Z2.00000

G0 X15.27434 Y15.60460
G1 Z-2.50000 F10.00000
G0 Z2.00000

G0 X15.27434 Y18.14460
G1 Z-2.50000 F10.00000
G0 Z2.00000

G0 X17.71020 Y21.09862
G1 Z-2.50000 F10.00000
G0 Z2.00000

G0 X17.81434 Y18.14460
G1 Z-2.50000 F10.00000
G0 Z2.00000

G0 X20.35434 Y18.14460
G1 Z-2.50000 F10.00000
G0 Z2.00000

G0 X22.85116 Y19.07932
G1 Z-2.50000 F10.00000
G0 Z2.00000

G0 X20.35434 Y15.60460
G1 Z-2.50000 F10.00000
G0 Z2.00000

G0 X17.81434 Y15.60460
G1 Z-2.50000 F10.00000
G0 Z2.00000

G0 X20.05462 Y12.69122
G1 Z-2.50000 F10.00000
G0 Z2.00000

G0 X21.43892 Y7.98968
G1 Z-2.50000 F10.00000
G0 Z2.00000

G0 X21.85294 Y5.51318
G1 Z-2.50000 F10.00000
G0 Z2.00000

G0 X27.53492 Y3.89520
G1 Z-2.50000 F10.00000
G0 Z2.00000

G0 X31.98500 Y18.29700
G1 Z-2.50000 F10.00000
G0 Z2.00000

G0 X28.08356 Y22.12478
G1 Z-2.50000 F10.00000
G0 Z2.00000

G00 Z10.000 ( All done -- retract )

M5      (Spindle off.)
G04 P1.000000
M9      (Coolant off.)
M2      (Program end.)

