( pcb2gcode 2.0.0 )
( Software-independent Gcode )

G94 ( Millimeters per minute feed rate. )
G21 ( Units == Millimeters. )

G90 ( Absolute coordinates. )
G00 S15000 ( RPM spindle speed. )
G64 P0.01016 ( set maximum deviation from commanded toolpath )
G01 F20.00000 ( Feedrate. )


G00 Z10.00000 (Retract to tool change height)
T0
M5      (Spindle stop.)
G04 P1.00000 (Wait for spindle to stop)
(MSG, Change tool bit to cutter diameter 0.80000mm)
M6      (Tool change.)
M0      (Temporary machine stop.)
M3 ( Spindle on clockwise. )
G04 P1.00000 (Wait for spindle to get up to speed)
G04 P0 ( dwell for no time -- G64 should not smooth over this point )
G00 Z2.00000 ( retract )

G00 X0.42497 Y0.82500 ( rapid move to begin. )
G01 Z-2.50000 F10.00000 ( plunge. )
G04 P0 ( dwell for no time -- G64 should not smooth over this point )
G01 F20.00000
G01 X0.42497 Y29.82502
G01 X0.43266 Y29.90305
G01 X0.49240 Y30.04724
G01 X0.54214 Y30.10785
G01 X0.67191 Y30.19456
G01 X0.82499 Y30.22502
G01 X27.67499 Y30.22502
G00 Z-0.60000
G01 X28.97499 Y30.22502
G01 Z-2.50000 F10.00000
G01 F20.00000
G01 X55.82498 Y30.22502
G01 X55.97807 Y30.19456
G01 X56.04721 Y30.15761
G01 X56.15757 Y30.04724
G01 X56.19453 Y29.97808
G01 X56.22498 Y29.82502
G01 X56.22498 Y0.82500
G01 X56.21731 Y0.74697
G01 X56.15757 Y0.60278
G01 X56.10784 Y0.54217
G01 X55.97807 Y0.45548
G01 X55.82498 Y0.42500
G01 X28.97499 Y0.42500
G00 Z-0.60000
G01 X27.67499 Y0.42500
G01 Z-2.50000 F10.00000
G01 F20.00000
G01 X0.82499 Y0.42500
G01 X0.67191 Y0.45548
G01 X0.54214 Y0.54217
G01 X0.45545 Y0.67194
G01 X0.42497 Y0.82500

G04 P0 ( dwell for no time -- G64 should not smooth over this point )
G00 Z10.000 ( retract )

M5 ( Spindle off. )
G04 P1.000000
M9 ( Coolant off. )
M2 ( Program end. )

