( pcb2gcode 1.3.2 )
( Software-independent Gcode )

G94 ( Millimeters per minute feed rate. )
G21 ( Units == Millimeters. )

G90 ( Absolute coordinates. )
S15000 ( RPM spindle speed. )
G64 P0.01000 ( set maximum deviation from commanded toolpath )
F30.00000 ( Feedrate. )

F30.00000 ( Feedrate. )
M3 ( Spindle on clockwise. )
G04 P0 ( dwell for no time -- G64 should not smooth over this point )
G00 Z2.00000 ( retract )

G00 X6.02040 Y35.08108 ( rapid move to begin. )
F15.00000
G01 Z-0.13500
G04 P0 ( dwell for no time -- G64 should not smooth over this point )
F30.00000
X6.02040 Y35.08108
X3.50011 Y30.67032
X3.52402 Y30.65650
X4.12135 Y30.69722
X5.37842 Y30.85759
X5.70717 Y30.86333
X6.04309 Y30.81969
X6.95152 Y30.57921
X7.10656 Y30.55406
X7.26160 Y30.56166
X7.41664 Y30.60202
X7.57171 Y30.67517
X8.42893 Y31.16447
X8.87016 Y31.36666
X8.75497 Y31.63503
X8.62202 Y31.87263
X8.13699 Y32.63252
X7.93490 Y33.02248
X7.77725 Y33.48941
X7.59421 Y34.17244
X6.02040 Y35.08108
G04 P0 ( dwell for no time -- G64 should not smooth over this point )
G00 Z2.00000 ( retract )

G00 X3.50011 Y30.67029 ( rapid move to begin. )
F15.00000
G01 Z-0.13500
G04 P0 ( dwell for no time -- G64 should not smooth over this point )
F30.00000
X3.50011 Y30.67029
X0.06296 Y24.65486
X0.11719 Y24.55763
X1.29069 Y25.02443
X1.83123 Y25.19062
X3.19724 Y25.55664
X3.68045 Y25.65356
X4.11921 Y25.67350
X5.01980 Y25.63342
X5.45858 Y25.65336
X6.04339 Y25.77754
X6.34268 Y26.93324
X6.22233 Y27.22051
X6.08202 Y27.47322
X5.76214 Y27.97436
X5.86902 Y28.33232
X5.94621 Y28.48757
X6.44799 Y29.15975
X6.88789 Y29.40255
X6.99355 Y29.43006
X7.09922 Y29.43524
X7.20488 Y29.41810
X7.99777 Y29.20565
X9.37181 Y28.15132
X9.48476 Y28.03052
X9.49436 Y27.91378
X9.47671 Y27.79707
X9.20876 Y26.79707
X9.11100 Y26.54800
X8.95121 Y26.29893
X8.95121 Y15.79077
X9.05761 Y15.55450
X9.14887 Y15.39603
X9.32995 Y15.15973
X12.30482 Y12.18115
X12.43888 Y11.84196
X12.65717 Y11.45951
X12.84866 Y11.21793
X13.01551 Y11.05141
X13.20281 Y10.89926
X13.53266 Y10.69698
X13.79242 Y10.68689
X14.22412 Y10.73091
X14.95099 Y10.91717
X15.65475 Y11.00030
X15.67812 Y11.03919
X15.44408 Y12.57896
X15.28409 Y12.81089
X15.05810 Y13.08079
X14.91459 Y13.22753
X13.47114 Y13.22788
X13.18826 Y13.40533
X12.94292 Y13.61023
X12.77548 Y13.78719
X12.62219 Y13.98656
X12.39989 Y14.37599
X12.28600 Y14.65615
X12.18763 Y14.98919
X12.10998 Y15.39580
X12.07274 Y15.76237
X11.89573 Y15.98142
X11.62154 Y16.38482
X11.58046 Y16.79038
X11.57797 Y17.23207
X11.62065 Y17.67606
X11.67155 Y17.95927
X11.75857 Y18.30971
X11.62885 Y18.88218
X11.58046 Y19.33038
X11.57797 Y19.77207
X11.59875 Y20.04407
X11.67155 Y20.49927
X11.85798 Y21.14905
X12.07315 Y21.66083
X12.37884 Y22.22291
X12.86382 Y22.92814
X10.63939 Y28.29364
X10.55994 Y28.44048
X10.46987 Y28.56514
X10.01577 Y29.02917
X9.91948 Y29.14771
X9.83363 Y29.28797
X9.18982 Y30.82559
X9.09606 Y31.02658
X8.91577 Y31.33704
X8.87016 Y31.36666
X8.59020 Y31.24182
X8.30031 Y31.09582
X7.57171 Y30.67517
X7.41664 Y30.60202
X7.26160 Y30.56166
X7.10656 Y30.55406
X6.95152 Y30.57921
X6.04309 Y30.81969
X5.70717 Y30.86333
X5.45675 Y30.86272
X5.22058 Y30.84194
X4.12135 Y30.69722
X3.52402 Y30.65650
X3.50011 Y30.67029
G04 P0 ( dwell for no time -- G64 should not smooth over this point )
G00 Z2.00000 ( retract )

G00 X0.11721 Y24.55763 ( rapid move to begin. )
F15.00000
G01 Z-0.13500
G04 P0 ( dwell for no time -- G64 should not smooth over this point )
F30.00000
X0.11721 Y24.55763
X3.10669 Y19.19909
X5.18779 Y20.41463
X5.57542 Y20.68057
X5.91436 Y20.94651
X6.20463 Y21.21245
X6.44626 Y21.47841
X6.63920 Y21.74435
X6.78344 Y22.01029
X6.87905 Y22.27623
X7.14700 Y23.27625
X7.17968 Y23.47767
X7.16980 Y23.67909
X7.11735 Y23.88052
X7.02236 Y24.08194
X6.04339 Y25.77754
X5.45858 Y25.65336
X5.01980 Y25.63342
X4.11921 Y25.67350
X3.68045 Y25.65356
X3.19724 Y25.55664
X1.83123 Y25.19062
X1.29069 Y25.02443
X0.11721 Y24.55763
G04 P0 ( dwell for no time -- G64 should not smooth over this point )
G00 Z2.00000 ( retract )

G00 X3.10669 Y19.19909 ( rapid move to begin. )
F15.00000
G01 Z-0.13500
G04 P0 ( dwell for no time -- G64 should not smooth over this point )
F30.00000
X3.10669 Y19.19909
X12.91183 Y1.62389
X14.59976 Y3.31180
X15.65475 Y4.41279
X15.65475 Y11.00030
X14.95099 Y10.91717
X14.22412 Y10.73091
X13.79242 Y10.68689
X13.53266 Y10.69698
X13.20281 Y10.89926
X13.01551 Y11.05141
X12.84866 Y11.21793
X12.65717 Y11.45951
X12.43888 Y11.84196
X12.30482 Y12.18115
X9.38484 Y15.10113
X9.14887 Y15.39603
X8.98428 Y15.71096
X8.95121 Y15.79077
X8.95121 Y26.29893
X9.11100 Y26.54800
X9.20876 Y26.79707
X9.47671 Y27.79707
X9.49436 Y27.91378
X9.48476 Y28.03052
X9.37181 Y28.15132
X7.99777 Y29.20565
X7.09922 Y29.43524
X6.99355 Y29.43006
X6.88789 Y29.40255
X6.78223 Y29.35272
X6.44799 Y29.15975
X6.03920 Y28.62699
X5.94621 Y28.48757
X5.86902 Y28.33232
X5.76214 Y27.97436
X6.08202 Y27.47322
X6.22233 Y27.22051
X6.34268 Y26.93324
X6.04339 Y25.77754
X7.02236 Y24.08194
X7.11735 Y23.88052
X7.16980 Y23.67909
X7.17968 Y23.47767
X7.14700 Y23.27625
X6.87905 Y22.27623
X6.78344 Y22.01029
X6.63920 Y21.74435
X6.44626 Y21.47841
X6.20463 Y21.21245
X5.91436 Y20.94651
X5.57542 Y20.68057
X5.18779 Y20.41463
X4.75150 Y20.14870
X3.10669 Y19.19909
G04 P0 ( dwell for no time -- G64 should not smooth over this point )
G00 Z2.00000 ( retract )

G00 X16.42810 Y16.98602 ( rapid move to begin. )
F15.00000
G01 Z-0.13500
G04 P0 ( dwell for no time -- G64 should not smooth over this point )
F30.00000
X16.42810 Y16.98602
X15.91939 Y17.45531
X15.66476 Y17.65320
X15.14731 Y18.00829
X14.76677 Y18.30732
X11.75857 Y18.30971
X11.67155 Y17.95927
X11.59875 Y17.50407
X11.57361 Y17.06011
X11.58046 Y16.79038
X11.62154 Y16.38482
X11.89573 Y15.98142
X12.07274 Y15.76237
X15.11523 Y15.76278
X15.86415 Y16.09338
X16.88459 Y16.48459
X16.42810 Y16.98602
G04 P0 ( dwell for no time -- G64 should not smooth over this point )
G00 Z2.00000 ( retract )

G00 X17.92071 Y21.75311 ( rapid move to begin. )
F15.00000
G01 Z-0.13500
G04 P0 ( dwell for no time -- G64 should not smooth over this point )
F30.00000
X17.92071 Y21.75311
X17.89978 Y22.52428
X17.84301 Y23.34163
X17.77532 Y23.78887
X17.61807 Y24.36941
X17.56275 Y24.80269
X17.56493 Y25.06007
X17.59348 Y25.31879
X17.80222 Y26.16695
X17.67418 Y26.49087
X17.47329 Y26.81480
X15.00311 Y26.81480
X14.73583 Y27.02379
X14.50507 Y27.26931
X14.31081 Y27.55130
X14.15305 Y27.86981
X13.78719 Y28.75307
X12.35036 Y30.18990
X12.34607 Y30.54926
X12.31998 Y30.86668
X12.15547 Y32.11636
X12.12590 Y32.25812
X12.07708 Y32.38063
X12.00904 Y32.48388
X11.92174 Y32.56790
X9.91321 Y34.10907
X9.65118 Y34.26437
X9.33734 Y34.36785
X8.97168 Y34.41953
X8.55423 Y34.41941
X7.59421 Y34.17244
X7.77725 Y33.48941
X7.93490 Y33.02248
X8.13699 Y32.63252
X8.62202 Y31.87263
X8.75497 Y31.63503
X8.87016 Y31.36666
X8.91577 Y31.33704
X9.09606 Y31.02658
X9.83363 Y29.28797
X9.91948 Y29.14771
X10.01577 Y29.02917
X10.46987 Y28.56514
X10.55994 Y28.44048
X10.63939 Y28.29364
X12.86382 Y22.92814
X13.48678 Y22.75817
X14.40695 Y22.34646
X15.33682 Y22.00643
X15.71353 Y21.88131
X15.92546 Y21.84171
X16.49991 Y21.68880
X17.53024 Y21.70488
X17.92071 Y21.75311
G04 P0 ( dwell for no time -- G64 should not smooth over this point )
G00 Z2.00000 ( retract )

G00 X19.07080 Y8.15372 ( rapid move to begin. )
F15.00000
G01 Z-0.13500
G04 P0 ( dwell for no time -- G64 should not smooth over this point )
F30.00000
X19.07080 Y8.15372
X18.99767 Y8.48687
X18.88807 Y8.87541
X18.83275 Y9.30869
X18.83493 Y9.56607
X18.86348 Y9.82479
X19.07222 Y10.67295
X18.97468 Y10.93414
X18.82975 Y11.19532
X18.82975 Y11.49179
X18.94296 Y12.02773
X18.97202 Y12.39293
X18.96272 Y12.75407
X18.91482 Y13.11930
X18.82457 Y13.49689
X18.75233 Y13.71859
X18.57011 Y14.15153
X18.30311 Y14.63377
X18.18769 Y14.81147
X17.91426 Y15.18627
X17.68256 Y15.46964
X17.33666 Y16.30471
X16.88459 Y16.48459
X15.86415 Y16.09338
X15.11523 Y15.76278
X12.07274 Y15.76237
X12.10998 Y15.39580
X12.18763 Y14.98919
X12.35359 Y14.48056
X12.48168 Y14.21452
X12.62219 Y13.98656
X12.77548 Y13.78719
X12.94292 Y13.61023
X13.18826 Y13.40533
X13.47114 Y13.22788
X14.91459 Y13.22753
X15.17639 Y12.94643
X15.44408 Y12.57896
X15.67812 Y11.03919
X15.65475 Y11.00030
X15.65475 Y4.41279
X15.71454 Y4.45033
X16.29006 Y5.01101
X18.40974 Y7.12579
X18.64380 Y7.38278
X18.83199 Y7.63976
X18.97433 Y7.89675
X19.07080 Y8.15372
G04 P0 ( dwell for no time -- G64 should not smooth over this point )
G00 Z2.00000 ( retract )

G00 X23.66888 Y3.47728 ( rapid move to begin. )
F15.00000
G01 Z-0.13500
G04 P0 ( dwell for no time -- G64 should not smooth over this point )
F30.00000
X23.66888 Y3.47728
X23.94658 Y3.54098
X24.37157 Y4.35881
X24.60823 Y4.72881
X24.93378 Y5.09879
X25.43375 Y5.59879
X25.43375 Y7.90925
X25.33355 Y8.26538
X25.20406 Y8.62149
X25.04526 Y8.97760
X24.85717 Y9.33371
X24.54932 Y9.40932
X23.36106 Y9.28682
X22.81163 Y8.80226
X21.89609 Y8.13396
X21.64592 Y7.92746
X21.52596 Y7.66279
X21.44029 Y7.39813
X21.38890 Y7.13346
X21.37176 Y6.86879
X21.37176 Y5.91372
X22.01582 Y4.35884
X22.08095 Y4.23499
X22.16566 Y4.13072
X22.26993 Y4.04601
X22.39375 Y3.98089
X23.39375 Y3.56666
X23.66888 Y3.47728
G04 P0 ( dwell for no time -- G64 should not smooth over this point )
G00 Z2.00000 ( retract )

G00 X22.41819 Y0.55082 ( rapid move to begin. )
F15.00000
G01 Z-0.13500
G04 P0 ( dwell for no time -- G64 should not smooth over this point )
F30.00000
X22.41819 Y0.55082
X38.62740 Y0.55082
X39.18402 Y1.50367
X37.52070 Y4.54080
X37.30434 Y4.95015
X37.24043 Y5.17842
X34.22776 Y8.22271
X33.80242 Y8.72693
X32.60323 Y10.39007
X31.95744 Y11.17683
X31.59752 Y11.14653
X30.28190 Y10.98745
X29.68353 Y10.73960
X29.20575 Y10.26182
X28.99094 Y10.01633
X28.83750 Y9.77082
X28.74545 Y9.52532
X28.71474 Y9.27981
X28.71474 Y7.67981
X28.73021 Y7.50557
X28.77659 Y7.33132
X29.10387 Y7.03595
X29.11477 Y6.86879
X29.11477 Y4.90989
X28.88652 Y4.35881
X28.81538 Y4.22358
X28.72287 Y4.10971
X28.60900 Y4.01721
X28.47375 Y3.94606
X27.28742 Y3.46593
X26.92095 Y3.54098
X26.49595 Y4.35881
X26.25930 Y4.72881
X25.93375 Y5.09879
X25.43375 Y5.59879
X24.93378 Y5.09879
X24.60823 Y4.72881
X24.37157 Y4.35881
X23.94658 Y3.54098
X23.66888 Y3.47728
X23.39375 Y3.56666
X22.39375 Y3.98089
X22.26993 Y4.04601
X22.16566 Y4.13072
X22.08095 Y4.23499
X22.01582 Y4.35884
X21.37176 Y5.91372
X21.37176 Y6.86879
X21.38890 Y7.13346
X21.44029 Y7.39813
X21.52596 Y7.66279
X21.64592 Y7.92746
X21.89609 Y8.13396
X22.81163 Y8.80226
X23.36106 Y9.28682
X21.46068 Y10.82395
X21.28593 Y11.19225
X21.16058 Y11.54526
X21.05154 Y12.05674
X21.02693 Y12.37952
X21.03625 Y12.69875
X21.11296 Y13.17767
X21.21771 Y13.53065
X21.31697 Y13.78460
X20.75134 Y14.36631
X20.67102 Y14.49481
X20.62281 Y14.62331
X20.60676 Y14.75181
X20.60676 Y16.27179
X20.62281 Y16.40032
X20.67102 Y16.52882
X20.75134 Y16.65731
X20.94930 Y16.87136
X20.78888 Y17.19320
X20.70300 Y17.42848
X20.62172 Y17.80979
X20.60747 Y18.07875
X20.64689 Y18.45274
X20.74649 Y18.79993
X21.00366 Y19.04047
X21.29063 Y19.23684
X21.44727 Y19.32180
X21.80026 Y19.32180
X22.04140 Y19.45850
X22.36505 Y19.70666
X22.53437 Y19.87880
X22.68656 Y20.06996
X22.88430 Y20.39848
X22.88331 Y20.80407
X22.82126 Y21.19142
X22.73472 Y21.48522
X22.63802 Y21.72962
X22.63048 Y22.28115
X22.59042 Y22.55141
X22.48796 Y22.89548
X22.05812 Y23.08341
X21.83538 Y23.21679
X21.57978 Y23.42982
X21.18644 Y23.59055
X20.80826 Y23.81933
X20.61501 Y23.97597
X20.39548 Y24.20119
X20.24219 Y24.40056
X20.09901 Y24.63375
X20.10097 Y37.31991
X19.73455 Y37.35951
X18.81715 Y37.42067
X18.36719 Y36.22438
X17.88977 Y34.77351
X17.87240 Y34.43183
X17.81093 Y33.84864
X17.77110 Y33.63097
X17.61027 Y33.03216
X17.56493 Y32.68007
X17.56275 Y32.42269
X17.58726 Y32.16140
X17.64116 Y31.89025
X17.72767 Y31.60087
X17.80080 Y31.26772
X17.67293 Y30.94626
X17.47329 Y30.62480
X17.67418 Y30.30087
X17.80222 Y29.97695
X17.59348 Y29.12879
X17.56493 Y28.87007
X17.56275 Y28.61269
X17.61807 Y28.17941
X17.72767 Y27.79087
X17.80080 Y27.45772
X17.67293 Y27.13626
X17.47329 Y26.81480
X17.67418 Y26.49087
X17.80222 Y26.16695
X17.59348 Y25.31879
X17.56493 Y25.06007
X17.56275 Y24.80269
X17.61807 Y24.36941
X17.77532 Y23.78887
X17.84301 Y23.34163
X17.89978 Y22.52428
X17.92071 Y21.75311
X17.53024 Y21.70488
X16.49991 Y21.68880
X15.92546 Y21.84171
X15.71353 Y21.88131
X15.33682 Y22.00643
X14.40695 Y22.34646
X13.48678 Y22.75817
X12.86382 Y22.92814
X12.68447 Y22.68494
X12.27759 Y22.05093
X11.99413 Y21.48883
X11.79921 Y20.97707
X11.67155 Y20.49927
X11.59875 Y20.04407
X11.57361 Y19.60011
X11.59357 Y19.15838
X11.65966 Y18.71019
X11.75857 Y18.30971
X14.76677 Y18.30732
X15.14731 Y18.00829
X15.66476 Y17.65320
X15.91939 Y17.45531
X16.42810 Y16.98602
X16.88459 Y16.48459
X17.33666 Y16.30471
X17.68256 Y15.46964
X17.91426 Y15.18627
X18.18769 Y14.81147
X18.47956 Y14.32923
X18.68413 Y13.89626
X18.82457 Y13.49689
X18.91482 Y13.11930
X18.97202 Y12.57640
X18.94296 Y12.02773
X18.82975 Y11.49179
X18.82975 Y11.19532
X18.97468 Y10.93414
X19.07222 Y10.67295
X18.86348 Y9.82479
X18.83493 Y9.56607
X18.83275 Y9.30869
X18.88807 Y8.87541
X18.99767 Y8.48687
X19.07080 Y8.15372
X18.97433 Y7.89675
X18.83199 Y7.63976
X18.64380 Y7.38278
X18.40974 Y7.12579
X15.71454 Y4.45033
X18.39112 Y4.43654
X19.12922 Y4.41627
X19.51895 Y4.37131
X19.85375 Y4.27146
X20.95154 Y3.80580
X21.03389 Y3.73893
X21.10076 Y3.65658
X21.15220 Y3.55879
X21.96713 Y1.59143
X22.09454 Y1.23101
X22.41819 Y0.55082
G04 P0 ( dwell for no time -- G64 should not smooth over this point )
G00 Z2.00000 ( retract )

G00 X22.41821 Y0.55082 ( rapid move to begin. )
F15.00000
G01 Z-0.13500
G04 P0 ( dwell for no time -- G64 should not smooth over this point )
F30.00000
X22.41821 Y0.55082
X22.09454 Y1.23101
X21.96713 Y1.59143
X21.15220 Y3.55879
X21.10076 Y3.65658
X21.03389 Y3.73893
X20.95154 Y3.80580
X20.85377 Y3.85724
X19.85375 Y4.27146
X19.51895 Y4.37131
X19.12922 Y4.41627
X17.29209 Y4.44822
X15.71454 Y4.45033
X15.65475 Y4.41279
X14.59976 Y3.31180
X12.91183 Y1.62392
X13.51051 Y0.55082
X22.41821 Y0.55082
G04 P0 ( dwell for no time -- G64 should not smooth over this point )
G00 Z2.00000 ( retract )

G00 X36.68526 Y18.55894 ( rapid move to begin. )
F15.00000
G01 Z-0.13500
G04 P0 ( dwell for no time -- G64 should not smooth over this point )
F30.00000
X36.68526 Y18.55894
X36.68095 Y18.72241
X36.60129 Y18.88032
X36.36195 Y19.22894
X36.16642 Y19.43513
X35.98567 Y19.58555
X35.77912 Y19.72317
X35.53823 Y19.84872
X35.20602 Y19.97427
X33.94874 Y21.23155
X33.75350 Y21.44654
X33.52672 Y21.61997
X33.29200 Y21.74537
X32.92131 Y21.82708
X32.60948 Y21.94758
X32.20415 Y21.95629
X31.66488 Y22.04176
X31.38756 Y22.30213
X31.15495 Y22.48466
X30.80575 Y22.51956
X29.20575 Y22.51956
X28.96067 Y22.50236
X28.71558 Y22.45080
X28.47047 Y22.36487
X28.22539 Y22.24455
X26.80726 Y22.23962
X26.36928 Y22.18174
X25.97650 Y22.07145
X25.43982 Y21.85578
X24.70441 Y20.08035
X24.53225 Y19.75119
X24.28732 Y19.44537
X23.02189 Y18.17992
X22.87567 Y17.84034
X22.73879 Y17.60600
X22.58900 Y17.40280
X22.42497 Y17.22353
X22.17455 Y17.01002
X21.81555 Y16.79005
X21.43665 Y16.78955
X21.16419 Y16.82429
X20.94930 Y16.87136
X20.75134 Y16.65731
X20.67102 Y16.52882
X20.62281 Y16.40032
X20.60676 Y16.27179
X20.60676 Y14.75181
X20.62281 Y14.62331
X20.67102 Y14.49481
X20.75134 Y14.36631
X21.31697 Y13.78460
X21.61671 Y13.88645
X21.97041 Y13.97152
X22.63922 Y14.04614
X22.99609 Y14.11960
X23.45415 Y14.26187
X24.25412 Y14.57865
X24.65920 Y14.97573
X26.27007 Y15.64299
X26.55409 Y16.29300
X26.91404 Y16.93806
X27.31005 Y17.49910
X27.62922 Y17.87293
X27.88516 Y18.13641
X28.41401 Y18.17910
X29.56430 Y18.32482
X30.08937 Y18.34362
X30.44723 Y18.32482
X31.59775 Y18.17908
X32.20793 Y18.13041
X32.27047 Y18.06712
X32.34534 Y17.91624
X32.73597 Y17.62442
X33.31148 Y17.26249
X33.77590 Y17.03379
X34.20694 Y17.04070
X34.68021 Y17.09013
X35.05431 Y17.16806
X35.36060 Y17.26514
X35.53823 Y17.33872
X35.84089 Y17.50176
X36.17224 Y17.75584
X36.37063 Y17.96503
X36.51572 Y18.15960
X36.64843 Y18.38416
X36.67952 Y18.44928
X36.68526 Y18.55894
G04 P0 ( dwell for no time -- G64 should not smooth over this point )
G00 Z2.00000 ( retract )

G00 X37.82252 Y18.15645 ( rapid move to begin. )
F15.00000
G01 Z-0.13500
G04 P0 ( dwell for no time -- G64 should not smooth over this point )
F30.00000
X37.82252 Y18.15645
X37.82214 Y19.02119
X37.80891 Y19.15426
X37.78397 Y19.21456
X37.67678 Y19.34199
X35.72075 Y21.30559
X35.57297 Y21.54425
X35.16843 Y22.51702
X34.37473 Y23.31072
X34.07684 Y23.55377
X33.86604 Y24.00284
X33.59662 Y24.39527
X33.33135 Y24.67498
X32.96053 Y24.95930
X32.69317 Y25.11168
X32.38306 Y25.24828
X30.78261 Y25.72903
X30.58175 Y25.89278
X30.07270 Y25.88503
X29.59696 Y25.92181
X29.00827 Y26.02115
X28.42074 Y26.18155
X27.41909 Y26.19143
X27.04861 Y26.22593
X26.74335 Y26.27647
X26.35422 Y26.36522
X25.96509 Y26.48590
X24.83388 Y26.94337
X24.66228 Y27.77820
X24.61021 Y27.96936
X24.44434 Y28.47776
X23.94384 Y29.76460
X23.69776 Y30.49556
X23.69776 Y30.76099
X23.87419 Y31.39737
X23.96393 Y31.94677
X23.99172 Y32.31072
X23.98689 Y32.84390
X23.92669 Y33.38487
X23.80518 Y33.94661
X23.54229 Y34.71349
X23.23424 Y35.35898
X22.91161 Y35.90515
X22.33823 Y36.70340
X21.55832 Y37.09042
X20.77404 Y37.39481
X20.10097 Y37.31991
X20.09901 Y24.63375
X20.24219 Y24.40056
X20.39548 Y24.20119
X20.61501 Y23.97597
X20.80826 Y23.81933
X21.18644 Y23.59055
X21.57978 Y23.42982
X21.83538 Y23.21679
X22.05812 Y23.08341
X22.48796 Y22.89548
X22.59042 Y22.55141
X22.63048 Y22.28115
X22.63802 Y21.72962
X22.73472 Y21.48522
X22.82126 Y21.19142
X22.87175 Y20.91377
X22.89164 Y20.64522
X22.88430 Y20.39848
X22.82415 Y20.28532
X22.58900 Y19.94280
X22.36505 Y19.70666
X22.04140 Y19.45850
X21.80026 Y19.32180
X21.44727 Y19.32180
X21.29063 Y19.23684
X21.00366 Y19.04047
X20.74649 Y18.79993
X20.66043 Y18.51624
X20.62172 Y18.29384
X20.60747 Y18.07875
X20.61580 Y17.86600
X20.66043 Y17.58739
X20.72789 Y17.35208
X20.83185 Y17.09701
X20.94930 Y16.87136
X21.16419 Y16.82429
X21.43665 Y16.78955
X21.81555 Y16.79005
X22.17455 Y17.01002
X22.36505 Y17.16669
X22.53437 Y17.33880
X22.68656 Y17.52996
X22.82415 Y17.74532
X22.94821 Y17.99247
X23.02189 Y18.17992
X24.28732 Y19.44537
X24.53225 Y19.75119
X24.70441 Y20.08035
X25.43982 Y21.85578
X25.97650 Y22.07145
X26.43454 Y22.19472
X26.74203 Y22.23536
X26.95775 Y22.24455
X28.22539 Y22.24455
X28.47047 Y22.36487
X28.71558 Y22.45080
X28.96067 Y22.50236
X29.20575 Y22.51956
X30.80575 Y22.51956
X31.15495 Y22.48466
X31.38756 Y22.30213
X31.66488 Y22.04176
X32.20415 Y21.95629
X32.60948 Y21.94758
X32.92131 Y21.82708
X33.29200 Y21.74537
X33.36510 Y21.71077
X33.52672 Y21.61997
X33.75350 Y21.44654
X33.94874 Y21.23155
X35.20602 Y19.97427
X35.53823 Y19.84872
X35.77912 Y19.72317
X35.98567 Y19.58555
X36.16642 Y19.43513
X36.32690 Y19.27001
X36.47107 Y19.08675
X36.68095 Y18.72241
X36.67952 Y18.44928
X36.47973 Y18.10720
X36.33424 Y17.92239
X36.17224 Y17.75584
X35.84089 Y17.50176
X35.53823 Y17.33872
X35.36060 Y17.26514
X35.05431 Y17.16806
X34.68021 Y17.09013
X34.20694 Y17.04070
X33.77590 Y17.03379
X33.31148 Y17.26249
X32.73597 Y17.62442
X32.34534 Y17.91624
X32.27047 Y18.06712
X32.20793 Y18.13041
X31.59775 Y18.17908
X30.44723 Y18.32482
X30.08937 Y18.34362
X29.56430 Y18.32482
X28.41401 Y18.17910
X27.88516 Y18.13641
X27.62922 Y17.87293
X27.31005 Y17.49910
X26.91404 Y16.93806
X26.55409 Y16.29300
X26.27007 Y15.64299
X24.65920 Y14.97573
X24.25412 Y14.57865
X23.45415 Y14.26187
X22.99609 Y14.11960
X22.80495 Y14.07523
X22.13079 Y13.99699
X21.79274 Y13.93377
X21.31697 Y13.78460
X21.16058 Y13.35534
X21.07968 Y13.02158
X21.03625 Y12.69875
X21.02693 Y12.37952
X21.07968 Y11.87902
X21.16058 Y11.54526
X21.28593 Y11.19225
X21.46068 Y10.82395
X23.36106 Y9.28682
X24.54932 Y9.40932
X24.85717 Y9.33371
X25.04526 Y8.97760
X25.20406 Y8.62149
X25.33355 Y8.26538
X25.43375 Y7.90925
X25.43375 Y5.59879
X25.93375 Y5.09879
X26.25930 Y4.72881
X26.49595 Y4.35881
X26.92095 Y3.54098
X27.28742 Y3.46593
X28.47375 Y3.94606
X28.60900 Y4.01721
X28.72287 Y4.10971
X28.81538 Y4.22358
X28.88652 Y4.35881
X29.11477 Y4.90989
X29.11477 Y6.86879
X29.10387 Y7.03595
X28.77659 Y7.33132
X28.73021 Y7.50557
X28.71474 Y7.67981
X28.71474 Y9.27981
X28.74545 Y9.52532
X28.83750 Y9.77082
X28.99094 Y10.01633
X29.20575 Y10.26182
X29.68353 Y10.73960
X30.28190 Y10.98745
X31.59752 Y11.14653
X31.95744 Y11.17683
X32.60323 Y10.39007
X33.80242 Y8.72693
X34.22776 Y8.22271
X37.24043 Y5.17842
X37.57825 Y7.44735
X37.64084 Y8.07105
X37.69166 Y8.90297
X37.69291 Y9.47844
X37.66588 Y10.10899
X37.59964 Y10.70033
X37.48542 Y11.32316
X37.30391 Y11.97018
X37.09088 Y12.50794
X36.50663 Y13.69522
X36.48250 Y14.11635
X36.48250 Y14.73873
X37.74765 Y17.79450
X37.80591 Y17.99846
X37.82252 Y18.15645
G04 P0 ( dwell for no time -- G64 should not smooth over this point )
G00 Z2.00000 ( retract )

G00 X43.45015 Y15.54126 ( rapid move to begin. )
F15.00000
G01 Z-0.13500
G04 P0 ( dwell for no time -- G64 should not smooth over this point )
F30.00000
X43.45015 Y15.54126
X43.61388 Y15.65917
X43.76303 Y15.79163
X43.67590 Y16.30659
X43.51093 Y16.88825
X43.46280 Y17.34499
X43.47265 Y17.61078
X43.51093 Y17.87938
X43.67590 Y18.46104
X43.72642 Y18.69340
X43.64453 Y18.91266
X43.52802 Y19.13193
X43.37695 Y19.35121
X43.19127 Y19.57047
X42.75838 Y19.54095
X41.29176 Y19.54095
X40.99600 Y19.52355
X40.70024 Y19.47135
X40.40446 Y19.38439
X40.10870 Y19.26259
X40.03161 Y19.01791
X39.97655 Y18.77321
X39.94350 Y18.52851
X39.93248 Y18.28380
X39.93248 Y16.48381
X39.95280 Y16.15150
X40.01373 Y15.81917
X40.11531 Y15.48683
X40.25750 Y15.15450
X40.25750 Y14.91759
X40.88178 Y13.41046
X40.94378 Y12.89151
X41.02191 Y12.57172
X41.11543 Y12.31104
X41.22056 Y12.09273
X41.37319 Y11.85344
X41.59940 Y11.59652
X41.79668 Y11.43116
X41.99813 Y11.39263
X42.24903 Y11.37399
X42.48144 Y11.38704
X42.72643 Y11.43236
X42.95426 Y11.62588
X43.15322 Y11.85920
X43.20758 Y12.20497
X43.19909 Y12.53903
X43.16681 Y12.73454
X43.11207 Y12.93728
X42.95177 Y13.31346
X42.95825 Y14.15549
X42.98937 Y14.35775
X43.05139 Y14.57119
X43.45015 Y15.54126
G04 P0 ( dwell for no time -- G64 should not smooth over this point )
G00 Z2.00000 ( retract )

G00 X42.08624 Y22.80805 ( rapid move to begin. )
F15.00000
G01 Z-0.13500
G04 P0 ( dwell for no time -- G64 should not smooth over this point )
F30.00000
X42.08624 Y22.80805
X42.28454 Y23.31471
X42.40476 Y23.72281
X42.55193 Y24.46271
X42.60567 Y24.89921
X42.69356 Y25.11137
X42.54918 Y25.44876
X42.13519 Y25.93301
X41.93671 Y26.20855
X41.63052 Y26.72593
X41.50751 Y26.99130
X40.31099 Y29.86435
X40.15054 Y30.09046
X39.45521 Y30.78581
X39.29638 Y30.90753
X39.06446 Y31.02094
X39.00515 Y31.23796
X38.91462 Y31.79376
X38.76260 Y31.98037
X38.46710 Y32.25418
X38.41356 Y32.29432
X38.24495 Y32.32896
X37.89245 Y32.35967
X37.68239 Y32.35045
X37.45745 Y32.31870
X37.19151 Y32.25215
X37.03657 Y32.10996
X36.87338 Y31.93008
X36.72578 Y31.73006
X36.61059 Y31.53707
X36.60746 Y30.23240
X36.86863 Y30.18005
X37.17018 Y30.08982
X37.44472 Y30.02787
X37.77233 Y29.99226
X38.16339 Y30.00590
X38.48082 Y29.89389
X38.89072 Y29.84286
X39.00914 Y29.72249
X39.12714 Y29.49272
X39.12714 Y27.86981
X39.10840 Y27.69720
X39.05214 Y27.52455
X38.95839 Y27.35191
X38.82715 Y27.17926
X38.82633 Y25.95844
X38.86423 Y25.55285
X38.84000 Y25.09563
X38.77937 Y24.76553
X38.62382 Y24.28077
X38.25283 Y23.92022
X38.31424 Y23.52954
X38.36288 Y23.32687
X38.46738 Y23.00968
X38.58656 Y22.74745
X38.71815 Y22.52497
X38.86199 Y22.33218
X39.01942 Y22.16221
X39.19308 Y22.01024
X39.44485 Y21.83797
X39.68569 Y21.71242
X39.86334 Y21.70716
X40.12709 Y21.73038
X40.39664 Y21.78273
X40.67863 Y21.86851
X40.98043 Y21.99543
X41.31185 Y22.17661
X41.68622 Y22.43393
X42.05582 Y22.74425
X42.08624 Y22.80805
G04 P0 ( dwell for no time -- G64 should not smooth over this point )
G00 Z2.00000 ( retract )

G00 X38.82715 Y27.17926 ( rapid move to begin. )
F15.00000
G01 Z-0.13500
G04 P0 ( dwell for no time -- G64 should not smooth over this point )
F30.00000
X38.82715 Y27.17926
X38.95839 Y27.35191
X39.05214 Y27.52455
X39.10840 Y27.69720
X39.12714 Y27.86981
X39.12714 Y29.49272
X39.00914 Y29.72249
X38.89072 Y29.84286
X38.48082 Y29.89389
X38.16339 Y30.00590
X37.85844 Y29.99008
X37.53594 Y30.01385
X37.27272 Y30.06321
X36.86863 Y30.18005
X36.60746 Y30.23240
X36.36695 Y29.99168
X36.44186 Y29.64875
X36.55146 Y29.26021
X36.60678 Y28.82694
X36.60459 Y28.56956
X36.57604 Y28.31083
X36.36731 Y27.46268
X36.43591 Y27.26705
X36.53111 Y27.07142
X36.34490 Y26.72638
X36.16860 Y26.27289
X36.06970 Y25.80886
X36.04993 Y25.43576
X36.16827 Y25.19088
X36.41224 Y24.83548
X36.61856 Y24.61793
X36.80566 Y24.46263
X37.18234 Y24.23215
X37.44638 Y24.11747
X37.76004 Y24.01780
X38.25283 Y23.92022
X38.62382 Y24.28077
X38.77937 Y24.76553
X38.85493 Y25.23718
X38.86423 Y25.55285
X38.82633 Y25.95844
X38.82715 Y27.17926
G04 P0 ( dwell for no time -- G64 should not smooth over this point )
G00 Z2.00000 ( retract )

G00 X31.53087 Y31.28142 ( rapid move to begin. )
F15.00000
G01 Z-0.13500
G04 P0 ( dwell for no time -- G64 should not smooth over this point )
F30.00000
X31.53087 Y31.28142
X31.52505 Y34.37559
X30.93951 Y34.70821
X30.63877 Y35.00894
X28.30555 Y40.64182
X28.23611 Y40.78203
X28.07332 Y40.99539
X26.27934 Y42.78937
X26.09659 Y42.93351
X25.80967 Y43.06971
X25.72326 Y43.29394
X25.69009 Y43.43422
X25.67576 Y43.93681
X25.66504 Y44.04039
X25.63289 Y44.14395
X25.52933 Y44.17611
X25.42575 Y44.18682
X24.42575 Y44.18682
X24.32222 Y44.17611
X24.21867 Y44.14395
X24.18648 Y44.04039
X24.17576 Y43.93681
X24.17576 Y41.42684
X24.18605 Y41.32541
X24.21691 Y41.22397
X24.34041 Y41.02110
X24.51671 Y40.87454
X25.42575 Y40.49801
X25.67939 Y40.41122
X25.95887 Y40.35026
X26.26845 Y40.04068
X26.78536 Y38.77236
X26.84475 Y38.53464
X26.87276 Y38.23080
X26.87276 Y33.79980
X26.89052 Y33.55812
X26.93276 Y33.35012
X27.01810 Y33.09815
X27.82183 Y31.15777
X27.86842 Y31.11121
X28.00870 Y30.82785
X28.15473 Y30.57207
X28.35983 Y30.26496
X28.88607 Y29.99277
X31.52741 Y29.98756
X31.53087 Y31.28142
G04 P0 ( dwell for no time -- G64 should not smooth over this point )
G00 Z2.00000 ( retract )

G00 X32.54575 Y40.66382 ( rapid move to begin. )
F15.00000
G01 Z-0.13500
G04 P0 ( dwell for no time -- G64 should not smooth over this point )
F30.00000
X32.54575 Y40.66382
X32.54575 Y42.69681
X32.04575 Y43.19681
X31.72020 Y43.56681
X31.48355 Y43.93681
X31.06798 Y44.73681
X30.83133 Y45.10681
X30.50575 Y45.47681
X30.00575 Y45.97681
X29.50575 Y45.47681
X29.18020 Y45.10681
X28.94355 Y44.73681
X28.52798 Y43.93681
X28.28830 Y43.56285
X29.17306 Y41.42684
X29.23039 Y41.31784
X29.30496 Y41.22605
X29.39676 Y41.15147
X29.50575 Y41.09415
X30.50575 Y40.67992
X30.69666 Y40.61381
X30.90588 Y40.56600
X31.37923 Y40.52534
X31.92586 Y40.55795
X32.54575 Y40.66382
G04 P0 ( dwell for no time -- G64 should not smooth over this point )
G00 Z2.00000 ( retract )

G00 X38.75001 Y40.21150 ( rapid move to begin. )
F15.00000
G01 Z-0.13500
G04 P0 ( dwell for no time -- G64 should not smooth over this point )
F30.00000
X38.75001 Y40.21150
X39.72036 Y40.88361
X39.01244 Y41.42684
X38.53992 Y41.81185
X38.12575 Y42.19684
X37.12578 Y43.19681
X36.80020 Y43.56681
X36.56355 Y43.93681
X36.14798 Y44.73681
X35.91133 Y45.10681
X35.58575 Y45.47681
X35.08575 Y45.97684
X34.58575 Y45.47681
X34.26020 Y45.10681
X34.02355 Y44.73681
X33.60798 Y43.93681
X33.37133 Y43.56681
X33.04575 Y43.19681
X32.54575 Y42.69681
X32.54575 Y40.66382
X32.89170 Y40.19765
X33.29370 Y39.78754
X33.75177 Y39.43347
X34.26586 Y39.13545
X35.58575 Y39.12435
X35.98130 Y39.14134
X36.37683 Y39.19230
X36.77236 Y39.27723
X37.16789 Y39.39613
X37.56342 Y39.54901
X37.95895 Y39.73586
X38.35448 Y39.95668
X38.75001 Y40.21150
G04 P0 ( dwell for no time -- G64 should not smooth over this point )
G00 Z2.00000 ( retract )

G00 X43.27626 Y42.73402 ( rapid move to begin. )
F15.00000
G01 Z-0.13500
G04 P0 ( dwell for no time -- G64 should not smooth over this point )
F30.00000
X43.27626 Y42.73402
X42.54588 Y42.02313
X41.96940 Y41.50207
X41.36331 Y41.03230
X41.35076 Y40.38747
X41.31579 Y39.78147
X41.19582 Y38.51249
X41.18259 Y37.99408
X41.20514 Y37.51145
X41.26346 Y37.06459
X41.35757 Y36.65352
X41.48744 Y36.27823
X41.65312 Y35.93871
X41.85455 Y35.63498
X42.46857 Y34.83477
X42.75056 Y34.52934
X43.05376 Y34.52342
X43.95434 Y34.56350
X44.39310 Y34.54356
X44.87631 Y34.44664
X45.27440 Y33.93884
X45.91042 Y33.68326
X47.48019 Y33.47658
X47.61196 Y33.44913
X47.72583 Y33.40376
X47.82179 Y33.34049
X47.89990 Y33.25934
X48.33177 Y32.69653
X48.41125 Y32.39988
X48.42840 Y32.29421
X48.42321 Y32.18855
X48.39571 Y32.08289
X48.34587 Y31.97722
X47.78905 Y30.99396
X47.63581 Y30.60631
X47.48994 Y30.02749
X47.97186 Y29.38851
X49.99415 Y29.12226
X50.14315 Y29.09120
X50.27193 Y29.03989
X50.38046 Y28.96836
X50.46875 Y28.87659
X50.84942 Y28.38051
X50.95125 Y28.00047
X50.96890 Y27.88376
X50.95930 Y27.76705
X50.84635 Y27.64624
X49.96217 Y26.96778
X49.78735 Y26.80632
X49.61557 Y26.58163
X49.35451 Y26.13502
X49.17635 Y25.70490
X49.27264 Y25.49888
X49.34155 Y25.29288
X49.60950 Y24.29288
X49.64546 Y24.07119
X49.63459 Y23.84953
X49.57688 Y23.62784
X49.47231 Y23.40615
X48.84170 Y22.31392
X48.14333 Y21.77801
X47.47455 Y21.10922
X47.30196 Y20.92182
X47.06462 Y20.61215
X46.81562 Y20.18860
X46.70257 Y19.94697
X46.70236 Y19.80072
X46.35936 Y18.97263
X46.32964 Y18.41499
X46.26200 Y17.97992
X46.17054 Y17.62968
X46.10097 Y17.43318
X45.93912 Y17.09046
X45.80277 Y16.87410
X45.65179 Y16.68203
X45.34019 Y16.38637
X45.13676 Y16.24291
X44.82581 Y16.07540
X44.52485 Y15.95770
X44.15528 Y15.85772
X43.76303 Y15.79163
X43.61388 Y15.65917
X43.45015 Y15.54126
X43.08218 Y14.65287
X42.97639 Y14.29250
X42.95177 Y14.02323
X42.95177 Y13.31346
X43.08698 Y13.01053
X43.16681 Y12.73454
X43.19909 Y12.53903
X43.20758 Y12.20497
X43.15322 Y11.85920
X42.99450 Y11.66713
X42.85030 Y11.52954
X42.72643 Y11.43236
X42.42879 Y11.38166
X42.13976 Y11.37823
X41.79668 Y11.43116
X41.59940 Y11.59652
X41.37319 Y11.85344
X41.22056 Y12.09273
X41.05978 Y12.45567
X40.94378 Y12.89151
X40.88178 Y13.41046
X40.25750 Y14.91759
X40.25750 Y15.15450
X40.11531 Y15.48683
X40.01373 Y15.81917
X39.95280 Y16.15150
X39.93248 Y16.48381
X39.94350 Y18.52851
X39.97655 Y18.77321
X40.03161 Y19.01791
X40.10870 Y19.26259
X39.73189 Y19.62083
X39.45399 Y19.83557
X39.01175 Y20.13457
X38.80761 Y20.29645
X37.11122 Y21.98844
X36.71445 Y22.94488
X36.56776 Y23.18890
X34.98621 Y24.78008
X34.87905 Y24.90751
X34.77290 Y25.09184
X34.06975 Y26.78549
X34.06741 Y29.98756
X31.52741 Y29.98756
X31.52833 Y27.34815
X31.23366 Y26.78798
X31.04519 Y26.50307
X30.58175 Y25.89278
X30.78261 Y25.72903
X31.55253 Y25.48996
X32.20849 Y25.30985
X32.56074 Y25.17470
X32.96053 Y24.95930
X33.33135 Y24.67498
X33.59662 Y24.39527
X33.77056 Y24.15867
X33.92947 Y23.88580
X34.07684 Y23.55377
X34.37473 Y23.31072
X35.16843 Y22.51702
X35.57297 Y21.54425
X35.72075 Y21.30559
X37.67678 Y19.34199
X37.80241 Y19.18693
X37.82321 Y18.98842
X37.82321 Y18.18264
X37.79367 Y17.94111
X37.73743 Y17.76846
X36.48250 Y14.73873
X36.48966 Y13.89664
X36.50663 Y13.69522
X37.09088 Y12.50794
X37.30391 Y11.97018
X37.48542 Y11.32316
X37.59964 Y10.70033
X37.66588 Y10.10899
X37.69291 Y9.47844
X37.69166 Y8.90297
X37.64084 Y8.07105
X37.57825 Y7.44735
X37.24043 Y5.17842
X37.30434 Y4.95015
X37.52070 Y4.54080
X39.18402 Y1.50367
X53.59854 Y26.17944
X43.27626 Y42.73402
G04 P0 ( dwell for no time -- G64 should not smooth over this point )
G00 Z2.00000 ( retract )

G00 X43.27623 Y42.73400 ( rapid move to begin. )
F15.00000
G01 Z-0.13500
G04 P0 ( dwell for no time -- G64 should not smooth over this point )
F30.00000
X43.27623 Y42.73400
X40.15188 Y47.74478
X35.08575 Y47.74478
X35.08575 Y45.97684
X35.58575 Y45.47681
X35.91133 Y45.10681
X36.14798 Y44.73681
X36.56355 Y43.93681
X36.80020 Y43.56681
X37.12578 Y43.19681
X38.12575 Y42.19684
X38.53992 Y41.81185
X39.01244 Y41.42684
X39.72036 Y40.88361
X41.36331 Y41.03230
X41.96940 Y41.50207
X42.54588 Y42.02313
X43.27623 Y42.73400
G04 P0 ( dwell for no time -- G64 should not smooth over this point )
G00 Z2.00000 ( retract )

G00 X45.02599 Y33.37834 ( rapid move to begin. )
F15.00000
G01 Z-0.13500
G04 P0 ( dwell for no time -- G64 should not smooth over this point )
F30.00000
X45.02599 Y33.37834
X45.27440 Y33.93884
X44.88695 Y34.44377
X44.39310 Y34.54356
X43.95434 Y34.56350
X43.05376 Y34.52342
X42.75056 Y34.52934
X42.46857 Y34.83477
X41.85455 Y35.63498
X41.65312 Y35.93871
X41.48744 Y36.27823
X41.35757 Y36.65352
X41.26346 Y37.06459
X41.20514 Y37.51145
X41.18259 Y37.99408
X41.19582 Y38.51249
X41.31579 Y39.78147
X41.35076 Y40.38747
X41.36331 Y41.03230
X39.72036 Y40.88361
X38.75001 Y40.21150
X38.35448 Y39.95668
X37.95895 Y39.73586
X37.56342 Y39.54901
X37.16789 Y39.39613
X36.77236 Y39.27723
X36.37683 Y39.19230
X35.98130 Y39.14134
X35.58575 Y39.12435
X34.26586 Y39.13545
X33.75177 Y39.43347
X33.29370 Y39.78754
X32.89170 Y40.19765
X32.54575 Y40.66382
X31.92586 Y40.55795
X31.37923 Y40.52534
X30.90588 Y40.56600
X30.69666 Y40.61381
X30.50575 Y40.67992
X29.50575 Y41.09415
X29.39676 Y41.15147
X29.30496 Y41.22605
X29.23039 Y41.31784
X29.17306 Y41.42684
X28.28830 Y43.56285
X27.96575 Y43.67098
X27.15633 Y44.00626
X26.96578 Y44.19683
X26.82252 Y44.36681
X26.73281 Y44.53681
X26.60657 Y44.96754
X26.45928 Y45.30506
X26.33271 Y45.51321
X26.02577 Y45.87679
X24.92575 Y46.97684
X23.66009 Y45.69604
X23.47526 Y45.44799
X23.36009 Y45.23981
X23.22774 Y44.92177
X23.11874 Y44.53681
X23.02901 Y44.36681
X22.88577 Y44.19678
X21.88578 Y43.19681
X21.88578 Y41.42684
X21.87117 Y41.12684
X21.82733 Y40.82681
X21.73576 Y40.37759
X21.51933 Y39.66062
X20.77404 Y37.39481
X21.55832 Y37.09042
X22.33823 Y36.70340
X22.79822 Y36.07714
X23.23424 Y35.35898
X23.61100 Y34.54148
X23.75595 Y34.11862
X23.89586 Y33.55685
X23.97378 Y33.01588
X23.99609 Y32.48266
X23.94201 Y31.77476
X23.83429 Y31.22538
X23.69776 Y30.76099
X23.69776 Y30.49556
X23.94384 Y29.76460
X24.44434 Y28.47776
X24.61021 Y27.96936
X24.83954 Y26.93908
X25.96509 Y26.48590
X26.35422 Y26.36522
X26.74335 Y26.27647
X27.04861 Y26.22593
X27.41909 Y26.19143
X28.42074 Y26.18155
X29.00827 Y26.02115
X29.59696 Y25.92181
X30.07270 Y25.88503
X30.58175 Y25.89278
X31.04519 Y26.50307
X31.23366 Y26.78798
X31.52833 Y27.34815
X31.52741 Y29.98756
X28.88607 Y29.99277
X28.35983 Y30.26496
X28.15473 Y30.57207
X27.86842 Y31.11121
X27.82183 Y31.15777
X27.01810 Y33.09815
X26.93276 Y33.35012
X26.89052 Y33.55812
X26.87276 Y33.79980
X26.87276 Y38.23080
X26.84475 Y38.53464
X26.78536 Y38.77236
X26.26845 Y40.04068
X25.95887 Y40.35026
X25.67939 Y40.41122
X25.42575 Y40.49801
X24.51671 Y40.87454
X24.34041 Y41.02110
X24.21691 Y41.22397
X24.18605 Y41.32541
X24.17576 Y41.42684
X24.17576 Y43.93681
X24.18648 Y44.04039
X24.21867 Y44.14395
X24.32222 Y44.17611
X24.42575 Y44.18682
X25.42575 Y44.18682
X25.52933 Y44.17611
X25.63289 Y44.14395
X25.66504 Y44.04039
X25.67576 Y43.93681
X25.69009 Y43.43422
X25.72326 Y43.29394
X25.80967 Y43.06971
X26.09659 Y42.93351
X26.25544 Y42.81180
X28.15620 Y40.90116
X28.30555 Y40.64182
X30.63877 Y35.00894
X30.93951 Y34.70821
X31.52505 Y34.37559
X32.34918 Y34.27582
X32.95639 Y34.44595
X34.57808 Y35.10201
X35.01044 Y35.21836
X35.29352 Y35.25578
X35.49726 Y35.26459
X38.20855 Y35.26459
X39.05686 Y34.90968
X39.27396 Y34.78979
X39.45811 Y34.65410
X41.07982 Y33.04209
X41.13618 Y32.98169
X41.05102 Y32.48431
X41.07228 Y32.25037
X41.10144 Y32.14159
X41.64865 Y31.42843
X41.72658 Y31.34743
X41.82236 Y31.28431
X41.93600 Y31.23905
X42.15686 Y31.19986
X43.47275 Y31.55246
X44.37108 Y32.24176
X44.49670 Y32.35157
X44.60717 Y32.47656
X44.70244 Y32.61674
X44.78253 Y32.77209
X45.02599 Y33.37834
G04 P0 ( dwell for no time -- G64 should not smooth over this point )
G00 Z2.00000 ( retract )

G00 X48.34587 Y31.97722 ( rapid move to begin. )
F15.00000
G01 Z-0.13500
G04 P0 ( dwell for no time -- G64 should not smooth over this point )
F30.00000
X48.34587 Y31.97722
X48.39571 Y32.08289
X48.42321 Y32.18855
X48.42840 Y32.29421
X48.33177 Y32.69653
X47.89990 Y33.25934
X47.82179 Y33.34049
X47.72583 Y33.40376
X47.61196 Y33.44913
X47.48019 Y33.47658
X45.91042 Y33.68326
X45.27440 Y33.93884
X45.02599 Y33.37834
X44.82736 Y32.87280
X44.70244 Y32.61674
X44.60717 Y32.47656
X44.49670 Y32.35157
X44.37108 Y32.24176
X43.47275 Y31.55246
X42.15686 Y31.19986
X41.93600 Y31.23905
X41.82236 Y31.28431
X41.72658 Y31.34743
X41.64865 Y31.42843
X41.10144 Y32.14159
X41.07228 Y32.25037
X41.05102 Y32.48431
X41.13354 Y32.98471
X39.45811 Y34.65410
X39.27396 Y34.78979
X39.05686 Y34.90968
X38.20855 Y35.26459
X35.49726 Y35.26459
X35.29352 Y35.25578
X35.01044 Y35.21836
X34.57808 Y35.10201
X32.95639 Y34.44595
X32.34918 Y34.27582
X31.52505 Y34.37559
X31.53211 Y29.99206
X34.06741 Y29.98756
X34.07059 Y31.53707
X34.18578 Y31.73006
X34.33340 Y31.93008
X34.62284 Y32.22698
X34.81735 Y32.37824
X35.12093 Y32.56112
X35.55118 Y32.74120
X35.86926 Y33.05929
X36.52563 Y33.32998
X36.82166 Y33.40183
X38.64777 Y33.40856
X38.73540 Y33.40412
X38.81859 Y33.35753
X39.00134 Y33.21339
X39.83334 Y32.38139
X39.94053 Y32.25396
X39.95897 Y32.22635
X39.97444 Y32.12584
X39.99963 Y31.68520
X40.05597 Y31.60913
X41.53644 Y30.12183
X41.69526 Y30.00014
X41.82419 Y29.93097
X43.20537 Y29.35726
X44.00333 Y29.35973
X44.42447 Y29.41586
X44.68842 Y29.57723
X45.40450 Y30.12335
X46.49434 Y30.16409
X46.93310 Y30.14416
X47.48994 Y30.02749
X47.63581 Y30.60631
X47.78905 Y30.99396
X48.34587 Y31.97722
G04 P0 ( dwell for no time -- G64 should not smooth over this point )
G00 Z2.00000 ( retract )

G00 X47.55657 Y28.32432 ( rapid move to begin. )
F15.00000
G01 Z-0.13500
G04 P0 ( dwell for no time -- G64 should not smooth over this point )
F30.00000
X47.55657 Y28.32432
X47.75867 Y28.71426
X47.97186 Y29.38851
X47.48994 Y30.02749
X46.93310 Y30.14416
X46.49434 Y30.16409
X45.40450 Y30.12335
X44.68842 Y29.57723
X44.42447 Y29.41586
X44.22043 Y29.37875
X43.90961 Y29.35726
X43.20537 Y29.35726
X41.76242 Y29.96145
X41.63992 Y30.03709
X41.51248 Y30.14428
X40.08592 Y31.57359
X39.99963 Y31.68520
X39.97444 Y32.12584
X39.95897 Y32.22635
X39.94053 Y32.25396
X39.83334 Y32.38139
X39.00134 Y33.21339
X38.87393 Y33.32058
X38.73540 Y33.40412
X36.87711 Y33.40658
X36.70261 Y33.38255
X36.48521 Y33.31443
X35.86926 Y33.05929
X35.55118 Y32.74120
X35.12093 Y32.56112
X34.81735 Y32.37824
X34.62284 Y32.22698
X34.44730 Y32.05942
X34.28715 Y31.87186
X34.07059 Y31.53707
X34.07211 Y29.99206
X36.36695 Y29.99168
X36.60746 Y30.23240
X36.61059 Y31.53707
X36.82715 Y31.87186
X36.98730 Y32.05942
X37.19151 Y32.25215
X37.45745 Y32.31870
X37.68239 Y32.35045
X37.97856 Y32.35749
X38.18902 Y32.33755
X38.41643 Y32.29236
X38.64254 Y32.10351
X38.91462 Y31.79376
X39.00515 Y31.23796
X39.06446 Y31.02094
X39.29638 Y30.90753
X39.45521 Y30.78581
X40.12811 Y30.11444
X40.27225 Y29.93166
X40.36034 Y29.76084
X41.50751 Y26.99130
X41.63052 Y26.72593
X41.93671 Y26.20855
X42.13519 Y25.93301
X42.54918 Y25.44876
X42.69356 Y25.11137
X43.06930 Y25.13809
X43.42533 Y25.18455
X43.76160 Y25.25077
X44.07816 Y25.33670
X44.37496 Y25.44236
X44.65205 Y25.56779
X44.90938 Y25.71292
X45.14700 Y25.87779
X46.88537 Y27.21173
X47.07153 Y27.56443
X47.55657 Y28.32432
G04 P0 ( dwell for no time -- G64 should not smooth over this point )
G00 Z2.00000 ( retract )

G00 X50.95930 Y27.76705 ( rapid move to begin. )
F15.00000
G01 Z-0.13500
G04 P0 ( dwell for no time -- G64 should not smooth over this point )
F30.00000
X50.95930 Y27.76705
X50.96890 Y27.88376
X50.95125 Y28.00047
X50.84942 Y28.38051
X50.46875 Y28.87659
X50.38046 Y28.96836
X50.27193 Y29.03989
X50.14315 Y29.09120
X49.99415 Y29.12226
X47.97186 Y29.38851
X47.75867 Y28.71426
X47.55657 Y28.32432
X47.07153 Y27.56443
X46.88537 Y27.21173
X45.14700 Y25.87779
X44.90938 Y25.71292
X44.65205 Y25.56779
X44.37496 Y25.44236
X44.07816 Y25.33670
X43.76160 Y25.25077
X43.42533 Y25.18455
X43.06930 Y25.13809
X42.69356 Y25.11137
X42.60567 Y24.89921
X42.55193 Y24.46271
X42.40476 Y23.72281
X42.21883 Y23.12916
X42.05582 Y22.74425
X41.68622 Y22.43393
X41.50852 Y22.30480
X41.13418 Y22.07402
X40.80273 Y21.91631
X40.50090 Y21.81077
X40.21894 Y21.74496
X39.94937 Y21.71169
X39.69837 Y21.70716
X39.44485 Y21.83797
X39.19308 Y22.01024
X38.89705 Y22.29114
X38.71815 Y22.52497
X38.50540 Y22.91760
X38.40167 Y23.19522
X38.31424 Y23.52954
X38.25283 Y23.92022
X37.93113 Y23.97704
X37.56614 Y24.07523
X37.26875 Y24.19106
X36.95461 Y24.36030
X36.61856 Y24.61793
X36.41224 Y24.83548
X36.16827 Y25.19088
X36.05034 Y25.42799
X36.06970 Y25.80886
X36.16860 Y26.27289
X36.34490 Y26.72638
X36.53111 Y27.07142
X36.43591 Y27.26705
X36.36731 Y27.46268
X36.57604 Y28.31083
X36.60459 Y28.56956
X36.60678 Y28.82694
X36.55146 Y29.26021
X36.44186 Y29.64875
X36.36695 Y29.99168
X34.06741 Y29.98756
X34.06975 Y26.78549
X34.80340 Y25.03004
X34.87905 Y24.90751
X34.98621 Y24.78008
X36.56776 Y23.18890
X36.71445 Y22.94488
X37.11122 Y21.98844
X38.80761 Y20.29645
X39.01175 Y20.13457
X39.45399 Y19.83557
X39.73189 Y19.62083
X40.10870 Y19.26259
X40.40446 Y19.38439
X40.70024 Y19.47135
X40.99600 Y19.52355
X41.29176 Y19.54095
X42.75838 Y19.54095
X43.19127 Y19.57047
X43.35812 Y19.81352
X43.50750 Y20.08111
X43.83503 Y20.84859
X43.98446 Y21.10813
X44.16724 Y21.32787
X46.05235 Y23.21295
X46.10767 Y23.55047
X46.15647 Y23.67300
X46.22451 Y23.77625
X46.31184 Y23.86025
X48.32034 Y25.40142
X48.49685 Y25.51478
X48.69835 Y25.60314
X48.92486 Y25.66652
X49.17635 Y25.70490
X49.35451 Y26.13502
X49.61557 Y26.58163
X49.74191 Y26.75450
X49.92080 Y26.93380
X50.84635 Y27.64624
X50.95930 Y27.76705
G04 P0 ( dwell for no time -- G64 should not smooth over this point )
G00 Z2.00000 ( retract )

G00 X49.47231 Y23.40615 ( rapid move to begin. )
F15.00000
G01 Z-0.13500
G04 P0 ( dwell for no time -- G64 should not smooth over this point )
F30.00000
X49.47231 Y23.40615
X49.57688 Y23.62784
X49.63459 Y23.84953
X49.64546 Y24.07119
X49.60950 Y24.29288
X49.34155 Y25.29288
X49.27264 Y25.49888
X49.17635 Y25.70490
X48.92486 Y25.66652
X48.69835 Y25.60314
X48.49685 Y25.51478
X48.32034 Y25.40142
X46.31184 Y23.86025
X46.22451 Y23.77625
X46.15647 Y23.67300
X46.10767 Y23.55047
X46.05235 Y23.21295
X44.16724 Y21.32787
X43.98446 Y21.10813
X43.83503 Y20.84859
X43.50750 Y20.08111
X43.35812 Y19.81352
X43.19127 Y19.57047
X43.37695 Y19.35121
X43.52802 Y19.13193
X43.64453 Y18.91266
X43.72642 Y18.69340
X43.67590 Y18.46104
X43.51093 Y17.87938
X43.47265 Y17.61078
X43.46280 Y17.34499
X43.51093 Y16.88825
X43.67590 Y16.30659
X43.76303 Y15.79163
X44.31956 Y15.89689
X44.63770 Y15.99750
X44.90562 Y16.11337
X45.13676 Y16.24291
X45.34019 Y16.38637
X45.65179 Y16.68203
X45.80277 Y16.87410
X45.97598 Y17.15843
X46.10097 Y17.43318
X46.17054 Y17.62968
X46.29868 Y18.17987
X46.32964 Y18.41499
X46.35936 Y18.97263
X46.70236 Y19.80072
X46.70257 Y19.94697
X46.81562 Y20.18860
X47.06462 Y20.61215
X47.30196 Y20.92182
X47.47455 Y21.10922
X48.14333 Y21.77801
X48.84170 Y22.31392
X49.47231 Y23.40615
G04 P0 ( dwell for no time -- G64 should not smooth over this point )
G00 Z2.00000 ( retract )

G00 X35.08575 Y47.74478 ( rapid move to begin. )
F15.00000
G01 Z-0.13500
G04 P0 ( dwell for no time -- G64 should not smooth over this point )
F30.00000
X35.08575 Y47.74478
X30.00575 Y47.74478
X30.00575 Y45.97681
X30.50575 Y45.47681
X30.83133 Y45.10681
X31.06798 Y44.73681
X31.48355 Y43.93681
X31.72020 Y43.56681
X32.04575 Y43.19681
X32.54575 Y42.69681
X33.04575 Y43.19681
X33.37133 Y43.56681
X33.60798 Y43.93681
X34.02355 Y44.73681
X34.26020 Y45.10681
X34.58575 Y45.47681
X35.08575 Y45.97684
X35.08575 Y47.74478
G04 P0 ( dwell for no time -- G64 should not smooth over this point )
G00 Z2.00000 ( retract )

G00 X30.00575 Y47.74478 ( rapid move to begin. )
F15.00000
G01 Z-0.13500
G04 P0 ( dwell for no time -- G64 should not smooth over this point )
F30.00000
X30.00575 Y47.74478
X24.92575 Y47.74478
X24.92575 Y46.97684
X26.02577 Y45.87679
X26.33271 Y45.51321
X26.45928 Y45.30506
X26.60657 Y44.96754
X26.73281 Y44.53681
X26.82252 Y44.36681
X26.96578 Y44.19683
X27.15633 Y44.00626
X27.96575 Y43.67098
X28.28830 Y43.56285
X28.52798 Y43.93681
X28.94355 Y44.73681
X29.18020 Y45.10681
X29.50575 Y45.47681
X30.00575 Y45.97681
X30.00575 Y47.74478
G04 P0 ( dwell for no time -- G64 should not smooth over this point )
G00 Z2.00000 ( retract )

G00 X24.92575 Y47.74478 ( rapid move to begin. )
F15.00000
G01 Z-0.13500
G04 P0 ( dwell for no time -- G64 should not smooth over this point )
F30.00000
X24.92575 Y47.74478
X17.81014 Y47.74478
X18.45909 Y47.24679
X18.93160 Y46.86180
X19.34578 Y46.47684
X20.34575 Y45.47681
X20.67133 Y45.10681
X20.90798 Y44.73681
X21.32355 Y43.93681
X21.56020 Y43.56681
X21.88578 Y43.19681
X22.88577 Y44.19678
X23.02901 Y44.36681
X23.11874 Y44.53681
X23.22774 Y44.92177
X23.36009 Y45.23981
X23.47526 Y45.44799
X23.66009 Y45.69604
X24.92575 Y46.97684
X24.92575 Y47.74478
G04 P0 ( dwell for no time -- G64 should not smooth over this point )
G00 Z2.00000 ( retract )

G00 X17.81014 Y47.74478 ( rapid move to begin. )
F15.00000
G01 Z-0.13500
G04 P0 ( dwell for no time -- G64 should not smooth over this point )
F30.00000
X17.81014 Y47.74478
X13.25628 Y47.74478
X11.98168 Y45.51408
X13.28645 Y43.93681
X13.64426 Y43.48731
X13.97401 Y43.03781
X14.27563 Y42.58830
X15.22745 Y40.99064
X15.51002 Y40.58102
X15.80794 Y40.19801
X16.12122 Y39.84160
X17.87687 Y37.96482
X18.33359 Y37.67929
X18.81715 Y37.42067
X19.73455 Y37.35951
X20.10097 Y37.31991
X20.77404 Y37.39481
X21.51933 Y39.66062
X21.73576 Y40.37759
X21.82733 Y40.82681
X21.87117 Y41.12684
X21.88578 Y41.42684
X21.88578 Y43.19681
X21.56020 Y43.56681
X21.32355 Y43.93681
X20.90798 Y44.73681
X20.67133 Y45.10681
X20.34575 Y45.47681
X19.34578 Y46.47684
X18.93160 Y46.86180
X18.45909 Y47.24679
X17.81014 Y47.74478
G04 P0 ( dwell for no time -- G64 should not smooth over this point )
G00 Z2.00000 ( retract )

G00 X11.98168 Y45.51408 ( rapid move to begin. )
F15.00000
G01 Z-0.13500
G04 P0 ( dwell for no time -- G64 should not smooth over this point )
F30.00000
X11.98168 Y45.51408
X9.60343 Y41.35185
X9.72774 Y40.40776
X9.82489 Y39.80604
X9.95121 Y39.25483
X10.31725 Y37.88882
X10.47490 Y37.42189
X10.67699 Y37.03192
X11.16202 Y36.27203
X11.34818 Y35.91935
X13.19230 Y34.50795
X13.98236 Y33.71788
X14.09974 Y33.37979
X14.80388 Y31.67981
X14.91348 Y31.47146
X15.05597 Y31.29602
X15.23141 Y31.15353
X15.43979 Y31.04393
X16.45162 Y30.62483
X17.47329 Y30.62480
X17.67293 Y30.94626
X17.80080 Y31.26772
X17.72767 Y31.60087
X17.64116 Y31.89025
X17.58726 Y32.16140
X17.56275 Y32.42269
X17.56493 Y32.68007
X17.61027 Y33.03216
X17.77110 Y33.63097
X17.81093 Y33.84864
X17.87240 Y34.43183
X17.88977 Y34.77351
X18.36719 Y36.22438
X18.81715 Y37.42067
X18.33359 Y37.67929
X17.87687 Y37.96482
X16.12122 Y39.84160
X15.80794 Y40.19801
X15.51002 Y40.58102
X15.22745 Y40.99064
X14.27563 Y42.58830
X13.97401 Y43.03781
X13.64426 Y43.48731
X13.28645 Y43.93681
X11.98168 Y45.51408
G04 P0 ( dwell for no time -- G64 should not smooth over this point )
G00 Z2.00000 ( retract )

G00 X9.60343 Y41.35183 ( rapid move to begin. )
F15.00000
G01 Z-0.13500
G04 P0 ( dwell for no time -- G64 should not smooth over this point )
F30.00000
X9.60343 Y41.35183
X6.02040 Y35.08110
X7.59421 Y34.17244
X8.55423 Y34.41941
X8.97168 Y34.41953
X9.33734 Y34.36785
X9.65118 Y34.26437
X9.91321 Y34.10907
X11.92174 Y32.56790
X12.00904 Y32.48388
X12.07708 Y32.38063
X12.12590 Y32.25812
X12.15547 Y32.11636
X12.31998 Y30.86668
X12.34607 Y30.54926
X12.35036 Y30.18990
X13.78719 Y28.75307
X14.15305 Y27.86981
X14.31081 Y27.55130
X14.50507 Y27.26931
X14.73583 Y27.02379
X15.00311 Y26.81480
X17.47329 Y26.81480
X17.67293 Y27.13626
X17.80080 Y27.45772
X17.72767 Y27.79087
X17.61807 Y28.17941
X17.56275 Y28.61269
X17.56493 Y28.87007
X17.59348 Y29.12879
X17.80222 Y29.97695
X17.67418 Y30.30087
X17.47329 Y30.62480
X16.45162 Y30.62483
X15.43979 Y31.04393
X15.23141 Y31.15353
X15.05597 Y31.29602
X14.91348 Y31.47146
X14.80388 Y31.67981
X14.09974 Y33.37979
X13.98236 Y33.71788
X13.19230 Y34.50795
X11.34818 Y35.91935
X11.16202 Y36.27203
X10.67699 Y37.03192
X10.47490 Y37.42189
X10.31725 Y37.88882
X9.95121 Y39.25483
X9.82489 Y39.80604
X9.72774 Y40.40776
X9.60343 Y41.35183

G04 P0 ( dwell for no time -- G64 should not smooth over this point )
G00 Z10.000 ( retract )

M5 ( Spindle off. )
M9 ( Coolant off. )
M2 ( Program end. )

