( pcb2gcode 1.3.2 )
( Software-independent Gcode )

G94 ( Millimeters per minute feed rate. )
G21 ( Units == Millimeters. )

G90 ( Absolute coordinates. )
S15000 ( RPM spindle speed. )
G64 P0.01000 ( set maximum deviation from commanded toolpath )
F20.00000 ( Feedrate. )

F20.00000 ( Feedrate. )
M3 ( Spindle on clockwise. )
G04 P0 ( dwell for no time -- G64 should not smooth over this point )
G00 Z2.00000 ( retract )

G00 X40.64413 Y48.14478 ( rapid move to begin. )
G01 Z-2.50000 F10.00000 ( plunge. )
G04 P0 ( dwell for no time -- G64 should not smooth over this point )
F20.00000
X40.64413 Y48.14478
X13.74853 Y48.14478
X13.58521 Y48.10993
X13.51257 Y48.06777
X13.40124 Y47.94323
X0.20792 Y24.85331
X0.16888 Y24.75852
X0.15524 Y24.65692
X0.16784 Y24.55516
X0.20591 Y24.45999
X6.61300 Y12.97561
Z-0.60000
X7.24637 Y11.84033
Z-2.50000 F10.00000
F20.00000X13.65346 Y0.35595
X13.76481 Y0.22931
X13.83794 Y0.18638
X14.00276 Y0.15082
X39.11965 Y0.15082
X39.22270 Y0.16433
X39.31879 Y0.20391
X39.40144 Y0.26692
X39.46504 Y0.34907
X46.62275 Y12.60212
Z-0.60000
X47.27847 Y13.72463
Z-2.50000 F10.00000
F20.00000X54.43618 Y25.97769
X54.48904 Y26.14183
X54.46788 Y26.31295
X54.43024 Y26.39110
X40.98358 Y47.95644
X40.91970 Y48.03475
X40.83824 Y48.09454
X40.74441 Y48.13203
X40.64413 Y48.14478

G04 P0 ( dwell for no time -- G64 should not smooth over this point )
G00 Z10.000 ( retract )

M5 ( Spindle off. )
M9 ( Coolant off. )
M2 ( Program end. )

