( pcb2gcode 1.3.2 )
( Software-independent Gcode )

G94 ( Millimeters per minute feed rate. )
G21 ( Units == Millimeters. )

G90 ( Absolute coordinates. )
S15000 ( RPM spindle speed. )
G64 P0.01000 ( set maximum deviation from commanded toolpath )
F20.00000 ( Feedrate. )

F20.00000 ( Feedrate. )
M3 ( Spindle on clockwise. )
G04 P0 ( dwell for no time -- G64 should not smooth over this point )
G00 Z2.00000 ( retract )

G00 X5.99133 Y34.35335 ( rapid move to begin. )
F10.00000
G01 Z-0.13500
G04 P0 ( dwell for no time -- G64 should not smooth over this point )
F20.00000
X5.99133 Y34.35335
X4.30946 Y31.41017
X4.46750 Y31.19364
X4.63593 Y30.92554
X5.87967 Y28.77134
X6.03161 Y28.55323
X6.21921 Y28.34696
X6.30522 Y28.21775
X6.53618 Y28.12484
X6.70504 Y27.99720
X8.11492 Y26.58732
X8.21088 Y26.46929
X8.22647 Y26.31788
X8.22393 Y24.79865
X8.16160 Y24.54397
X8.09066 Y24.40335
X8.00374 Y24.27564
X7.99262 Y24.14679
X8.15934 Y23.86896
X8.20016 Y23.74905
X8.22574 Y23.57740
X8.22650 Y15.97736
X8.26927 Y15.74881
X8.40067 Y15.55689
X10.55357 Y13.40399
X10.74549 Y13.27259
X10.98136 Y13.21915
X11.12187 Y13.16921
X11.16416 Y13.01643
X11.20033 Y12.78415
X11.25779 Y12.70010
X11.34580 Y12.64379
X11.47265 Y12.62360
X13.09764 Y12.62360
X13.23619 Y12.64770
X13.32024 Y12.70516
X13.37653 Y12.79317
X13.38648 Y12.88382
X13.38648 Y14.58379
X13.37262 Y14.68351
X13.31519 Y14.76759
X13.22052 Y14.82717
X12.96314 Y14.91483
X12.75242 Y15.04762
X12.32913 Y15.00490
X11.94265 Y15.02786
X11.67943 Y15.07721
X11.27534 Y15.19405
X10.94534 Y15.25687
X10.79416 Y15.44493
X10.59487 Y15.73914
X10.41418 Y16.07391
X10.31435 Y16.30098
X10.10580 Y16.50954
X9.31629 Y18.41561
X9.25779 Y18.59872
X9.23049 Y18.82981
X9.23049 Y26.68448
X9.20321 Y26.91557
X9.14471 Y27.09873
X8.95159 Y27.56492
X7.26646 Y28.86177
X7.15350 Y28.98259
X7.14390 Y29.09931
X7.16155 Y29.21599
X7.35000 Y29.91929
X7.20931 Y30.16804
X7.15007 Y30.41604
X7.14972 Y31.24279
X7.17883 Y31.40659
X7.23989 Y31.56379
X7.27878 Y31.63654
X7.34537 Y31.63385
X7.59843 Y31.58221
X7.80717 Y31.47576
X7.93912 Y31.42737
X8.04057 Y31.43509
X8.13333 Y31.48315
X8.21423 Y31.58289
X8.67679 Y32.38409
X8.72518 Y32.51609
X8.71748 Y32.61749
X8.66937 Y32.71030
X8.56976 Y32.79112
X6.55142 Y33.95640
X5.99133 Y34.35335
G04 P0 ( dwell for no time -- G64 should not smooth over this point )
G00 Z2.00000 ( retract )

G00 X4.30949 Y31.41017 ( rapid move to begin. )
F10.00000
G01 Z-0.13500
G04 P0 ( dwell for no time -- G64 should not smooth over this point )
F20.00000
X4.30949 Y31.41017
X2.63906 Y28.48694
X3.25374 Y28.23781
X5.26707 Y27.07637
X5.39912 Y27.02794
X5.50057 Y27.03566
X5.59333 Y27.08374
X5.67423 Y27.18346
X6.10027 Y27.92143
X6.30522 Y28.21775
X6.21921 Y28.34696
X6.03161 Y28.55323
X5.91858 Y28.70868
X4.63593 Y30.92554
X4.46750 Y31.19364
X4.30949 Y31.41017
G04 P0 ( dwell for no time -- G64 should not smooth over this point )
G00 Z2.00000 ( retract )

G00 X7.65749 Y24.51905 ( rapid move to begin. )
F10.00000
G01 Z-0.13500
G04 P0 ( dwell for no time -- G64 should not smooth over this point )
F20.00000
X7.65749 Y24.51905
X5.51736 Y25.75458
X5.38533 Y25.80300
X5.28386 Y25.79530
X5.19112 Y25.74724
X5.13118 Y25.67706
X4.64764 Y24.84631
X4.59925 Y24.71430
X4.60697 Y24.61288
X4.65506 Y24.52009
X4.75473 Y24.43924
X6.86361 Y23.22167
X6.99569 Y23.17323
X7.09711 Y23.18095
X7.18988 Y23.22904
X7.27080 Y23.32881
X7.51014 Y23.74341
X7.59254 Y23.85959
X7.73143 Y23.99020
X7.99262 Y24.14679
X8.00374 Y24.27564
X7.65749 Y24.51905
G04 P0 ( dwell for no time -- G64 should not smooth over this point )
G00 Z2.00000 ( retract )

G00 X13.41696 Y21.38256 ( rapid move to begin. )
F10.00000
G01 Z-0.13500
G04 P0 ( dwell for no time -- G64 should not smooth over this point )
F20.00000
X13.41696 Y21.38256
X13.53121 Y21.67842
X13.36848 Y21.92693
X13.09332 Y22.23943
X12.84798 Y22.44433
X12.56512 Y22.62177
X12.09924 Y22.62345
X11.91321 Y22.43300
X11.63886 Y22.24024
X11.46614 Y22.09757
X11.25405 Y21.76940
X11.19980 Y21.54636
X11.17326 Y21.35383
X11.21176 Y21.10217
X11.25525 Y20.93874
X11.39970 Y20.69976
X11.48834 Y20.58477
X11.58949 Y20.50296
X11.83942 Y20.34461
X11.98270 Y20.30280
X12.28651 Y20.25066
X12.53038 Y20.28911
X12.73436 Y20.34276
X13.08618 Y20.58330
X13.20736 Y20.74972
X13.31895 Y20.93829
X13.41696 Y21.38256
G04 P0 ( dwell for no time -- G64 should not smooth over this point )
G00 Z2.00000 ( retract )

G00 X13.38577 Y16.30413 ( rapid move to begin. )
F10.00000
G01 Z-0.13500
G04 P0 ( dwell for no time -- G64 should not smooth over this point )
F20.00000
X13.38577 Y16.30413
X13.36121 Y16.52547
X13.31773 Y16.68892
X13.17328 Y16.92791
X13.08463 Y17.04289
X12.79809 Y17.24802
X12.63861 Y17.31251
X12.28649 Y17.37700
X11.95756 Y17.34477
X11.91445 Y17.37388
X11.81755 Y17.45551
X10.34608 Y18.92699
X10.25009 Y19.04505
X10.23450 Y19.19643
X10.23450 Y27.84970
X10.20102 Y28.04706
X10.13440 Y28.23769
X10.18481 Y28.37127
X10.28936 Y28.56489
X10.32172 Y28.66139
X10.31402 Y28.76278
X10.26592 Y28.85559
X10.16625 Y28.93644
X8.05739 Y30.15399
X7.92531 Y30.20243
X7.82391 Y30.19471
X7.49775 Y29.98640
X7.35000 Y29.91929
X7.16155 Y29.21599
X7.14390 Y29.09931
X7.15350 Y28.98259
X7.26646 Y28.86177
X8.95159 Y27.56492
X9.16086 Y27.05580
X9.22515 Y26.78250
X9.23049 Y18.82981
X9.25779 Y18.59872
X9.31629 Y18.41561
X10.10580 Y16.50954
X10.31435 Y16.30098
X10.41418 Y16.07391
X10.59487 Y15.73914
X10.79416 Y15.44493
X10.94534 Y15.25687
X11.27534 Y15.19405
X11.67943 Y15.07721
X11.94265 Y15.02786
X12.32913 Y15.00490
X12.75242 Y15.04762
X12.89144 Y15.28252
X13.10683 Y15.53007
X13.31895 Y15.85829
X13.38118 Y16.12504
X13.38577 Y16.30413
G04 P0 ( dwell for no time -- G64 should not smooth over this point )
G00 Z2.00000 ( retract )

G00 X19.07819 Y24.58570 ( rapid move to begin. )
F10.00000
G01 Z-0.13500
G04 P0 ( dwell for no time -- G64 should not smooth over this point )
F20.00000
X19.07819 Y24.58570
X19.16224 Y24.64316
X19.22183 Y24.73782
X19.30949 Y24.99520
X19.44322 Y25.20711
X19.40146 Y25.56469
X19.41027 Y25.90881
X19.44898 Y26.17417
X19.64093 Y26.92895
X19.51289 Y27.25288
X19.31200 Y27.57681
X17.09867 Y27.57681
X16.90614 Y27.83705
X16.76776 Y28.09730
X16.68356 Y28.35755
X16.65356 Y28.61780
X16.48056 Y28.84762
X16.23438 Y29.30078
X15.79425 Y29.80159
X15.73012 Y29.95643
X13.00394 Y32.68259
X12.94861 Y33.02010
X12.89980 Y33.14263
X12.83175 Y33.24588
X12.74445 Y33.32988
X11.13803 Y34.56254
X10.96571 Y34.53648
X10.79934 Y34.53234
X10.62314 Y34.55711
X10.46528 Y34.60184
X10.36388 Y34.59411
X10.27112 Y34.54606
X10.19022 Y34.44634
X9.71164 Y33.60958
X9.67925 Y33.51314
X9.68697 Y33.41169
X9.73506 Y33.31891
X9.83473 Y33.23806
X11.66421 Y32.17588
X15.25371 Y28.59984
X15.27447 Y28.42214
X15.27447 Y26.70937
X15.31727 Y26.48082
X15.44866 Y26.28890
X16.42473 Y25.31806
X16.58749 Y25.21059
X16.82336 Y25.15715
X16.96387 Y25.10721
X17.00616 Y24.95443
X17.04233 Y24.72215
X17.09979 Y24.63810
X17.18780 Y24.58179
X17.31465 Y24.56160
X18.93964 Y24.56160
X19.07819 Y24.58570
G04 P0 ( dwell for no time -- G64 should not smooth over this point )
G00 Z2.00000 ( retract )

G00 X19.07819 Y32.20570 ( rapid move to begin. )
F10.00000
G01 Z-0.13500
G04 P0 ( dwell for no time -- G64 should not smooth over this point )
F20.00000
X19.07819 Y32.20570
X19.16224 Y32.26316
X19.22183 Y32.35782
X19.30949 Y32.61520
X19.44322 Y32.82711
X19.41456 Y33.01271
X19.39930 Y33.27011
X19.41027 Y33.52881
X19.44090 Y33.75584
X19.31030 Y33.96214
X19.21718 Y34.23676
X19.15719 Y34.32556
X19.06918 Y34.38187
X18.81901 Y34.42368
X18.69991 Y34.46325
X18.66209 Y34.57143
X18.63501 Y34.72401
X18.62452 Y35.61019
X18.58973 Y35.76886
X18.45833 Y35.96076
X16.40289 Y38.01623
X16.21096 Y38.14760
X15.98254 Y38.19035
X14.44836 Y38.20066
X13.13739 Y38.95280
X13.00531 Y39.00124
X12.90388 Y38.99352
X12.81107 Y38.94544
X12.73025 Y38.84579
X12.25164 Y38.00899
X12.21925 Y37.91255
X12.22697 Y37.81110
X12.27506 Y37.71831
X12.34519 Y37.65840
X14.48364 Y36.41989
X14.61567 Y36.37148
X14.71714 Y36.37920
X14.80988 Y36.42726
X14.86979 Y36.49741
X15.17523 Y37.01829
X15.27985 Y37.15136
X15.46969 Y37.18166
X15.80474 Y37.16678
X15.92280 Y37.07077
X17.51292 Y35.48068
X17.60888 Y35.36264
X17.62447 Y35.21123
X17.62204 Y34.72439
X17.59544 Y34.57290
X17.55719 Y34.46310
X17.44238 Y34.42457
X17.17883 Y34.37799
X17.09476 Y34.32053
X17.03845 Y34.23254
X17.02163 Y34.14182
X17.01825 Y32.48071
X17.04233 Y32.34215
X17.09979 Y32.25810
X17.18780 Y32.20179
X17.31465 Y32.18160
X18.93964 Y32.18160
X19.07819 Y32.20570
G04 P0 ( dwell for no time -- G64 should not smooth over this point )
G00 Z2.00000 ( retract )

G00 X21.26821 Y41.95272 ( rapid move to begin. )
F10.00000
G01 Z-0.13500
G04 P0 ( dwell for no time -- G64 should not smooth over this point )
F20.00000
X21.26821 Y41.95272
X21.35225 Y42.01015
X21.40852 Y42.09811
X21.42868 Y42.22486
X21.42868 Y44.66008
X21.40460 Y44.79856
X21.34717 Y44.88261
X21.25924 Y44.93887
X21.16846 Y44.95569
X20.20725 Y44.95904
X20.06877 Y44.93496
X19.98472 Y44.87756
X19.92846 Y44.78960
X19.90826 Y44.66270
X19.90826 Y42.22773
X19.93237 Y42.08910
X19.98977 Y42.00507
X20.07776 Y41.94881
X20.16849 Y41.93200
X21.12962 Y41.92862
X21.26821 Y41.95272
G04 P0 ( dwell for no time -- G64 should not smooth over this point )
G00 Z2.00000 ( retract )

G00 X21.42868 Y42.22486 ( rapid move to begin. )
F10.00000
G01 Z-0.13500
G04 P0 ( dwell for no time -- G64 should not smooth over this point )
F20.00000
X21.42868 Y42.22486
X21.40852 Y42.09811
X21.35225 Y42.01015
X21.26821 Y41.95272
X21.12962 Y41.92862
X20.16849 Y41.93200
X20.07776 Y41.94881
X19.98977 Y42.00507
X19.93237 Y42.08910
X19.90826 Y42.22773
X19.90826 Y44.66270
X19.92846 Y44.78960
X19.98472 Y44.87756
X20.06877 Y44.93496
X20.20725 Y44.95904
X21.16846 Y44.95569
X21.25924 Y44.93887
X21.34717 Y44.88261
X21.40460 Y44.79856
X21.42868 Y44.66008
X21.42868 Y42.22486
G04 P0 ( dwell for no time -- G64 should not smooth over this point )
G00 Z2.00000 ( retract )

G00 X25.74846 Y48.50679 ( rapid move to begin. )
F10.00000
G01 Z-0.13500
G04 P0 ( dwell for no time -- G64 should not smooth over this point )
F20.00000
X25.74846 Y48.50679
X22.34687 Y48.50679
X22.44745 Y47.85096
X22.44826 Y45.53773
X22.47237 Y45.39910
X22.52977 Y45.31507
X22.61773 Y45.25881
X22.74468 Y45.23859
X23.61346 Y45.23859
X23.90589 Y45.21883
X23.95575 Y45.33745
X24.06769 Y45.72958
X24.21499 Y46.06709
X24.34158 Y46.27527
X24.64846 Y46.63882
X25.74846 Y47.73884
X25.74846 Y48.50679
G04 P0 ( dwell for no time -- G64 should not smooth over this point )
G00 Z2.00000 ( retract )

G00 X30.82846 Y48.50679 ( rapid move to begin. )
F10.00000
G01 Z-0.13500
G04 P0 ( dwell for no time -- G64 should not smooth over this point )
F20.00000
X30.82846 Y48.50679
X25.74846 Y48.50679
X25.74846 Y47.73884
X26.84848 Y46.63879
X27.15542 Y46.27522
X27.28199 Y46.06707
X27.42928 Y45.72955
X27.55552 Y45.29882
X27.64523 Y45.12881
X27.78849 Y44.95884
X27.97904 Y44.76826
X28.78846 Y44.43298
X29.11101 Y44.32485
X29.35069 Y44.69882
X29.76626 Y45.49882
X30.00291 Y45.86882
X30.32846 Y46.23882
X30.82846 Y46.73882
X30.82846 Y48.50679
G04 P0 ( dwell for no time -- G64 should not smooth over this point )
G00 Z2.00000 ( retract )

G00 X35.90846 Y48.50679 ( rapid move to begin. )
F10.00000
G01 Z-0.13500
G04 P0 ( dwell for no time -- G64 should not smooth over this point )
F20.00000
X35.90846 Y48.50679
X30.82846 Y48.50679
X30.82846 Y46.73882
X31.32846 Y46.23882
X31.65404 Y45.86882
X31.89069 Y45.49882
X32.30626 Y44.69882
X32.54291 Y44.32882
X32.86846 Y43.95881
X33.36846 Y43.45882
X33.86846 Y43.95881
X34.19404 Y44.32882
X34.43069 Y44.69882
X34.84626 Y45.49882
X35.08291 Y45.86882
X35.40846 Y46.23882
X35.90846 Y46.73884
X35.90846 Y48.50679
G04 P0 ( dwell for no time -- G64 should not smooth over this point )
G00 Z2.00000 ( retract )

G00 X33.36846 Y41.42582 ( rapid move to begin. )
F10.00000
G01 Z-0.13500
G04 P0 ( dwell for no time -- G64 should not smooth over this point )
F20.00000
X33.36846 Y41.42582
X33.36846 Y43.45882
X32.86846 Y43.95881
X32.54291 Y44.32882
X32.30626 Y44.69882
X31.89069 Y45.49882
X31.65404 Y45.86882
X31.32846 Y46.23882
X30.82846 Y46.73882
X30.32846 Y46.23882
X30.00291 Y45.86882
X29.76626 Y45.49882
X29.35069 Y44.69882
X29.11101 Y44.32485
X29.99577 Y42.18884
X30.05310 Y42.07985
X30.12768 Y41.98805
X30.21947 Y41.91348
X30.32846 Y41.85615
X31.32846 Y41.44193
X31.51937 Y41.37581
X31.72859 Y41.32801
X32.20194 Y41.28734
X32.74857 Y41.31996
X33.36846 Y41.42582
G04 P0 ( dwell for no time -- G64 should not smooth over this point )
G00 Z2.00000 ( retract )

G00 X39.57272 Y40.97350 ( rapid move to begin. )
F10.00000
G01 Z-0.13500
G04 P0 ( dwell for no time -- G64 should not smooth over this point )
F20.00000
X39.57272 Y40.97350
X40.54307 Y41.64561
X39.83515 Y42.18884
X39.36263 Y42.57385
X38.94846 Y42.95884
X37.94849 Y43.95881
X37.62291 Y44.32882
X37.38626 Y44.69882
X36.97069 Y45.49882
X36.73404 Y45.86882
X36.40846 Y46.23882
X35.90846 Y46.73884
X35.40846 Y46.23882
X35.08291 Y45.86882
X34.84626 Y45.49882
X34.43069 Y44.69882
X34.19404 Y44.32882
X33.86846 Y43.95881
X33.36846 Y43.45882
X33.36846 Y41.42582
X33.71441 Y40.95966
X34.11642 Y40.54955
X34.57448 Y40.19547
X35.08857 Y39.89746
X36.40846 Y39.88636
X36.80401 Y39.90335
X37.19954 Y39.95430
X37.59507 Y40.03924
X37.99060 Y40.15814
X38.38613 Y40.31102
X38.78166 Y40.49786
X39.17719 Y40.71869
X39.57272 Y40.97350
G04 P0 ( dwell for no time -- G64 should not smooth over this point )
G00 Z2.00000 ( retract )

G00 X44.07855 Y43.47614 ( rapid move to begin. )
F10.00000
G01 Z-0.13500
G04 P0 ( dwell for no time -- G64 should not smooth over this point )
F20.00000
X44.07855 Y43.47614
X40.97454 Y48.50679
X35.90846 Y48.50679
X35.90846 Y46.73884
X36.40846 Y46.23882
X36.73404 Y45.86882
X36.97069 Y45.49882
X37.38626 Y44.69882
X37.62291 Y44.32882
X37.94849 Y43.95881
X38.94846 Y42.95884
X39.36263 Y42.57385
X39.83515 Y42.18884
X40.54307 Y41.64561
X42.18602 Y41.79430
X42.79212 Y42.26408
X43.36859 Y42.78513
X44.07855 Y43.47614
G04 P0 ( dwell for no time -- G64 should not smooth over this point )
G00 Z2.00000 ( retract )

G00 X45.84870 Y34.14034 ( rapid move to begin. )
F10.00000
G01 Z-0.13500
G04 P0 ( dwell for no time -- G64 should not smooth over this point )
F20.00000
X45.84870 Y34.14034
X45.91050 Y34.29968
X45.36224 Y35.01418
X45.08027 Y35.31959
X44.77707 Y35.32551
X43.87647 Y35.28543
X43.57327 Y35.29134
X43.29128 Y35.59678
X42.67726 Y36.39698
X42.47583 Y36.70071
X42.31015 Y37.04024
X42.18028 Y37.41552
X42.08617 Y37.82659
X42.02785 Y38.27346
X42.00530 Y38.75608
X42.01853 Y39.27450
X42.13850 Y40.54348
X42.17347 Y41.14947
X42.18602 Y41.79430
X40.54307 Y41.64561
X39.57272 Y40.97350
X39.17719 Y40.71869
X38.78166 Y40.49786
X38.38613 Y40.31102
X37.99060 Y40.15814
X37.59507 Y40.03924
X37.19954 Y39.95430
X36.80401 Y39.90335
X36.40846 Y39.88636
X35.08857 Y39.89746
X34.57448 Y40.19547
X34.11642 Y40.54955
X33.71441 Y40.95966
X33.36846 Y41.42582
X32.74857 Y41.31996
X32.20194 Y41.28734
X31.72859 Y41.32801
X31.51937 Y41.37581
X31.32846 Y41.44193
X30.32846 Y41.85615
X30.21947 Y41.91348
X30.12768 Y41.98805
X30.05310 Y42.07985
X29.99577 Y42.18884
X29.11101 Y44.32485
X28.78846 Y44.43298
X27.97904 Y44.76826
X27.78849 Y44.95884
X27.64523 Y45.12881
X27.55552 Y45.29882
X27.42928 Y45.72955
X27.28199 Y46.06707
X27.15542 Y46.27522
X26.84848 Y46.63879
X25.74846 Y47.73884
X24.54003 Y46.52330
X24.34158 Y46.27527
X24.21499 Y46.06709
X24.05045 Y45.68378
X23.95575 Y45.33745
X23.90589 Y45.21883
X23.96665 Y45.05635
X23.99370 Y44.87982
X23.99449 Y41.62636
X24.05735 Y41.20172
X24.09698 Y41.07866
X24.21293 Y40.91564
X26.23292 Y38.89568
X26.32890 Y38.77762
X26.34450 Y38.62624
X26.34450 Y31.21337
X26.36312 Y31.07896
X26.40274 Y30.95589
X26.51867 Y30.79290
X27.36080 Y29.95079
X27.47094 Y29.81175
X27.44302 Y29.45150
X27.47906 Y29.23192
X27.53230 Y29.03436
X27.65913 Y28.82986
X27.77307 Y28.68328
X28.02928 Y28.50393
X28.18579 Y28.43253
X28.54249 Y28.36713
X28.95818 Y28.44919
X29.15049 Y28.56354
X29.31221 Y28.68305
X29.58031 Y29.05717
X29.81465 Y29.29412
X29.81012 Y30.74957
X28.26385 Y30.75389
X27.98097 Y30.93133
X27.78773 Y31.08797
X27.61556 Y31.25940
X27.47211 Y31.43413
X27.41087 Y31.76146
X27.39624 Y31.99387
X27.40528 Y32.22744
X27.43936 Y32.46709
X27.50203 Y32.71848
X27.59984 Y32.98782
X27.69547 Y33.19460
X27.69547 Y38.99281
X27.66746 Y39.29664
X27.60807 Y39.53436
X27.55018 Y39.69451
X27.09116 Y40.80269
X26.78158 Y41.11226
X26.50210 Y41.17322
X26.24846 Y41.26001
X25.33942 Y41.63654
X25.16312 Y41.78310
X25.03962 Y41.98597
X25.00876 Y42.08742
X24.99848 Y42.18884
X24.99848 Y44.69882
X25.00919 Y44.80240
X25.04138 Y44.90596
X25.14493 Y44.93811
X25.24846 Y44.94883
X26.24846 Y44.94883
X26.35204 Y44.93811
X26.45560 Y44.90596
X26.48775 Y44.80240
X26.49847 Y44.69882
X26.51280 Y44.19623
X26.54597 Y44.05594
X26.63238 Y43.83171
X26.91930 Y43.69552
X27.07815 Y43.57380
X28.89603 Y41.75740
X29.00263 Y41.63141
X29.12826 Y41.40385
X31.04147 Y36.78497
X31.77657 Y36.77442
X32.35998 Y36.70496
X32.79655 Y36.59421
X33.34253 Y36.38840
X33.57405 Y36.32609
X33.85538 Y36.28453
X38.72890 Y36.27676
X39.11991 Y36.24062
X39.46845 Y35.95919
X41.65567 Y33.77194
X41.66387 Y33.53443
X41.70022 Y33.32503
X41.76471 Y33.14377
X41.85734 Y32.99066
X42.47136 Y32.19044
X42.54929 Y32.10946
X42.64507 Y32.04632
X42.75871 Y32.00105
X42.89021 Y31.97362
X42.97957 Y31.96186
X44.29547 Y32.31446
X45.19379 Y33.00377
X45.31942 Y33.11357
X45.42988 Y33.23857
X45.52516 Y33.37875
X45.60524 Y33.53410
X45.84870 Y34.14034
G04 P0 ( dwell for no time -- G64 should not smooth over this point )
G00 Z2.00000 ( retract )

G00 X49.18258 Y32.80766 ( rapid move to begin. )
F10.00000
G01 Z-0.13500
G04 P0 ( dwell for no time -- G64 should not smooth over this point )
F20.00000
X49.18258 Y32.80766
X49.23340 Y32.89188
X49.25189 Y33.02688
X49.23396 Y33.16188
X49.15482 Y33.45729
X48.72218 Y34.02109
X48.60137 Y34.13404
X48.48464 Y34.14364
X48.36792 Y34.12599
X47.58601 Y33.92327
X47.37052 Y33.89996
X47.18469 Y33.90041
X46.87047 Y33.93275
X46.30590 Y34.16658
X45.91050 Y34.29968
X45.60524 Y33.53410
X45.52516 Y33.37875
X45.42988 Y33.23857
X45.31942 Y33.11357
X45.19379 Y33.00377
X44.29547 Y32.31446
X42.97957 Y31.96186
X42.75871 Y32.00105
X42.64507 Y32.04632
X42.54929 Y32.10946
X42.47136 Y32.19044
X41.85734 Y32.99066
X41.76471 Y33.14377
X41.70022 Y33.32503
X41.66387 Y33.53443
X41.65567 Y33.77194
X39.46845 Y35.95919
X39.11991 Y36.24062
X38.72890 Y36.27676
X33.85538 Y36.28453
X33.57405 Y36.32609
X33.34253 Y36.38840
X32.79655 Y36.59421
X32.35998 Y36.70496
X31.77657 Y36.77442
X31.04147 Y36.78497
X30.03037 Y34.34395
X29.94871 Y34.12076
X29.87022 Y33.82914
X29.81203 Y33.34720
X29.81482 Y30.75407
X32.35012 Y30.74957
X32.35406 Y33.07527
X32.57265 Y33.29310
X32.71944 Y33.56259
X32.86717 Y33.76244
X33.39241 Y34.29721
X33.67049 Y34.38164
X33.88327 Y34.41413
X37.70917 Y34.42073
X38.05916 Y34.38164
X38.34549 Y34.29399
X42.03202 Y30.60779
X42.34284 Y30.50979
X42.55269 Y30.47769
X44.24238 Y30.47108
X44.73235 Y30.67403
X44.90313 Y30.76214
X45.06199 Y30.88386
X45.55607 Y31.37647
X45.68352 Y31.48363
X45.86793 Y31.58980
X46.27387 Y31.75958
X46.64514 Y31.55638
X46.75081 Y31.52887
X46.85647 Y31.52369
X47.67626 Y31.73009
X47.88697 Y31.76212
X48.22393 Y31.76130
X48.81057 Y31.68790
X48.86556 Y32.03496
X48.94232 Y32.32970
X49.07155 Y32.63361
X49.18258 Y32.80766
G04 P0 ( dwell for no time -- G64 should not smooth over this point )
G00 Z2.00000 ( retract )

G00 X48.21413 Y28.82758 ( rapid move to begin. )
F10.00000
G01 Z-0.13500
G04 P0 ( dwell for no time -- G64 should not smooth over this point )
F20.00000
X48.21413 Y28.82758
X48.10724 Y29.18554
X48.03005 Y29.34078
X47.31362 Y30.29247
X47.16241 Y30.36103
X47.01118 Y30.39841
X46.85998 Y30.40466
X46.70877 Y30.37972
X46.22924 Y30.25122
X44.93466 Y29.25956
X44.75244 Y29.15435
X44.32074 Y28.97805
X44.08350 Y28.78424
X43.84627 Y28.50360
X43.57525 Y28.07762
X42.15003 Y27.48724
X41.59613 Y26.15006
X41.56733 Y25.66391
X41.49837 Y25.22525
X41.44973 Y25.02258
X41.33967 Y24.68654
X41.17073 Y24.32873
X41.03256 Y24.11075
X40.87967 Y23.91727
X40.57396 Y23.62721
X40.36898 Y23.48187
X40.27924 Y23.42832
X40.12306 Y23.41192
X39.86609 Y23.40773
X39.69174 Y23.42190
X39.40142 Y23.60554
X39.16931 Y23.80343
X38.89715 Y24.12223
X38.69718 Y24.46134
X38.56914 Y24.49421
X38.40343 Y24.56401
X38.21897 Y24.70031
X35.04341 Y27.88049
X34.99208 Y27.94925
X34.97976 Y28.03401
X34.97648 Y28.59443
X34.93816 Y28.81051
X34.87336 Y28.92283
X34.69404 Y29.15196
X34.72416 Y29.48186
X34.67491 Y29.77985
X34.62482 Y29.94469
X34.50587 Y30.13377
X34.39190 Y30.28038
X34.05820 Y30.51701
X33.82231 Y30.75155
X32.35012 Y30.74957
X32.35056 Y29.39649
X32.57410 Y29.00187
X32.75398 Y28.77492
X33.04654 Y28.50383
X33.23895 Y28.36992
X33.51535 Y28.21993
X33.71995 Y28.13660
X33.93610 Y27.63042
X34.01177 Y27.50789
X34.11893 Y27.38046
X39.07244 Y22.42696
X39.19989 Y22.31977
X39.32240 Y22.24413
X39.73690 Y22.05855
X39.93505 Y21.93778
X40.17142 Y21.74832
X40.74071 Y21.19861
X41.29788 Y20.76359
X42.92092 Y21.42940
X43.12318 Y21.87880
X43.44749 Y22.43313
X43.76986 Y22.85375
X43.98899 Y23.09083
X45.30781 Y24.40965
X45.51969 Y24.83940
X45.77476 Y25.22593
X46.07303 Y25.56929
X46.41449 Y25.86944
X47.54280 Y26.73525
X47.58672 Y27.17792
X47.59007 Y27.65890
X47.72769 Y28.01772
X47.89426 Y28.32644
X48.21413 Y28.82758
G04 P0 ( dwell for no time -- G64 should not smooth over this point )
G00 Z2.00000 ( retract )

G00 X51.78201 Y28.52905 ( rapid move to begin. )
F10.00000
G01 Z-0.13500
G04 P0 ( dwell for no time -- G64 should not smooth over this point )
F20.00000
X51.78201 Y28.52905
X51.79161 Y28.64576
X51.77396 Y28.76248
X51.69482 Y29.05788
X51.26218 Y29.62168
X51.12568 Y29.74475
X50.62629 Y29.82775
X50.19987 Y29.96786
X50.10569 Y30.15071
X49.92957 Y30.56890
X48.81057 Y31.68790
X48.22393 Y31.76130
X47.88697 Y31.76212
X47.67626 Y31.73009
X46.85647 Y31.52369
X46.75081 Y31.52887
X46.64514 Y31.55638
X46.27387 Y31.75958
X45.86793 Y31.58980
X45.68352 Y31.48363
X45.55607 Y31.37647
X45.06199 Y30.88386
X44.90313 Y30.76214
X44.73235 Y30.67403
X44.24238 Y30.47108
X42.61792 Y30.47342
X42.34284 Y30.50979
X42.03202 Y30.60779
X38.34549 Y34.29399
X38.05916 Y34.38164
X37.70917 Y34.42073
X34.02040 Y34.42073
X33.67049 Y34.38164
X33.44626 Y34.31672
X33.36846 Y34.27385
X32.86717 Y33.76244
X32.71944 Y33.56259
X32.57265 Y33.29310
X32.35406 Y33.07527
X32.35482 Y30.75407
X33.82231 Y30.75155
X34.00791 Y30.94378
X34.39221 Y31.22305
X34.66031 Y31.59717
X34.89465 Y31.83412
X34.89117 Y32.75368
X35.26330 Y32.93720
X35.50800 Y33.02378
X35.74016 Y33.08071
X35.96510 Y33.11246
X36.29975 Y33.11703
X36.52766 Y33.09097
X36.76538 Y33.03854
X37.01872 Y32.95437
X37.30836 Y32.82183
X37.37780 Y32.82175
X37.49535 Y32.76564
X37.66530 Y32.66267
X37.85075 Y32.50799
X40.50766 Y29.84548
X40.63187 Y29.67873
X40.71175 Y29.53728
X41.00744 Y28.84904
X41.13624 Y28.61914
X41.25989 Y28.43731
X41.51150 Y28.13299
X42.15003 Y27.48724
X43.57525 Y28.07762
X43.84627 Y28.50360
X44.08350 Y28.78424
X44.32074 Y28.97805
X44.75244 Y29.15435
X44.88027 Y29.22323
X46.22924 Y30.25122
X46.70877 Y30.37972
X46.85998 Y30.40466
X47.01118 Y30.39841
X47.16241 Y30.36103
X47.31362 Y30.29247
X48.03005 Y29.34078
X48.10724 Y29.18554
X48.21413 Y28.82758
X47.89426 Y28.32644
X47.72769 Y28.01772
X47.59007 Y27.65890
X47.58672 Y27.17792
X47.54280 Y26.73525
X48.03447 Y26.60350
X48.51768 Y26.50655
X48.95647 Y26.48661
X49.96469 Y26.52893
X50.42017 Y27.31574
X50.63310 Y27.59321
X50.78489 Y27.72979
X51.66906 Y28.40825
X51.78201 Y28.52905
G04 P0 ( dwell for no time -- G64 should not smooth over this point )
G00 Z2.00000 ( retract )

G00 X53.27810 Y28.56659 ( rapid move to begin. )
F10.00000
G01 Z-0.13500
G04 P0 ( dwell for no time -- G64 should not smooth over this point )
F20.00000
X53.27810 Y28.56659
X44.07857 Y43.47616
X43.36859 Y42.78513
X42.79212 Y42.26408
X42.18602 Y41.79430
X42.17347 Y41.14947
X42.13850 Y40.54348
X42.01853 Y39.27450
X42.00530 Y38.75608
X42.02785 Y38.27346
X42.08617 Y37.82659
X42.18028 Y37.41552
X42.31015 Y37.04024
X42.47583 Y36.70071
X42.67726 Y36.39698
X43.29128 Y35.59678
X43.57327 Y35.29134
X43.87647 Y35.28543
X44.77707 Y35.32551
X45.08027 Y35.31959
X45.36224 Y35.01418
X45.91050 Y34.29968
X46.30590 Y34.16658
X46.87047 Y33.93275
X47.18469 Y33.90041
X47.37052 Y33.89996
X47.58601 Y33.92327
X48.36792 Y34.12599
X48.48464 Y34.14364
X48.60137 Y34.13404
X48.72218 Y34.02109
X49.15482 Y33.45729
X49.23396 Y33.16188
X49.25189 Y33.02688
X49.23340 Y32.89188
X49.07155 Y32.63361
X48.94232 Y32.32970
X48.86556 Y32.03496
X48.81057 Y31.68790
X49.92957 Y30.56890
X50.10569 Y30.15071
X50.19987 Y29.96786
X50.62629 Y29.82775
X51.12568 Y29.74475
X51.26218 Y29.62168
X51.69482 Y29.05788
X51.79161 Y28.64576
X51.78201 Y28.52905
X51.66906 Y28.40825
X50.75984 Y27.70977
X50.55733 Y27.50774
X50.42017 Y27.31574
X49.96469 Y26.52893
X50.08260 Y26.29190
X50.16426 Y26.05489
X50.43221 Y25.05489
X50.46817 Y24.83320
X50.45730 Y24.61153
X50.39959 Y24.38984
X50.29502 Y24.16815
X49.66442 Y23.07593
X48.96604 Y22.54001
X48.29726 Y21.87123
X47.96429 Y21.48319
X47.72812 Y21.11908
X47.52528 Y20.70898
X47.52508 Y20.56272
X47.18207 Y19.73463
X47.15236 Y19.17700
X47.08472 Y18.74192
X46.99325 Y18.39168
X46.92368 Y18.19519
X46.76183 Y17.85247
X46.62548 Y17.63611
X46.47451 Y17.44403
X46.16290 Y17.14838
X45.95947 Y17.00492
X45.64852 Y16.83741
X45.34756 Y16.71970
X44.97799 Y16.61973
X44.58574 Y16.55364
X44.43659 Y16.42118
X44.27286 Y16.30327
X43.87410 Y15.33319
X43.81208 Y15.11976
X43.78096 Y14.91750
X43.77449 Y14.07546
X43.93479 Y13.69929
X43.98952 Y13.49654
X44.02181 Y13.30104
X44.03029 Y12.96698
X43.97593 Y12.62121
X43.77697 Y12.38788
X43.54914 Y12.19436
X43.25150 Y12.14366
X42.96247 Y12.14023
X42.61940 Y12.19317
X42.46456 Y12.31918
X42.32326 Y12.45992
X42.19590 Y12.61544
X42.08051 Y12.78951
X41.97596 Y12.98771
X41.88249 Y13.21768
X41.80172 Y13.49116
X41.73796 Y13.82527
X41.70449 Y14.17246
X41.08021 Y15.67960
X41.08021 Y15.91650
X40.93802 Y16.24884
X40.83644 Y16.58117
X40.77551 Y16.91350
X40.75519 Y17.24581
X40.75519 Y19.04581
X40.78912 Y19.47527
X40.89087 Y19.90471
X41.06047 Y20.33415
X41.29788 Y20.76359
X40.74071 Y21.19861
X40.17142 Y21.74832
X39.93505 Y21.93778
X39.73690 Y22.05855
X39.32240 Y22.24413
X39.19989 Y22.31977
X39.07244 Y22.42696
X34.11893 Y27.38046
X34.01177 Y27.50789
X33.93610 Y27.63042
X33.71995 Y28.13660
X33.51535 Y28.21993
X33.23895 Y28.36992
X33.04654 Y28.50383
X32.75398 Y28.77492
X32.57410 Y29.00187
X32.35056 Y29.39649
X32.35012 Y30.74957
X29.81012 Y30.74957
X29.81465 Y29.29412
X30.04540 Y29.05785
X30.31307 Y28.68328
X30.56928 Y28.50393
X30.66745 Y28.45064
X30.77642 Y28.41960
X31.08249 Y28.36713
X31.57337 Y28.45638
X31.71490 Y28.36057
X38.53035 Y21.54918
X38.62636 Y21.43112
X38.64193 Y21.27974
X38.64592 Y20.40329
X38.64193 Y14.91590
X38.68471 Y14.68737
X38.81613 Y14.49545
X42.00558 Y11.30600
X42.19712 Y11.17369
X42.42605 Y11.13183
X43.74296 Y11.13183
X43.97151 Y11.17460
X44.16344 Y11.30602
X44.86435 Y12.00694
X44.99574 Y12.19883
X45.03849 Y12.42725
X45.03847 Y14.41867
X45.06354 Y14.58417
X45.15007 Y14.68808
X49.82555 Y19.36356
X49.94148 Y19.52650
X49.98110 Y19.64967
X49.99967 Y19.78388
X49.99967 Y20.30621
X50.01529 Y20.45757
X50.11128 Y20.57565
X51.57424 Y22.03859
X51.65611 Y22.14677
X51.71511 Y22.26180
X51.74836 Y22.45891
X51.74836 Y26.90371
X51.76395 Y27.05506
X51.85997 Y27.17315
X52.62176 Y27.93492
X52.91668 Y28.26855
X53.12151 Y28.45496
X53.27810 Y28.56659
G04 P0 ( dwell for no time -- G64 should not smooth over this point )
G00 Z2.00000 ( retract )

G00 X53.27810 Y28.56659 ( rapid move to begin. )
F10.00000
G01 Z-0.13500
G04 P0 ( dwell for no time -- G64 should not smooth over this point )
F20.00000
X53.27810 Y28.56659
X53.12151 Y28.45496
X52.91668 Y28.26855
X52.62176 Y27.93492
X51.85997 Y27.17315
X51.76395 Y27.05506
X51.74836 Y26.90371
X51.74836 Y22.45891
X51.71511 Y22.26180
X51.65611 Y22.14677
X51.57424 Y22.03859
X50.11128 Y20.57565
X50.01529 Y20.45757
X49.99967 Y20.30621
X49.99967 Y19.78388
X49.98110 Y19.64967
X49.94148 Y19.52650
X49.82555 Y19.36356
X45.15007 Y14.68808
X45.06354 Y14.58417
X45.03847 Y14.41867
X45.03849 Y12.42725
X44.99574 Y12.19883
X44.86435 Y12.00694
X44.16344 Y11.30602
X43.97151 Y11.17460
X43.74296 Y11.13183
X42.42605 Y11.13183
X42.19712 Y11.17369
X42.00558 Y11.30600
X38.81613 Y14.49545
X38.68471 Y14.68737
X38.64193 Y14.91590
X38.64193 Y21.27974
X38.62636 Y21.43112
X38.57505 Y21.49988
X31.76100 Y28.31854
X31.66417 Y28.40012
X31.57337 Y28.45638
X31.08249 Y28.36713
X30.66745 Y28.45064
X30.52529 Y28.53075
X30.31307 Y28.68328
X30.04540 Y29.05785
X29.81465 Y29.29412
X29.58031 Y29.05717
X29.31221 Y28.68305
X29.15049 Y28.56354
X28.95818 Y28.44919
X28.54249 Y28.36713
X28.12745 Y28.45064
X27.98529 Y28.53075
X27.77307 Y28.68328
X27.65913 Y28.82986
X27.53230 Y29.03436
X27.47906 Y29.23192
X27.44302 Y29.45150
X27.47111 Y29.76298
X27.47094 Y29.81175
X27.44239 Y29.85397
X26.51867 Y30.79290
X26.38727 Y30.98482
X26.34450 Y31.21337
X26.34450 Y38.62624
X26.32890 Y38.77762
X26.23292 Y38.89568
X24.21293 Y40.91564
X24.08154 Y41.10756
X23.99449 Y41.62636
X23.99449 Y44.85137
X23.96665 Y45.05635
X23.90589 Y45.21883
X23.61346 Y45.23859
X22.70846 Y45.24197
X22.61773 Y45.25881
X22.52977 Y45.31507
X22.47237 Y45.39910
X22.44826 Y45.53773
X22.44745 Y47.85096
X22.34689 Y48.50679
X14.07899 Y48.50679
X8.50112 Y38.74552
X8.81578 Y38.55039
X9.07184 Y38.36711
X11.10976 Y37.19053
X11.20937 Y37.10970
X11.25748 Y37.01689
X11.26518 Y36.91550
X11.13991 Y36.63302
X11.09878 Y36.49665
X11.21773 Y36.31385
X16.85059 Y30.67776
X17.03423 Y30.52072
X17.19582 Y30.57291
X17.31726 Y30.59204
X18.94248 Y30.59204
X19.06918 Y30.57187
X19.15719 Y30.51556
X19.21718 Y30.42676
X19.31030 Y30.15214
X19.44090 Y29.94584
X19.58431 Y30.02354
X19.77456 Y30.15935
X19.89323 Y30.27642
X20.13910 Y30.47467
X20.16447 Y30.67126
X20.16447 Y32.10237
X20.14004 Y32.29546
X19.70136 Y32.67022
X19.44322 Y32.82711
X19.30949 Y32.61520
X19.22183 Y32.35782
X19.16224 Y32.26316
X19.07819 Y32.20570
X18.93964 Y32.18160
X17.31465 Y32.18160
X17.18780 Y32.20179
X17.09979 Y32.25810
X17.04233 Y32.34215
X17.01825 Y32.48071
X17.02163 Y34.14182
X17.03845 Y34.23254
X17.09476 Y34.32053
X17.17883 Y34.37799
X17.44238 Y34.42457
X17.55719 Y34.46310
X17.59544 Y34.57290
X17.62204 Y34.72439
X17.62447 Y35.21123
X17.60888 Y35.36264
X17.51292 Y35.48068
X15.92280 Y37.07077
X15.80474 Y37.16678
X15.46969 Y37.18166
X15.27985 Y37.15136
X15.17523 Y37.01829
X14.86979 Y36.49741
X14.80988 Y36.42726
X14.71714 Y36.37920
X14.61567 Y36.37148
X14.48364 Y36.41989
X12.34519 Y37.65840
X12.27506 Y37.71831
X12.22697 Y37.81110
X12.21925 Y37.91255
X12.25164 Y38.00899
X12.73025 Y38.84579
X12.81107 Y38.94544
X12.90388 Y38.99352
X13.00531 Y39.00124
X13.13739 Y38.95280
X14.44836 Y38.20066
X15.98254 Y38.19035
X16.21096 Y38.14760
X16.37375 Y38.04013
X18.45833 Y35.96076
X18.54022 Y35.85256
X18.58973 Y35.76886
X18.62879 Y35.57783
X18.63501 Y34.72401
X18.66209 Y34.57143
X18.69991 Y34.46325
X18.81901 Y34.42368
X19.06918 Y34.38187
X19.15719 Y34.32556
X19.21718 Y34.23676
X19.31030 Y33.96214
X19.44090 Y33.75584
X19.65828 Y33.88307
X20.01825 Y34.18129
X20.25284 Y34.32449
X20.66849 Y34.40653
X21.02515 Y34.34113
X21.22569 Y34.24291
X21.43790 Y34.09038
X21.55187 Y33.94377
X21.67867 Y33.73933
X21.73191 Y33.54174
X21.77016 Y33.29186
X21.74410 Y33.10212
X21.69193 Y32.88561
X21.61349 Y32.73252
X21.48563 Y32.55053
X21.43821 Y32.49305
X21.19785 Y32.29897
X21.18327 Y32.22866
X21.17247 Y30.67126
X21.19693 Y30.47817
X21.43790 Y30.28038
X21.55187 Y30.13377
X21.67867 Y29.92933
X21.73191 Y29.73174
X21.77016 Y29.48186
X21.70572 Y29.12440
X21.67806 Y29.03464
X21.61349 Y28.92252
X21.43821 Y28.68305
X21.19785 Y28.48897
X21.17247 Y28.29237
X21.17247 Y26.86126
X21.19693 Y26.66817
X21.43790 Y26.47038
X21.55187 Y26.32377
X21.67867 Y26.11933
X21.73191 Y25.92174
X21.77016 Y25.67186
X21.74410 Y25.48212
X21.67806 Y25.22464
X21.45312 Y24.88987
X21.19785 Y24.67897
X21.18327 Y24.60866
X21.17247 Y24.48237
X21.17247 Y21.89924
X21.13039 Y21.67059
X21.02172 Y21.50864
X20.95528 Y21.45812
X20.85977 Y21.39998
X20.66849 Y21.36153
X18.28904 Y21.35782
X18.13768 Y21.34222
X18.01965 Y21.24626
X16.92570 Y20.15132
X16.81147 Y19.99297
X16.72958 Y19.79341
X16.76491 Y19.61754
X16.81724 Y19.47354
X17.14439 Y19.49160
X17.48721 Y19.56885
X17.81889 Y19.56217
X17.95912 Y19.51576
X18.18762 Y19.41020
X18.31830 Y19.29503
X18.47045 Y19.12887
X18.62435 Y18.76041
X18.62546 Y18.30332
X18.64096 Y18.27875
X18.74621 Y18.14688
X19.72833 Y17.16476
X19.85973 Y16.97286
X19.90247 Y16.74444
X19.90489 Y15.57772
X19.93034 Y15.42989
X19.96818 Y15.31953
X20.13991 Y15.26763
X20.28347 Y15.25382
X25.38189 Y15.25382
X25.54742 Y15.27889
X25.65133 Y15.36542
X26.46665 Y16.18074
X26.56263 Y16.29880
X26.57823 Y16.45013
X26.57823 Y18.61604
X26.59685 Y18.75046
X26.63647 Y18.87352
X26.75237 Y19.03649
X29.14556 Y21.42967
X29.33741 Y21.56102
X29.56908 Y21.61357
X29.71360 Y21.66468
X29.76575 Y21.89678
X29.76827 Y22.37171
X29.78846 Y22.49858
X29.84472 Y22.58654
X29.96580 Y22.65390
X31.70151 Y22.65248
X31.80717 Y22.59160
X31.86463 Y22.50755
X31.90578 Y22.29683
X31.94677 Y22.17610
X32.14131 Y22.12116
X34.53600 Y22.11182
X34.76442 Y22.06907
X34.95632 Y21.93770
X36.04331 Y20.85071
X36.17582 Y20.74507
X36.21679 Y20.72018
X36.45710 Y20.73697
X36.76193 Y20.72655
X36.91245 Y20.67697
X37.16337 Y20.56112
X37.30401 Y20.43742
X37.47130 Y20.25482
X37.63307 Y19.87288
X37.64524 Y19.66150
X37.63320 Y19.39867
X37.54348 Y19.16194
X37.47234 Y19.01749
X37.42634 Y18.96217
X37.16497 Y18.71063
X36.91245 Y18.59361
X36.76388 Y18.54449
X36.40320 Y18.53641
X36.22975 Y18.57512
X35.92850 Y18.70951
X35.78786 Y18.83321
X35.62982 Y19.00380
X35.52736 Y19.21093
X35.45296 Y19.41695
X35.44263 Y19.66191
X35.46272 Y19.96117
X35.43546 Y20.00639
X35.33015 Y20.13836
X34.47626 Y20.99226
X34.35820 Y21.08825
X34.20681 Y21.10382
X32.20148 Y21.10130
X31.94710 Y21.03920
X31.90529 Y20.91469
X31.86852 Y20.71710
X31.81228 Y20.62914
X31.72823 Y20.57171
X31.58962 Y20.54761
X30.06463 Y20.54761
X29.88475 Y20.58297
X29.74640 Y20.57372
X29.60098 Y20.45957
X27.69784 Y18.55643
X27.60182 Y18.43834
X27.58620 Y18.28698
X27.58620 Y16.12100
X27.54439 Y15.89220
X27.41209 Y15.70065
X26.13144 Y14.42001
X25.96843 Y14.30406
X25.84536 Y14.26444
X25.71097 Y14.24582
X19.39849 Y14.24953
X19.20722 Y14.28796
X19.11170 Y14.34612
X19.04530 Y14.39662
X18.93664 Y14.55854
X18.89818 Y14.74981
X18.89303 Y14.97048
X18.86925 Y15.13495
X18.79701 Y15.32458
X18.70060 Y15.48326
X18.39897 Y15.33256
X18.15373 Y15.15067
X17.82069 Y15.01788
X17.42211 Y15.01750
X17.00840 Y15.17909
X16.76220 Y15.24310
X16.67063 Y15.06040
X16.61675 Y14.82420
X16.61048 Y12.71981
X16.62346 Y12.54770
X16.64947 Y12.43310
X16.76291 Y12.31910
X16.99547 Y12.28181
X20.48716 Y12.28181
X20.71558 Y12.23909
X20.90750 Y12.10770
X21.29617 Y11.70775
X21.39297 Y11.53945
X21.45093 Y11.17417
X21.69190 Y10.97638
X21.80587 Y10.82977
X21.92482 Y10.64069
X21.98591 Y10.42774
X22.02416 Y10.17786
X21.99810 Y9.98812
X21.94593 Y9.77161
X21.86749 Y9.61852
X21.70712 Y9.39587
X21.45185 Y9.18497
X21.42934 Y9.05073
X21.42975 Y6.44883
X21.44207 Y6.36407
X21.51530 Y6.27035
X22.29965 Y5.48444
X22.40547 Y5.39643
X22.54003 Y5.32036
X22.78768 Y5.24360
X22.85705 Y5.36252
X22.92309 Y5.52811
X22.95626 Y5.75384
X22.95626 Y7.59470
X22.97646 Y7.72157
X23.03272 Y7.80953
X23.11679 Y7.86696
X23.25525 Y7.89104
X24.18047 Y7.89104
X24.30724 Y7.87085
X24.39520 Y7.81459
X24.45260 Y7.73059
X24.47668 Y7.59209
X24.47668 Y5.15686
X24.45652 Y5.03009
X24.40025 Y4.94213
X24.31623 Y4.88470
X24.17762 Y4.86059
X23.71070 Y4.84792
X23.53155 Y4.79504
X23.33925 Y4.69204
X23.40437 Y4.47116
X23.50816 Y4.28749
X24.10267 Y3.68142
X24.22075 Y3.58541
X24.37206 Y3.56982
X25.13772 Y3.57063
X25.31402 Y3.59768
X25.43312 Y3.63916
X25.49385 Y3.89326
X25.49626 Y4.28470
X25.51646 Y4.41157
X25.57272 Y4.49953
X25.65679 Y4.55696
X25.79525 Y4.58104
X26.72047 Y4.58104
X26.84724 Y4.56085
X26.93520 Y4.50459
X26.99260 Y4.42059
X27.01282 Y4.32079
X27.02585 Y3.83357
X27.07757 Y3.64459
X27.10284 Y3.62963
X27.26035 Y3.58363
X27.37523 Y3.57063
X28.22489 Y3.56982
X28.37627 Y3.58541
X28.44503 Y3.63675
X30.21292 Y5.40001
X30.30888 Y5.51805
X30.32447 Y5.66941
X30.32196 Y7.86884
X30.25988 Y8.12322
X30.13535 Y8.16503
X29.93773 Y8.20181
X29.84977 Y8.25807
X29.79237 Y8.34210
X29.76827 Y8.48073
X29.76827 Y10.00572
X29.78846 Y10.13262
X29.84472 Y10.22055
X29.92877 Y10.27796
X30.06725 Y10.30204
X31.59249 Y10.30206
X31.71924 Y10.28187
X31.80717 Y10.22561
X31.86460 Y10.14156
X31.88868 Y10.00308
X31.88533 Y8.44182
X31.86852 Y8.35111
X31.81228 Y8.26315
X31.72821 Y8.20570
X31.51749 Y8.16455
X31.39674 Y8.12355
X31.34682 Y7.95802
X31.33247 Y7.81159
X31.33247 Y5.34025
X31.31391 Y5.20603
X31.27426 Y5.08287
X31.15836 Y4.91993
X28.97444 Y2.73601
X28.81145 Y2.62006
X28.68838 Y2.58044
X28.55399 Y2.56182
X27.34704 Y2.55943
X27.19900 Y2.53398
X27.07983 Y2.49248
X27.01912 Y2.23865
X27.01671 Y1.84686
X26.99652 Y1.72009
X26.94025 Y1.63213
X26.82039 Y1.55689
X26.68199 Y1.49532
X25.75646 Y1.49532
X25.59873 Y1.51503
X25.44097 Y1.57419
X25.28321 Y1.67279
X24.93846 Y1.99781
X23.95047 Y1.99781
X23.61575 Y2.02468
X23.30739 Y2.09532
X23.03841 Y2.19332
X22.80331 Y2.30665
X22.30747 Y1.81082
X22.14974 Y1.67279
X21.99198 Y1.57419
X21.83422 Y1.51503
X21.67646 Y1.49532
X20.75551 Y1.49532
X20.49777 Y1.62707
X20.44037 Y1.71110
X20.41626 Y1.84973
X20.41626 Y4.28470
X20.43646 Y4.41157
X20.49272 Y4.49953
X20.57679 Y4.55696
X21.05035 Y4.60685
X21.24270 Y4.68020
X21.36173 Y4.74962
X21.29660 Y4.97055
X21.20874 Y5.13207
X21.12089 Y5.23771
X20.59267 Y5.76590
X20.47672 Y5.92889
X20.43709 Y6.05196
X20.41847 Y6.18635
X20.41847 Y8.98837
X20.40770 Y9.11464
X20.39404 Y9.18146
X20.15307 Y9.37928
X20.03913 Y9.52586
X19.92018 Y9.71494
X19.85906 Y9.92792
X19.82081 Y10.17783
X19.84687 Y10.36749
X19.89904 Y10.58403
X20.03087 Y10.85939
X20.10671 Y11.12411
X19.85350 Y11.24052
X19.65650 Y11.27310
X16.58003 Y11.27384
X16.48391 Y11.28527
X16.35112 Y11.31567
X16.20936 Y11.40803
X15.78066 Y11.82690
X15.64927 Y12.01882
X15.60650 Y12.24737
X15.60650 Y19.70324
X15.59090 Y19.85462
X15.49491 Y19.97268
X14.01265 Y21.45388
X13.87513 Y21.55609
X13.68768 Y21.63943
X13.53121 Y21.67842
X13.47218 Y21.55078
X13.40835 Y21.35322
X13.31895 Y20.93829
X13.20736 Y20.74972
X13.08618 Y20.58330
X12.73436 Y20.34276
X12.53038 Y20.28911
X12.28651 Y20.25066
X11.98270 Y20.30280
X11.83942 Y20.34461
X11.58949 Y20.50296
X11.48834 Y20.58477
X11.39970 Y20.69976
X11.25525 Y20.93874
X11.21176 Y21.10217
X11.17326 Y21.35383
X11.19980 Y21.54636
X11.25405 Y21.76940
X11.46614 Y22.09757
X11.63886 Y22.24024
X11.91321 Y22.43300
X12.09924 Y22.62345
X11.86271 Y22.85690
X11.54872 Y23.07392
X11.42972 Y23.19810
X11.25525 Y23.47874
X11.17544 Y23.86411
X11.19086 Y24.03551
X11.23818 Y24.25413
X11.25405 Y24.30940
X11.33785 Y24.45492
X11.48679 Y24.66442
X11.83863 Y24.90493
X12.04257 Y24.95857
X12.26101 Y24.99385
X12.42167 Y24.97897
X12.73355 Y24.90307
X12.98346 Y24.74473
X13.08463 Y24.66292
X13.17325 Y24.54793
X13.31773 Y24.30892
X13.36121 Y24.14549
X13.39972 Y23.89391
X13.36462 Y23.56574
X13.44559 Y23.45157
X15.85107 Y21.04202
X15.96232 Y20.95028
X16.12049 Y20.86552
X16.27866 Y20.95028
X16.36918 Y21.02244
X17.53954 Y22.19167
X17.73146 Y22.32307
X17.95988 Y22.36582
X19.81215 Y22.36663
X19.92709 Y22.37963
X20.09879 Y22.43150
X20.15068 Y22.60326
X20.16447 Y22.74682
X20.16447 Y24.48237
X20.14004 Y24.67546
X19.70136 Y25.05022
X19.44322 Y25.20711
X19.30949 Y24.99520
X19.22183 Y24.73782
X19.16224 Y24.64316
X19.07819 Y24.58570
X18.93964 Y24.56160
X17.31465 Y24.56160
X17.18780 Y24.58179
X17.09979 Y24.63810
X17.04233 Y24.72215
X17.00616 Y24.95443
X16.96387 Y25.10721
X16.82336 Y25.15715
X16.58749 Y25.21059
X16.42473 Y25.31806
X15.44866 Y26.28890
X15.31727 Y26.48082
X15.27447 Y26.70937
X15.27447 Y28.42214
X15.25371 Y28.59984
X11.66421 Y32.17588
X9.83473 Y33.23806
X9.73506 Y33.31891
X9.68697 Y33.41169
X9.67925 Y33.51314
X9.71164 Y33.60958
X10.19022 Y34.44634
X10.27112 Y34.54606
X10.36388 Y34.59411
X10.46528 Y34.60184
X10.62314 Y34.55711
X10.79934 Y34.53234
X10.96571 Y34.53648
X11.13803 Y34.56254
X11.08364 Y34.86732
X11.01303 Y35.03933
X10.94872 Y35.14159
X10.06767 Y36.03059
X8.32045 Y37.04526
X8.01426 Y37.18115
X7.70008 Y37.34366
X5.99130 Y34.35335
X6.55142 Y33.95640
X8.56976 Y32.79112
X8.66937 Y32.71030
X8.71748 Y32.61749
X8.72518 Y32.51609
X8.67679 Y32.38409
X8.21423 Y31.58289
X8.13333 Y31.48315
X8.04057 Y31.43509
X7.93912 Y31.42737
X7.80717 Y31.47576
X7.59843 Y31.58221
X7.34537 Y31.63385
X7.27878 Y31.63654
X7.23989 Y31.56379
X7.17883 Y31.40659
X7.14972 Y31.24279
X7.15007 Y30.41604
X7.20931 Y30.16804
X7.35000 Y29.91929
X7.49775 Y29.98640
X7.82391 Y30.19471
X7.92531 Y30.20243
X8.02180 Y30.17004
X10.16625 Y28.93644
X10.26592 Y28.85559
X10.31402 Y28.76278
X10.32172 Y28.66139
X10.28936 Y28.56489
X10.18481 Y28.37127
X10.13440 Y28.23769
X10.20102 Y28.04706
X10.23450 Y27.84970
X10.23450 Y19.19643
X10.24682 Y19.06153
X10.34608 Y18.92699
X11.81755 Y17.45551
X11.91445 Y17.37388
X11.95756 Y17.34477
X12.28649 Y17.37700
X12.59025 Y17.32488
X12.73355 Y17.28305
X12.98349 Y17.12471
X13.08463 Y17.04289
X13.17328 Y16.92791
X13.31773 Y16.68892
X13.36121 Y16.52547
X13.38577 Y16.30413
X13.38118 Y16.12504
X13.31895 Y15.85829
X13.10683 Y15.53007
X12.89144 Y15.28252
X12.75242 Y15.04762
X12.96314 Y14.91483
X13.22052 Y14.82717
X13.31519 Y14.76759
X13.38255 Y14.64658
X13.38648 Y12.88382
X13.37653 Y12.79317
X13.32024 Y12.70516
X13.23619 Y12.64770
X13.09764 Y12.62360
X11.47265 Y12.62360
X11.34580 Y12.64379
X11.25779 Y12.70010
X11.20033 Y12.78415
X11.16416 Y13.01643
X11.12187 Y13.16921
X10.98136 Y13.21915
X10.74549 Y13.27259
X10.55357 Y13.40399
X8.40067 Y15.55689
X8.26927 Y15.74881
X8.22650 Y15.97736
X8.22574 Y23.57740
X8.21347 Y23.68934
X8.17042 Y23.84133
X8.03846 Y24.08448
X7.99262 Y24.14679
X7.70798 Y23.97178
X7.54012 Y23.79076
X7.27080 Y23.32881
X7.18988 Y23.22904
X7.09711 Y23.18095
X6.99569 Y23.17323
X6.86361 Y23.22167
X4.75473 Y24.43924
X4.65506 Y24.52009
X4.60697 Y24.61288
X4.59925 Y24.71430
X4.64764 Y24.84631
X5.11022 Y25.64752
X5.19112 Y25.74724
X5.28386 Y25.79530
X5.38533 Y25.80300
X5.51736 Y25.75458
X7.67834 Y24.50734
X8.00374 Y24.27564
X8.09066 Y24.40335
X8.16160 Y24.54397
X8.21164 Y24.70864
X8.22564 Y24.82814
X8.22541 Y26.35113
X8.21088 Y26.46929
X8.11492 Y26.58732
X6.68381 Y28.01727
X6.53618 Y28.12484
X6.41388 Y28.18252
X6.30522 Y28.21775
X6.11604 Y27.94701
X5.67423 Y27.18346
X5.59333 Y27.08374
X5.50057 Y27.03566
X5.39912 Y27.02794
X5.26707 Y27.07637
X3.25374 Y28.23781
X2.63908 Y28.48691
X0.88511 Y25.41750
X14.33342 Y0.55082
X41.73603 Y0.55082
X55.69135 Y24.65545
X53.27810 Y28.56659
G04 P0 ( dwell for no time -- G64 should not smooth over this point )
G00 Z2.00000 ( retract )

G00 X50.29502 Y24.16815 ( rapid move to begin. )
F10.00000
G01 Z-0.13500
G04 P0 ( dwell for no time -- G64 should not smooth over this point )
F20.00000
X50.29502 Y24.16815
X50.39959 Y24.38984
X50.45730 Y24.61153
X50.46817 Y24.83320
X50.43221 Y25.05489
X50.16426 Y26.05489
X50.08260 Y26.29190
X49.96469 Y26.52893
X48.95647 Y26.48661
X48.51768 Y26.50655
X48.03447 Y26.60350
X47.54280 Y26.73525
X46.41449 Y25.86944
X46.07303 Y25.56929
X45.77476 Y25.22593
X45.51969 Y24.83940
X45.30781 Y24.40965
X43.98899 Y23.09083
X43.76986 Y22.85375
X43.44749 Y22.43313
X43.12318 Y21.87880
X42.92092 Y21.42940
X43.91447 Y20.43582
X44.13799 Y20.19074
X44.31825 Y19.94563
X44.45531 Y19.70052
X44.54913 Y19.45541
X44.49861 Y19.22305
X44.33364 Y18.64139
X44.29536 Y18.37278
X44.28551 Y18.10700
X44.33364 Y17.65026
X44.49861 Y17.06860
X44.58574 Y16.55364
X45.14228 Y16.65889
X45.46041 Y16.75950
X45.72833 Y16.87538
X45.95947 Y17.00492
X46.16290 Y17.14838
X46.47451 Y17.44403
X46.62548 Y17.63611
X46.79869 Y17.92044
X46.92368 Y18.19519
X46.99325 Y18.39168
X47.12139 Y18.94187
X47.15236 Y19.17700
X47.18207 Y19.73463
X47.52508 Y20.56272
X47.52528 Y20.70898
X47.72812 Y21.11908
X47.96429 Y21.48319
X48.29726 Y21.87123
X48.96604 Y22.54001
X49.66442 Y23.07593
X50.29502 Y24.16815
G04 P0 ( dwell for no time -- G64 should not smooth over this point )
G00 Z2.00000 ( retract )

G00 X41.29519 Y24.57882 ( rapid move to begin. )
F10.00000
G01 Z-0.13500
G04 P0 ( dwell for no time -- G64 should not smooth over this point )
F20.00000
X41.29519 Y24.57882
X41.40538 Y24.87209
X41.49837 Y25.22525
X41.56733 Y25.66391
X41.59613 Y26.15006
X42.15003 Y27.48724
X41.51150 Y28.13299
X41.25989 Y28.43731
X41.13624 Y28.61914
X41.00744 Y28.84904
X40.71175 Y29.53728
X40.55961 Y29.78219
X40.44109 Y29.91764
X37.85075 Y32.50799
X37.66530 Y32.66267
X37.49535 Y32.76564
X37.37780 Y32.82175
X37.30836 Y32.82183
X37.01872 Y32.95437
X36.76538 Y33.03854
X36.47173 Y33.09955
X36.17516 Y33.12168
X35.91214 Y33.10705
X35.50800 Y33.02378
X35.17148 Y32.89767
X34.89117 Y32.75368
X34.89465 Y31.83412
X35.08339 Y31.64865
X35.30864 Y31.32884
X35.42180 Y31.19910
X35.74745 Y30.99064
X36.16249 Y30.90713
X36.57818 Y30.98919
X36.81270 Y31.13235
X37.16640 Y31.39407
X37.27432 Y31.34604
X37.46972 Y31.20393
X39.33934 Y29.33431
X39.43535 Y29.21627
X39.45092 Y29.06489
X39.45092 Y25.84572
X39.43865 Y25.71105
X39.42014 Y25.62926
X39.19682 Y25.43246
X39.02855 Y25.24818
X38.93634 Y25.05471
X38.81496 Y24.70193
X38.69718 Y24.46134
X38.85730 Y24.18029
X39.00627 Y23.98004
X39.16931 Y23.80343
X39.34922 Y23.64555
X39.69174 Y23.42190
X40.04373 Y23.40773
X40.27924 Y23.42832
X40.57396 Y23.62721
X40.87967 Y23.91727
X41.07523 Y24.17290
X41.29519 Y24.57882
G04 P0 ( dwell for no time -- G64 should not smooth over this point )
G00 Z2.00000 ( retract )

G00 X39.44986 Y25.81265 ( rapid move to begin. )
F10.00000
G01 Z-0.13500
G04 P0 ( dwell for no time -- G64 should not smooth over this point )
F20.00000
X39.44986 Y25.81265
X39.45092 Y29.06489
X39.42603 Y29.23022
X39.33934 Y29.33431
X37.46972 Y31.20393
X37.30089 Y31.33156
X37.16640 Y31.39407
X36.81270 Y31.13235
X36.57818 Y30.98919
X36.16249 Y30.90713
X35.85642 Y30.95960
X35.74745 Y30.99064
X35.64928 Y31.04393
X35.39307 Y31.22328
X35.12540 Y31.59785
X34.89465 Y31.83412
X34.66031 Y31.59717
X34.39221 Y31.22305
X34.00791 Y30.94378
X33.82231 Y30.75155
X34.05820 Y30.51701
X34.39190 Y30.28038
X34.50587 Y30.13377
X34.63267 Y29.92933
X34.68591 Y29.73174
X34.72195 Y29.51213
X34.69404 Y29.15196
X34.89835 Y28.88541
X34.93465 Y28.82326
X34.96170 Y28.70952
X34.97648 Y28.59443
X34.97758 Y28.06718
X35.00155 Y27.93510
X35.08809 Y27.83119
X38.21897 Y24.70031
X38.32700 Y24.61077
X38.46533 Y24.53358
X38.69718 Y24.46134
X38.81496 Y24.70193
X38.93634 Y25.05471
X39.02855 Y25.24818
X39.19682 Y25.43246
X39.42014 Y25.62926
X39.44986 Y25.81265
G04 P0 ( dwell for no time -- G64 should not smooth over this point )
G00 Z2.00000 ( retract )

G00 X37.64524 Y19.60910 ( rapid move to begin. )
F10.00000
G01 Z-0.13500
G04 P0 ( dwell for no time -- G64 should not smooth over this point )
F20.00000
X37.64524 Y19.60910
X37.63307 Y19.87288
X37.54346 Y20.10865
X37.47130 Y20.25482
X37.26528 Y20.47415
X37.12456 Y20.58284
X36.76193 Y20.72655
X36.45710 Y20.73697
X36.21679 Y20.72018
X36.17582 Y20.74507
X36.04331 Y20.85071
X34.95632 Y21.93770
X34.76442 Y22.06907
X34.53600 Y22.11182
X32.14131 Y22.12116
X31.94677 Y22.17610
X31.90578 Y22.29683
X31.86463 Y22.50755
X31.80717 Y22.59160
X31.70151 Y22.65248
X30.02846 Y22.65782
X29.92877 Y22.64397
X29.84472 Y22.58654
X29.78846 Y22.49858
X29.76827 Y22.37171
X29.76575 Y21.89678
X29.71360 Y21.66468
X29.56908 Y21.61357
X29.33741 Y21.56102
X29.14556 Y21.42967
X26.75237 Y19.03649
X26.63647 Y18.87352
X26.59685 Y18.75046
X26.57823 Y18.61604
X26.57823 Y16.45013
X26.56263 Y16.29880
X26.46665 Y16.18074
X25.62700 Y15.34264
X25.53325 Y15.26941
X25.41529 Y15.25491
X20.28347 Y15.25382
X20.13991 Y15.26763
X19.98241 Y15.31363
X19.96818 Y15.31953
X19.93852 Y15.40147
X19.90489 Y15.57772
X19.90247 Y16.74444
X19.85973 Y16.97286
X19.72833 Y17.16476
X18.74621 Y18.14688
X18.65975 Y18.25069
X18.62546 Y18.30332
X18.63377 Y18.58645
X18.61195 Y18.79841
X18.47045 Y19.12887
X18.27954 Y19.33176
X18.18762 Y19.41020
X18.10514 Y19.45310
X17.90883 Y19.53428
X17.75376 Y19.56897
X17.48721 Y19.56885
X17.14439 Y19.49160
X16.81724 Y19.47354
X16.70621 Y19.17939
X16.65044 Y18.95851
X16.61950 Y18.74489
X16.61950 Y18.37474
X16.66364 Y18.09915
X16.73060 Y17.86545
X16.83375 Y17.61216
X17.01226 Y17.28981
X17.79697 Y17.28981
X18.03811 Y17.15313
X18.36176 Y16.90497
X18.53108 Y16.73283
X18.71439 Y16.49847
X18.75510 Y16.21894
X18.76341 Y15.97955
X18.74634 Y15.73756
X18.70060 Y15.48326
X18.79701 Y15.32458
X18.86925 Y15.13495
X18.89303 Y14.97048
X18.89818 Y14.74981
X18.93664 Y14.55854
X19.04530 Y14.39662
X19.20722 Y14.28796
X19.43603 Y14.24582
X25.71097 Y14.24582
X25.93952 Y14.28862
X26.13144 Y14.42001
X27.41209 Y15.70065
X27.51142 Y15.83560
X27.55328 Y15.92369
X27.58620 Y16.12100
X27.58620 Y18.28698
X27.60182 Y18.43834
X27.69784 Y18.55643
X29.60098 Y20.45957
X29.74640 Y20.57372
X29.88475 Y20.58297
X30.06463 Y20.54761
X31.58962 Y20.54761
X31.72823 Y20.57171
X31.81228 Y20.62914
X31.86852 Y20.71710
X31.90529 Y20.91469
X31.94710 Y21.03920
X32.20148 Y21.10130
X34.20681 Y21.10382
X34.35820 Y21.08825
X34.47626 Y20.99226
X35.33015 Y20.13836
X35.43546 Y20.00639
X35.46272 Y19.96117
X35.44263 Y19.66191
X35.45296 Y19.41695
X35.52736 Y19.21093
X35.62982 Y19.00380
X35.78786 Y18.83321
X35.92850 Y18.70951
X36.17943 Y18.59366
X36.32992 Y18.54406
X36.63475 Y18.53367
X36.76388 Y18.54449
X36.91245 Y18.59361
X37.16497 Y18.71063
X37.30404 Y18.83319
X37.47234 Y19.01749
X37.63320 Y19.39867
X37.64524 Y19.60910
G04 P0 ( dwell for no time -- G64 should not smooth over this point )
G00 Z2.00000 ( retract )

G00 X44.27286 Y16.30327 ( rapid move to begin. )
F10.00000
G01 Z-0.13500
G04 P0 ( dwell for no time -- G64 should not smooth over this point )
F20.00000
X44.27286 Y16.30327
X44.43659 Y16.42118
X44.58574 Y16.55364
X44.49861 Y17.06860
X44.33364 Y17.65026
X44.28551 Y18.10700
X44.29536 Y18.37278
X44.33364 Y18.64139
X44.49861 Y19.22305
X44.54913 Y19.45541
X44.45531 Y19.70052
X44.31825 Y19.94563
X44.13799 Y20.19074
X43.91447 Y20.43582
X42.92092 Y21.42940
X41.29788 Y20.76359
X41.06047 Y20.33415
X40.89087 Y19.90471
X40.78912 Y19.47527
X40.75519 Y19.04581
X40.75519 Y17.24581
X40.77551 Y16.91350
X40.83644 Y16.58117
X40.93802 Y16.24884
X41.08021 Y15.91650
X41.08021 Y15.67960
X41.70449 Y14.17246
X41.76649 Y13.65352
X41.84462 Y13.33373
X41.93814 Y13.07305
X42.04327 Y12.85474
X42.19590 Y12.61544
X42.42211 Y12.35852
X42.61940 Y12.19317
X42.82084 Y12.15464
X43.07174 Y12.13599
X43.30415 Y12.14905
X43.54914 Y12.19436
X43.77697 Y12.38788
X43.97593 Y12.62121
X44.03029 Y12.96698
X44.02181 Y13.30104
X43.98952 Y13.49654
X43.93479 Y13.69929
X43.77449 Y14.07546
X43.78096 Y14.91750
X43.81208 Y15.11976
X43.87410 Y15.33319
X44.27286 Y16.30327
G04 P0 ( dwell for no time -- G64 should not smooth over this point )
G00 Z2.00000 ( retract )

G00 X31.63755 Y8.18650 ( rapid move to begin. )
F10.00000
G01 Z-0.13500
G04 P0 ( dwell for no time -- G64 should not smooth over this point )
F20.00000
X31.63755 Y8.18650
X31.72821 Y8.20570
X31.81228 Y8.26315
X31.86852 Y8.35111
X31.88871 Y8.47786
X31.88868 Y10.00308
X31.86460 Y10.14156
X31.80717 Y10.22561
X31.71924 Y10.28187
X31.59249 Y10.30206
X30.06725 Y10.30204
X29.92877 Y10.27796
X29.84472 Y10.22055
X29.78846 Y10.13262
X29.76827 Y10.00572
X29.76827 Y8.48073
X29.79237 Y8.34210
X29.84977 Y8.25807
X29.93773 Y8.20181
X30.13535 Y8.16503
X30.25988 Y8.12322
X30.31497 Y7.92891
X30.32447 Y5.66941
X30.30888 Y5.51805
X30.25760 Y5.44932
X28.49433 Y3.68142
X28.37627 Y3.58541
X28.22489 Y3.56982
X27.37523 Y3.57063
X27.19898 Y3.59768
X27.07983 Y3.63916
X27.01912 Y3.89301
X27.01668 Y4.28208
X26.99260 Y4.42059
X26.93520 Y4.50459
X26.84724 Y4.56085
X26.72047 Y4.58104
X25.79525 Y4.58104
X25.65679 Y4.55696
X25.57272 Y4.49953
X25.51646 Y4.41157
X25.49626 Y4.28470
X25.48712 Y3.83360
X25.43541 Y3.64462
X25.41016 Y3.62963
X25.25265 Y3.58363
X25.13772 Y3.57063
X24.37206 Y3.56982
X24.22075 Y3.58541
X24.10267 Y3.68142
X23.54316 Y4.24403
X23.41603 Y4.44439
X23.33925 Y4.69204
X23.09264 Y4.80802
X22.98837 Y4.89273
X22.90366 Y4.99699
X22.78768 Y5.24360
X22.54003 Y5.32036
X22.33958 Y5.44759
X21.53808 Y6.24601
X21.44207 Y6.36407
X21.42647 Y6.51540
X21.42647 Y8.98837
X21.43727 Y9.11466
X21.45185 Y9.18497
X21.70712 Y9.39587
X21.93206 Y9.73064
X21.99810 Y9.98812
X22.02416 Y10.17786
X21.98591 Y10.42774
X21.93267 Y10.62533
X21.80587 Y10.82977
X21.69190 Y10.97638
X21.45093 Y11.17417
X21.38329 Y11.57173
X21.25233 Y11.76287
X20.85243 Y12.15151
X20.71558 Y12.23909
X20.55690 Y12.27389
X16.96679 Y12.28263
X16.76575 Y12.31682
X16.64947 Y12.43310
X16.62346 Y12.54770
X16.61048 Y12.71981
X16.61526 Y14.79654
X16.64850 Y14.99540
X16.76220 Y15.24310
X17.00840 Y15.17909
X17.42211 Y15.01750
X17.75374 Y15.01082
X17.90885 Y15.04528
X18.15373 Y15.15067
X18.39897 Y15.33256
X18.70060 Y15.48326
X18.74634 Y15.73756
X18.76341 Y15.97955
X18.75510 Y16.21894
X18.71439 Y16.49847
X18.53108 Y16.73283
X18.24058 Y17.00847
X18.03811 Y17.15313
X17.79697 Y17.28981
X17.01226 Y17.28981
X16.83375 Y17.61216
X16.73060 Y17.86545
X16.66364 Y18.09915
X16.62526 Y18.32000
X16.61117 Y18.53359
X16.62526 Y18.79963
X16.66364 Y19.02048
X16.73060 Y19.25419
X16.81724 Y19.47354
X16.76491 Y19.61754
X16.72958 Y19.79341
X16.78178 Y19.93410
X16.85732 Y20.06666
X16.94416 Y20.17077
X18.01965 Y21.24626
X18.13768 Y21.34222
X18.28904 Y21.35782
X20.69630 Y21.36506
X20.85977 Y21.39998
X21.02172 Y21.50864
X21.13039 Y21.67059
X21.15667 Y21.77872
X21.17247 Y21.89924
X21.17247 Y24.48237
X21.18327 Y24.60866
X21.19785 Y24.67897
X21.45312 Y24.88987
X21.67806 Y25.22464
X21.74410 Y25.48212
X21.77016 Y25.67186
X21.73191 Y25.92174
X21.67082 Y26.13469
X21.55187 Y26.32377
X21.43790 Y26.47038
X21.19693 Y26.66817
X21.17534 Y26.79893
X21.17247 Y28.29237
X21.18906 Y28.44975
X21.19785 Y28.48897
X21.45312 Y28.69987
X21.67806 Y29.03464
X21.74410 Y29.29212
X21.77016 Y29.48186
X21.73191 Y29.73174
X21.67082 Y29.94469
X21.55187 Y30.13377
X21.43790 Y30.28038
X21.19693 Y30.47817
X21.17247 Y30.67126
X21.17344 Y32.13359
X21.19785 Y32.29897
X21.45312 Y32.50987
X21.67806 Y32.84464
X21.74410 Y33.10212
X21.77016 Y33.29186
X21.73191 Y33.54174
X21.67082 Y33.75469
X21.55187 Y33.94377
X21.43790 Y34.09038
X21.22569 Y34.24291
X21.02515 Y34.34113
X20.66849 Y34.40653
X20.25284 Y34.32449
X20.01825 Y34.18129
X19.65828 Y33.88307
X19.44090 Y33.75584
X19.43219 Y33.70080
X19.39930 Y33.27011
X19.41456 Y33.01271
X19.44322 Y32.82711
X19.70136 Y32.67022
X20.14004 Y32.29546
X20.16447 Y32.10237
X20.16447 Y30.67126
X20.13910 Y30.47467
X19.89323 Y30.27642
X19.75287 Y30.14185
X19.58431 Y30.02354
X19.44090 Y29.94584
X19.40364 Y29.63207
X19.41456 Y29.20271
X19.45678 Y28.94142
X19.56638 Y28.55288
X19.63951 Y28.21973
X19.51164 Y27.89827
X19.31200 Y27.57681
X19.51289 Y27.25288
X19.64093 Y26.92895
X19.44898 Y26.17417
X19.41027 Y25.90881
X19.40146 Y25.56469
X19.44322 Y25.20711
X19.75345 Y25.00864
X20.14004 Y24.67546
X20.15370 Y24.60864
X20.16447 Y24.48237
X20.16447 Y22.74682
X20.15068 Y22.60326
X20.09879 Y22.43150
X19.92709 Y22.37963
X19.81215 Y22.36663
X17.95988 Y22.36582
X17.73146 Y22.32307
X17.53954 Y22.19167
X16.36918 Y21.02244
X16.27866 Y20.95028
X16.12049 Y20.86552
X15.96232 Y20.95028
X15.85107 Y21.04202
X13.44559 Y23.45157
X13.36462 Y23.56574
X13.39972 Y23.89391
X13.36121 Y24.14549
X13.31773 Y24.30892
X13.17325 Y24.54793
X13.08463 Y24.66292
X12.84140 Y24.84163
X12.73355 Y24.90307
X12.63858 Y24.93251
X12.28649 Y24.99700
X12.04257 Y24.95857
X11.83863 Y24.90493
X11.48679 Y24.66442
X11.36561 Y24.49792
X11.25405 Y24.30940
X11.19980 Y24.08639
X11.17544 Y23.86411
X11.25525 Y23.47874
X11.39970 Y23.23978
X11.48834 Y23.12477
X11.86271 Y22.85690
X12.09924 Y22.62345
X12.56512 Y22.62177
X12.90881 Y22.39848
X13.09332 Y22.23943
X13.26078 Y22.06247
X13.41407 Y21.86308
X13.53121 Y21.67842
X13.78973 Y21.60019
X13.99225 Y21.47219
X15.49491 Y19.97268
X15.59090 Y19.85462
X15.60650 Y19.70324
X15.60650 Y12.24737
X15.64927 Y12.01882
X15.78066 Y11.82690
X16.15958 Y11.44798
X16.35112 Y11.31567
X16.43354 Y11.29492
X16.58003 Y11.27384
X19.65650 Y11.27310
X19.85350 Y11.24052
X20.10671 Y11.12411
X20.03087 Y10.85939
X19.89904 Y10.58403
X19.84687 Y10.36749
X19.82081 Y10.17783
X19.85906 Y9.92792
X19.92018 Y9.71494
X20.03913 Y9.52586
X20.15307 Y9.37928
X20.39404 Y9.18146
X20.40770 Y9.11464
X20.41847 Y8.98837
X20.41847 Y6.18635
X20.43709 Y6.05196
X20.47672 Y5.92889
X20.59267 Y5.76590
X21.19267 Y5.15440
X21.29660 Y4.97055
X21.36173 Y4.74962
X21.77425 Y4.56781
X21.85660 Y4.50093
X21.92348 Y4.41858
X22.80331 Y2.30665
X23.03841 Y2.19332
X23.30739 Y2.09532
X23.61575 Y2.02468
X23.95047 Y1.99781
X24.93846 Y1.99781
X25.28321 Y1.67279
X25.44097 Y1.57419
X25.59873 Y1.51503
X25.75646 Y1.49532
X26.68199 Y1.49532
X26.82039 Y1.55689
X26.94025 Y1.63213
X26.99652 Y1.72009
X27.01333 Y1.81084
X27.01752 Y2.21021
X27.04508 Y2.38938
X27.07983 Y2.49248
X27.17056 Y2.52580
X27.40391 Y2.56182
X28.55399 Y2.56182
X28.68838 Y2.58044
X28.81145 Y2.62006
X28.97444 Y2.73601
X31.15836 Y4.91993
X31.28975 Y5.11185
X31.33247 Y5.34025
X31.34182 Y7.92904
X31.39674 Y8.12355
X31.63755 Y8.18650
G04 P0 ( dwell for no time -- G64 should not smooth over this point )
G00 Z2.00000 ( retract )

G00 X24.31623 Y4.88470 ( rapid move to begin. )
F10.00000
G01 Z-0.13500
G04 P0 ( dwell for no time -- G64 should not smooth over this point )
F20.00000
X24.31623 Y4.88470
X24.40025 Y4.94213
X24.45652 Y5.03009
X24.47668 Y5.15686
X24.47668 Y7.59209
X24.45260 Y7.73059
X24.39520 Y7.81459
X24.30724 Y7.87085
X24.21646 Y7.88769
X23.25525 Y7.89104
X23.11679 Y7.86696
X23.03272 Y7.80953
X22.97646 Y7.72157
X22.95962 Y7.63079
X22.95408 Y5.69887
X22.90135 Y5.46303
X22.78768 Y5.24360
X22.90366 Y4.99699
X22.98837 Y4.89273
X23.09264 Y4.80802
X23.33925 Y4.69204
X23.53155 Y4.79504
X23.71070 Y4.84792
X24.17762 Y4.86059
X24.31623 Y4.88470
G04 P0 ( dwell for no time -- G64 should not smooth over this point )
G00 Z2.00000 ( retract )

G00 X21.67646 Y1.49532 ( rapid move to begin. )
F10.00000
G01 Z-0.13500
G04 P0 ( dwell for no time -- G64 should not smooth over this point )
F20.00000
X21.67646 Y1.49532
X21.83422 Y1.51503
X21.99198 Y1.57419
X22.14974 Y1.67279
X22.30747 Y1.81082
X22.80331 Y2.30665
X21.92348 Y4.41858
X21.85660 Y4.50093
X21.77425 Y4.56781
X21.36173 Y4.74962
X21.24270 Y4.68020
X21.05035 Y4.60685
X20.57679 Y4.55696
X20.49272 Y4.49953
X20.43646 Y4.41157
X20.41626 Y4.28470
X20.41626 Y1.84973
X20.44037 Y1.71110
X20.49777 Y1.62707
X20.75551 Y1.49532
X21.67646 Y1.49532
G04 P0 ( dwell for no time -- G64 should not smooth over this point )
G00 Z2.00000 ( retract )

G00 X29.81358 Y32.04342 ( rapid move to begin. )
F10.00000
G01 Z-0.13500
G04 P0 ( dwell for no time -- G64 should not smooth over this point )
F20.00000
X29.81358 Y32.04342
X29.81203 Y33.34720
X29.87022 Y33.82914
X29.94871 Y34.12076
X30.03037 Y34.34395
X31.04147 Y36.78497
X29.12826 Y41.40385
X29.00263 Y41.63141
X28.89603 Y41.75740
X27.07815 Y43.57380
X26.91930 Y43.69552
X26.63238 Y43.83171
X26.54597 Y44.05594
X26.51280 Y44.19623
X26.49847 Y44.69882
X26.48775 Y44.80240
X26.45560 Y44.90596
X26.35204 Y44.93811
X26.24846 Y44.94883
X25.24846 Y44.94883
X25.14493 Y44.93811
X25.04138 Y44.90596
X25.00919 Y44.80240
X24.99848 Y44.69882
X24.99848 Y42.18884
X25.00876 Y42.08742
X25.03962 Y41.98597
X25.16312 Y41.78310
X25.33942 Y41.63654
X26.24846 Y41.26001
X26.50210 Y41.17322
X26.78158 Y41.11226
X27.09116 Y40.80269
X27.55018 Y39.69451
X27.60807 Y39.53436
X27.66746 Y39.29664
X27.69547 Y38.99281
X27.69547 Y33.19460
X27.59984 Y32.98782
X27.50203 Y32.71848
X27.43936 Y32.46709
X27.40528 Y32.22744
X27.39624 Y31.99387
X27.41087 Y31.76146
X27.47211 Y31.43413
X27.61556 Y31.25940
X27.78773 Y31.08797
X27.98097 Y30.93133
X28.26385 Y30.75389
X29.81012 Y30.74957
X29.81358 Y32.04342
G04 P0 ( dwell for no time -- G64 should not smooth over this point )
G00 Z2.00000 ( retract )

G00 X8.50112 Y38.74552 ( rapid move to begin. )
F10.00000
G01 Z-0.13500
G04 P0 ( dwell for no time -- G64 should not smooth over this point )
F20.00000
X8.50112 Y38.74552
X7.70008 Y37.34369
X8.01426 Y37.18115
X8.32045 Y37.04526
X10.04369 Y36.05035
X10.94872 Y35.14159
X11.01303 Y35.03933
X11.08364 Y34.86732
X11.13803 Y34.56254
X12.74445 Y33.32988
X12.83175 Y33.24588
X12.89980 Y33.14263
X12.94861 Y33.02010
X13.00394 Y32.68259
X15.73012 Y29.95643
X15.79425 Y29.80159
X16.23438 Y29.30078
X16.48056 Y28.84762
X16.65356 Y28.61780
X16.68356 Y28.35755
X16.76776 Y28.09730
X16.90614 Y27.83705
X17.09867 Y27.57681
X19.31200 Y27.57681
X19.51164 Y27.89827
X19.63951 Y28.21973
X19.56638 Y28.55288
X19.45678 Y28.94142
X19.41456 Y29.20271
X19.40364 Y29.63207
X19.44090 Y29.94584
X19.31030 Y30.15214
X19.21718 Y30.42676
X19.15719 Y30.51556
X19.06918 Y30.57187
X18.94248 Y30.59204
X17.31726 Y30.59204
X17.19582 Y30.57291
X17.03423 Y30.52072
X16.85059 Y30.67776
X11.21773 Y36.31385
X11.09878 Y36.49665
X11.13991 Y36.63302
X11.26518 Y36.91550
X11.25748 Y37.01689
X11.20937 Y37.10970
X11.10976 Y37.19053
X9.07184 Y38.36711
X8.81578 Y38.55039
X8.50112 Y38.74552

G04 P0 ( dwell for no time -- G64 should not smooth over this point )
G00 Z10.000 ( retract )

M5 ( Spindle off. )
M9 ( Coolant off. )
M2 ( Program end. )

