( pcb2gcode 1.3.2 )
( Software-independent Gcode )
( This file uses a mill head of 1.00000mm to drill the 4 bit sizes. )
( Bit sizes: [0.70000] [0.80000] [0.90000] [1.00000] )

G94       (Millimeters per minute feed rate.)
G21       (Units == Millimeters.)
G91.1     (Incremental arc distance mode.)
G90       (Absolute coordinates.)
S15000    (RPM spindle speed.)
F20.00000 (Feedrate)
M3        (Spindle on clockwise.)
G00 Z2.00000

G0 X35.13381 Y13.08581
G1 Z-2.50000
G0 Z2.00000

G0 X42.75381 Y13.08581
G1 Z-2.50000
G0 Z2.00000

G0 X17.28981 Y13.47981
G1 Z-2.50000
G0 Z2.00000

G0 X17.28981 Y16.01981
G1 Z-2.50000
G0 Z2.00000

G0 X17.28981 Y18.55981
G1 Z-2.50000
G0 Z2.00000

G0 X30.49781 Y16.60781
G1 Z-2.50000
G0 Z2.00000

G0 X30.49781 Y14.24181
G1 Z-2.50000
G0 Z2.00000

G0 X30.49781 Y9.24181
G1 Z-2.50000
G0 Z2.00000

G0 X30.49781 Y21.60781
G1 Z-2.50000
G0 Z2.00000

G0 X42.68381 Y18.14581
G1 Z-2.50000
G0 Z2.00000

G0 X45.22381 Y18.14581
G1 Z-2.50000
G0 Z2.00000

G0 X11.95581 Y13.73381
G1 Z-2.50000
G0 Z2.00000

G0 X11.95581 Y16.27381
G1 Z-2.50000
G0 Z2.00000

G0 X11.95581 Y18.81381
G1 Z-2.50000
G0 Z2.00000

G0 X11.95581 Y21.35381
G1 Z-2.50000
G0 Z2.00000

G0 X11.95581 Y23.89381
G1 Z-2.50000
G0 Z2.00000

G0 X17.79781 Y25.67181
G1 Z-2.50000
G0 Z2.00000

G0 X20.33781 Y25.67181
G1 Z-2.50000
G0 Z2.00000

G0 X22.87781 Y25.67181
G1 Z-2.50000
G0 Z2.00000

G0 X22.87781 Y29.48181
G1 Z-2.50000
G0 Z2.00000

G0 X20.33781 Y29.48181
G1 Z-2.50000
G0 Z2.00000

G0 X17.79781 Y29.48181
G1 Z-2.50000
G0 Z2.00000

G0 X17.79781 Y33.29181
G1 Z-2.50000
G0 Z2.00000

G0 X20.33781 Y33.29181
G1 Z-2.50000
G0 Z2.00000

G0 X22.87781 Y33.29181
G1 Z-2.50000
G0 Z2.00000

G0 X28.21181 Y32.02181
G1 Z-2.50000
G0 Z2.00000

G0 X28.21181 Y29.48181
G1 Z-2.50000
G0 Z2.00000

G0 X30.75181 Y29.48181
G1 Z-2.50000
G0 Z2.00000

G0 X30.75181 Y32.02181
G1 Z-2.50000
G0 Z2.00000

G0 X33.29181 Y32.02181
G1 Z-2.50000
G0 Z2.00000

G0 X33.29181 Y29.48181
G1 Z-2.50000
G0 Z2.00000

G0 X35.83181 Y29.48181
G1 Z-2.50000
G0 Z2.00000

G0 X35.83181 Y32.02181
G1 Z-2.50000
G0 Z2.00000

G0 X37.95281 Y26.18581
G1 Z-2.50000
G0 Z2.00000

G0 X39.62381 Y24.63081
G1 Z-2.50000
G0 Z2.00000

G0 X35.05481 Y23.07681
G1 Z-2.50000
G0 Z2.00000

G0 X36.21481 Y19.63481
G1 Z-2.50000
G0 Z2.00000

G0 X20.59181 Y10.17781
G1 Z-2.50000
G0 Z2.00000

G0 X18.05181 Y10.17781
G1 Z-2.50000
G0 Z2.00000

G00 Z10.000 ( All done -- retract )

M5      (Spindle off.)
M9      (Coolant off.)
M2      (Program end.)

