( pcb2gcode 1.3.2 )
( Software-independent Gcode )
( This file uses a mill head of 1.00000mm to drill the 4 bit sizes. )
( Bit sizes: [0.70000] [0.80000] [0.90000] [1.00000] )

G94       (Millimeters per minute feed rate.)
G21       (Units == Millimeters.)
G91.1     (Incremental arc distance mode.)
G90       (Absolute coordinates.)
S15000    (RPM spindle speed.)
F20.00000 (Feedrate)
M3        (Spindle on clockwise.)
G00 Z2.00000

G0 X35.13381 Y12.32380
G1 Z-2.50000
G0 Z2.00000

G0 X42.75381 Y12.32380
G1 Z-2.50000
G0 Z2.00000

G0 X22.11581 Y15.51180
G1 Z-2.50000
G0 Z2.00000

G0 X22.11581 Y18.05180
G1 Z-2.50000
G0 Z2.00000

G0 X22.11581 Y20.59180
G1 Z-2.50000
G0 Z2.00000

G0 X30.49781 Y20.84580
G1 Z-2.50000
G0 Z2.00000

G0 X30.49781 Y15.84580
G1 Z-2.50000
G0 Z2.00000

G0 X30.49781 Y13.47980
G1 Z-2.50000
G0 Z2.00000

G0 X30.49781 Y8.47980
G1 Z-2.50000
G0 Z2.00000

G0 X42.68381 Y17.38380
G1 Z-2.50000
G0 Z2.00000

G0 X45.22381 Y17.38380
G1 Z-2.50000
G0 Z2.00000

G0 X14.24181 Y9.41580
G1 Z-2.50000
G0 Z2.00000

G0 X14.24181 Y11.95580
G1 Z-2.50000
G0 Z2.00000

G0 X14.24181 Y14.49580
G1 Z-2.50000
G0 Z2.00000

G0 X14.24181 Y17.03580
G1 Z-2.50000
G0 Z2.00000

G0 X14.24181 Y19.57580
G1 Z-2.50000
G0 Z2.00000

G0 X16.78181 Y24.90980
G1 Z-2.50000
G0 Z2.00000

G0 X19.32181 Y24.90980
G1 Z-2.50000
G0 Z2.00000

G0 X21.86181 Y24.90980
G1 Z-2.50000
G0 Z2.00000

G0 X21.86181 Y28.71980
G1 Z-2.50000
G0 Z2.00000

G0 X19.32181 Y28.71980
G1 Z-2.50000
G0 Z2.00000

G0 X16.78181 Y28.71980
G1 Z-2.50000
G0 Z2.00000

G0 X16.78181 Y32.52980
G1 Z-2.50000
G0 Z2.00000

G0 X19.32181 Y32.52980
G1 Z-2.50000
G0 Z2.00000

G0 X21.86181 Y32.52980
G1 Z-2.50000
G0 Z2.00000

G0 X30.75181 Y31.25980
G1 Z-2.50000
G0 Z2.00000

G0 X30.75181 Y28.71980
G1 Z-2.50000
G0 Z2.00000

G0 X33.29181 Y28.71980
G1 Z-2.50000
G0 Z2.00000

G0 X33.29181 Y31.25980
G1 Z-2.50000
G0 Z2.00000

G0 X35.83181 Y31.25980
G1 Z-2.50000
G0 Z2.00000

G0 X35.83181 Y28.71980
G1 Z-2.50000
G0 Z2.00000

G0 X38.37181 Y28.71980
G1 Z-2.50000
G0 Z2.00000

G0 X38.37181 Y31.25980
G1 Z-2.50000
G0 Z2.00000

G0 X37.84981 Y25.48380
G1 Z-2.50000
G0 Z2.00000

G0 X40.26681 Y22.96180
G1 Z-2.50000
G0 Z2.00000

G0 X35.94181 Y18.59980
G1 Z-2.50000
G0 Z2.00000

G0 X32.96381 Y23.64280
G1 Z-2.50000
G0 Z2.00000

G0 X23.04281 Y12.44980
G1 Z-2.50000
G0 Z2.00000

G0 X20.59181 Y9.41580
G1 Z-2.50000
G0 Z2.00000

G0 X18.05181 Y9.41580
G1 Z-2.50000
G0 Z2.00000

G0 X17.74081 Y12.48480
G1 Z-2.50000
G0 Z2.00000

G00 Z10.000 ( All done -- retract )

M5      (Spindle off.)
M9      (Coolant off.)
M2      (Program end.)

